;FLAVOR:Marlin
;TIME:1056
;Filament used: 0.792351m
;Layer height: 0.2
;MINX:93.416
;MINY:95.917
;MINZ:0.24
;MAXX:127.615
;MAXY:124.146
;MAXZ:8.64
;TARGET_MACHINE.NAME:Creality Ender-3 S1
;POSTPROCESSED
;  [CreateThumbnail]
;  [CreateThumbnail]
;  [KlipperPreprocessor]
;Generated with Cura_SteamEngine 5.6.0
;
;

;
;

M82 ;absolute extrusion mode
;Nozzle diameter = 0.4
;Filament type = PLA
;Filament name = PLA
;Filament weight = [2.3632255126953123]
; M190 S50
; M109 S200
M140 S0
M104 S0
START_PRINT EXTRUDER_TEMP=200 BED_TEMP=50
G92 E0
G92 E0
G10
;LAYER_COUNT:38
;LAYER:-5
M106 S44.7
G0 F15000 X95.245 Y97.124 Z0.24
;TYPE:SUPPORT-INTERFACE
G11
G1 F4500 X95.515 Y96.866 E0.02981
G1 X95.869 Y96.613 E0.06454
G1 X96.205 Y96.449 E0.09439
G1 X96.451 Y96.351 E0.11553
G1 X96.8 Y96.253 E0.14446
G1 X97.013 Y96.212 E0.16178
G1 X97.365 Y96.183 E0.18997
G1 X97.937 Y96.218 E0.23572
G1 X97.954 Y96.238 E0.23781
G1 X98.26 Y96.26 E0.2623
G1 X98.935 Y96.265 E0.31618
G1 X99.599 Y96.188 E0.36954
G1 X100.197 Y96.043 E0.41866
G1 X100.367 Y95.992 E0.43283
G1 X100.594 Y95.941 E0.4514
G1 X100.962 Y95.917 E0.48084
G1 X115.263 Y95.918 E1.6224
G1 X115.606 Y95.94 E1.64984
G1 X115.818 Y95.973 E1.66697
G1 X116.172 Y96.107 E1.69718
G1 X116.636 Y96.304 E1.73742
G1 X117.299 Y96.494 E1.79247
G1 X117.963 Y96.594 E1.84607
G1 X118.704 Y96.61 E1.90524
G1 X119.334 Y96.543 E1.95581
G1 X119.958 Y96.378 E2.00733
G1 X119.976 Y96.39 E2.00906
G1 X120.399 Y96.268 E2.0442
G1 X120.965 Y96.261 E2.08939
G1 X122.513 Y96.536 E2.21489
G1 X122.839 Y96.616 E2.24168
G1 X123.059 Y96.693 E2.26029
G1 X123.342 Y96.861 E2.28656
G1 X123.542 Y97.049 E2.30847
G1 X123.759 Y97.328 E2.33669
G1 X123.893 Y97.625 E2.3627
G1 X123.957 Y97.917 E2.38656
G1 X123.981 Y98.268 E2.41464
G1 X123.981 Y107.746 E3.17122
G1 X124.023 Y108.387 E3.22249
G1 X124.154 Y109.068 E3.27785
G1 X124.371 Y109.727 E3.33323
G1 X124.656 Y110.326 E3.38618
G1 X125.027 Y110.906 E3.44114
G1 X125.468 Y111.433 E3.496
G1 X125.992 Y111.913 E3.55272
G1 X126.749 Y112.426 E3.62572
G1 X127.002 Y112.581 E3.6494
G1 X127.242 Y112.818 E3.67633
G1 X127.411 Y113.062 E3.70002
G1 X127.53 Y113.346 E3.7246
G1 X127.615 Y113.82 E3.76304
G1 X127.615 Y118.886 E4.16743
G1 X127.592 Y119.228 E4.19479
G1 X127.559 Y119.442 E4.21207
G1 X127.437 Y119.761 E4.23934
G1 X127.275 Y120.016 E4.26345
G1 X127.046 Y120.254 E4.28982
G1 X126.797 Y120.426 E4.31397
G1 X126.508 Y120.552 E4.33914
G1 X126.087 Y120.627 E4.37328
G1 X125.281 Y120.677 E4.43774
G1 X124.552 Y120.817 E4.49699
G1 X123.823 Y121.068 E4.55854
G1 X123.337 Y121.27 E4.60055
G1 X122.912 Y121.324 E4.63475
G1 X122.502 Y121.28 E4.66766
G1 X121.807 Y121.252 E4.72319
G1 X121.133 Y121.307 E4.77717
G1 X120.443 Y121.457 E4.83353
G1 X119.823 Y121.676 E4.88602
G1 X119.211 Y121.982 E4.94064
G1 X118.665 Y122.348 E4.99311
G1 X118.148 Y122.792 E5.04751
G1 X117.597 Y123.422 E5.11432
G1 X117.489 Y123.559 E5.12824
G1 X117.353 Y123.706 E5.14423
G1 X117.072 Y123.923 E5.17257
G1 X116.782 Y124.055 E5.198
G1 X116.518 Y124.117 E5.21965
G1 X116.115 Y124.145 E5.2519
G1 X101.815 Y124.146 E6.39339
G1 X101.356 Y124.115 E6.43011
G1 X100.983 Y123.985 E6.46164
G1 X100.337 Y123.636 E6.52025
G1 X99.646 Y123.368 E6.57941
G1 X98.991 Y123.206 E6.63327
G1 X98.359 Y123.132 E6.68407
G1 X97.619 Y123.139 E6.74314
G1 X97.007 Y123.234 E6.79258
G1 X96.431 Y123.235 E6.83855
G1 X94.884 Y122.959 E6.96399
G1 X94.434 Y122.848 E7.00099
G1 X94.063 Y122.64 E7.03494
G1 X93.861 Y122.455 E7.05681
G1 X93.659 Y122.189 E7.08347
G1 X93.525 Y121.913 E7.10796
G1 X93.449 Y121.67 E7.12828
G1 X93.417 Y121.227 E7.16374
G1 X93.416 Y106.909 E8.30666
G1 X93.439 Y106.564 E8.33426
G1 X93.475 Y106.34 E8.35237
G1 X93.575 Y106.084 E8.37431
G1 X93.738 Y105.807 E8.39997
G1 X94.193 Y105.19 E8.46116
G1 X94.499 Y104.641 E8.51133
G1 X94.757 Y104.01 E8.56575
G1 X94.937 Y103.328 E8.62206
G1 X95.022 Y102.677 E8.67446
G1 X95.025 Y101.942 E8.73313
G1 X94.943 Y101.297 E8.78503
G1 X94.775 Y100.633 E8.83971
G1 X94.599 Y100.159 E8.88007
G1 X94.467 Y99.682 E8.91958
G1 X94.431 Y99.241 E8.9549
G1 X94.457 Y98.794 E8.99064
G1 X94.527 Y98.429 E9.0203
G1 X94.664 Y98.005 E9.05587
G1 X94.83 Y97.681 E9.08493
G1 X95.012 Y97.402 E9.11152
G1 X95.245 Y97.124 E9.14048
G0 F15000 X95.353 Y97.616
G1 F4500 X119.252 Y121.514 E11.83835
G0 F15000 X117.927 Y122.453
G1 F4500 X94.842 Y99.367 E14.44444
G0 F15000 X95.421 Y102.209
G1 F4500 X116.812 Y123.6 E16.85924
G0 F15000 X114.693 Y123.744
G1 F4500 X95.12 Y104.171 E19.06881
G0 F15000 X94.342 Y105.656
G1 F4500 X112.43 Y123.744 E21.11074
G0 F15000 X110.167 Y123.744
G1 F4500 X93.816 Y107.392 E22.95664
G0 F15000 X93.816 Y109.655
G1 F4500 X107.905 Y123.744 E24.54712
G0 F15000 X105.642 Y123.744
G1 F4500 X93.816 Y111.918 E25.88215
G0 F15000 X93.816 Y114.18
G1 F4500 X103.379 Y123.744 E26.96176
G0 F15000 X100.814 Y123.441
G1 F4500 X93.816 Y116.443 E27.75175
G0 F15000 X93.816 Y118.706
G1 F4500 X97.844 Y122.734 E28.20647
G0 F15000 X95.51 Y122.663
G1 F4500 X93.816 Y120.968 E28.39776
G0 F15000 X96.697 Y96.697
G1 F4500 X120.94 Y120.94 E31.13452
G0 F15000 X123.151 Y120.889
G1 F4500 X98.927 Y96.664 E33.86919
G0 F15000 X100.851 Y96.325
G1 F4500 X124.872 Y120.347 E36.58094
G0 F15000 X126.755 Y119.967
G1 F4500 X103.106 Y96.317 E39.2507
G0 F15000 X105.368 Y96.317
G1 F4500 X127.213 Y118.162 E41.71675
G0 F15000 X127.211 Y115.897
G1 F4500 X107.631 Y96.317 E43.92711
G0 F15000 X109.895 Y96.318
G1 F4500 X124.677 Y111.101 E45.59589
G0 F15000 X125.93 Y112.354
G1 F4500 X127.167 Y113.591 E45.73553
G0 F15000 X123.581 Y107.741
G1 F4500 X112.157 Y96.318 E47.02512
G0 F15000 X114.42 Y96.318
G1 F4500 X123.581 Y105.479 E48.05929
G0 F15000 X123.581 Y103.216
G1 F4500 X117.253 Y96.889 E48.77359
G0 F15000 X119.535 Y96.908
G1 F4500 X123.581 Y100.953 E49.23028
G0 F15000 X123.581 Y98.69
G1 F4500 X121.686 Y96.796 E49.44415
M104 S200
G0 F600 X121.686 Y96.796 Z0.54
G0 F15000 X126.038 Y120.228
;TIME_ELAPSED:19.624777
;LAYER:-4
M107
;TYPE:SUPPORT
G1 F4500 X126.383 Y120.166 E49.47913
G1 X126.589 Y120.083 E49.50129
G1 X126.804 Y119.926 E49.52785
G1 X126.974 Y119.742 E49.55285
G1 X127.088 Y119.55 E49.57513
G1 X127.19 Y119.266 E49.60524
G1 X127.214 Y118.858 E49.64602
G1 X125.833 Y120.239 E49.84089
G1 X125.287 Y120.265 E49.89543
G1 X124.477 Y120.421 E49.97774
G1 X124.11 Y120.548 E50.01649
G1 X127.214 Y117.444 E50.4545
G1 X127.214 Y116.03 E50.59559
G1 X122.369 Y120.874 E51.2792
G1 X121.804 Y120.849 E51.33563
G1 X121.072 Y120.912 E51.40894
G1 X120.876 Y120.954 E51.42894
G1 X127.214 Y114.616 E52.3233
G1 X127.214 Y113.849 E52.39983
G1 X127.112 Y113.304 E52.45516
G1 X118.202 Y122.213 E53.71238
G1 X117.91 Y122.468 E53.75107
G1 X117.871 Y122.429 E53.75657
G0 F15000 X116.888 Y123.558
G1 F4500 X117.116 Y123.383 E53.78525
G1 X117.432 Y122.984 E53.83603
G1 X116.779 Y123.636 E53.92811
G1 X116.434 Y123.724 E53.96363
G1 X116.125 Y123.745 E53.99454
G1 X115.256 Y123.745 E54.08125
G1 X126.358 Y112.643 E55.64786
G1 X125.716 Y112.209 E55.72518
G1 X125.541 Y112.046 E55.74905
G1 X113.842 Y123.745 E57.3999
G1 X112.428 Y123.745 E57.54099
G1 X124.852 Y111.321 E59.29415
G1 X124.701 Y111.14 E59.31767
G1 X124.283 Y110.476 E59.39596
G1 X111.014 Y123.745 E61.26836
G1 X109.6 Y123.745 E61.40945
G1 X123.866 Y109.478 E63.42261
G1 X123.763 Y109.163 E63.45567
G1 X123.602 Y108.328 E63.54053
G1 X108.185 Y123.745 E65.71603
G1 X106.771 Y123.745 E65.85712
G1 X123.58 Y106.936 E68.22905
G1 X123.58 Y105.522 E68.37014
G1 X105.357 Y123.745 E70.9416
G1 X103.943 Y123.745 E71.08269
G1 X123.58 Y104.108 E73.85369
G1 X123.58 Y102.693 E73.99487
G1 X102.529 Y123.745 E76.96547
G1 X101.804 Y123.745 E77.03781
G1 X101.435 Y123.721 E77.07471
G1 X101.215 Y123.643 E77.098
G1 X123.58 Y101.279 E80.25387
G1 X123.58 Y99.865 E80.39496
G1 X100.269 Y123.176 E83.68439
G1 X99.797 Y122.993 E83.73491
G1 X99.189 Y122.842 E83.79741
G1 X123.591 Y98.44 E87.2408
G1 X123.559 Y97.964 E87.2884
G1 X123.494 Y97.722 E87.31341
G1 X123.39 Y97.507 E87.33724
G1 X123.268 Y97.348 E87.35723
G1 X97.884 Y122.732 E90.93919
G1 X97.621 Y122.733 E90.96543
G1 X96.872 Y122.832 E91.04082
G1 X96.368 Y122.835 E91.09111
G1 X122.299 Y96.903 E94.75032
G1 X121.097 Y96.691 E94.87211
G1 X95.183 Y122.605 E98.52886
G1 X94.953 Y122.564 E98.55217
G1 X94.589 Y122.476 E98.58953
G1 X94.146 Y122.228 E98.64019
G1 X119.385 Y96.988 E102.20176
G1 X119.371 Y96.94 E102.20675
G1 X118.692 Y97.012 E102.27488
G1 X117.964 Y96.995 E102.34754
G1 X93.816 Y121.144 E105.75515
G1 X93.816 Y119.73 E105.89624
G1 X116.783 Y96.762 E109.1372
G1 X116.526 Y96.69 E109.16383
G1 X116.044 Y96.486 E109.21606
G1 X115.751 Y96.38 E109.24715
G1 X93.816 Y118.315 E112.34241
G1 X93.816 Y116.901 E112.4835
G1 X114.4 Y96.317 E115.38813
G1 X112.986 Y96.317 E115.52922
G1 X93.816 Y115.487 E118.23431
G1 X93.816 Y114.073 E118.3754
G1 X111.572 Y96.317 E120.88096
G1 X110.158 Y96.317 E121.02205
G1 X93.816 Y112.659 E123.32809
G1 X93.816 Y111.244 E123.46928
G1 X108.743 Y96.317 E125.57564
G1 X107.329 Y96.317 E125.71673
G1 X93.816 Y109.83 E127.62356
G1 X93.816 Y108.416 E127.76465
G1 X105.915 Y96.317 E129.47195
G1 X104.501 Y96.317 E129.61304
G1 X93.816 Y107.002 E131.1208
G1 X93.841 Y106.507 E131.17026
G1 X93.941 Y106.242 E131.19852
G1 X94.071 Y106.027 E131.22359
G1 X94.514 Y105.433 E131.29753
G1 X94.873 Y104.792 E131.37083
G1 X95.048 Y104.355 E131.41781
G1 X103.086 Y96.317 E132.55205
G1 X101.672 Y96.317 E132.69314
G1 X95.426 Y102.563 E133.57452
G1 X95.426 Y101.94 E133.63668
G1 X95.34 Y101.235 E133.70755
G1 X100.102 Y96.473 E134.37952
G1 X99.687 Y96.578 E134.42223
G1 X98.96 Y96.665 E134.49529
G1 X98.699 Y96.662 E134.52134
G1 X98.691 Y96.717 E134.52688
G1 X98.47 Y96.69 E134.5491
G1 X95.011 Y100.149 E135.0372
G1 X94.861 Y99.615 E135.09255
G1 X94.83 Y99.203 E135.13377
G1 X94.849 Y98.866 E135.16745
G1 X94.913 Y98.525 E135.20207
G1 X95.04 Y98.145 E135.24205
G1 X95.175 Y97.883 E135.27146
G1 X95.385 Y97.577 E135.30849
G1 X95.532 Y97.401 E135.33137
G1 X95.768 Y97.174 E135.36404
G1 X96.076 Y96.957 E135.40164
G1 X96.373 Y96.81 E135.4347
G1 X96.667 Y96.694 E135.46624
G1 X97.16 Y96.586 E135.5166
G1 X94.848 Y98.898 E135.84284
G0 F600 X94.848 Y98.898 Z0.74
G0 F15000 X94.81 Y122.529
;TIME_ELAPSED:38.468774
;LAYER:-3
;TYPE:SUPPORT-INTERFACE
G1 F6000 X93.844 Y121.562 E135.88831
G1 X93.899 Y121.772 E135.89553
G1 X94.003 Y121.982 E135.90332
G1 X94.151 Y122.177 E135.91146
G1 X94.326 Y122.329 E135.91917
G1 X94.589 Y122.476 E135.92919
G1 X94.953 Y122.564 E135.94165
G1 X95.509 Y122.662 E135.96043
G1 X93.816 Y120.968 E136.04008
G1 X93.816 Y120.403 E136.05888
G1 X96.196 Y122.784 E136.17085
G1 X96.479 Y122.834 E136.18041
G1 X96.811 Y122.832 E136.19145
G1 X93.816 Y119.837 E136.33232
G1 X93.816 Y119.271 E136.35115
G1 X97.317 Y122.773 E136.51585
G1 X97.621 Y122.733 E136.52605
G1 X97.842 Y122.732 E136.5334
G1 X93.816 Y118.706 E136.72277
G1 X93.816 Y118.14 E136.74159
G1 X98.411 Y122.736 E136.95775
G1 X99.052 Y122.811 E136.97922
G1 X93.816 Y117.574 E137.22553
G1 X93.816 Y117.009 E137.24432
G1 X99.801 Y122.994 E137.52583
G1 X100.472 Y123.255 E137.54978
G1 X100.81 Y123.437 E137.56255
G1 X93.816 Y116.443 E137.89152
G1 X93.816 Y115.877 E137.91035
G1 X101.683 Y123.745 E138.28041
G1 X102.249 Y123.745 E138.29924
G1 X93.816 Y115.312 E138.6959
G1 X93.816 Y114.746 E138.71473
G1 X102.814 Y123.745 E139.13799
G1 X103.38 Y123.745 E139.15681
G1 X93.816 Y114.18 E139.6067
G1 X93.816 Y113.615 E139.62549
G1 X103.946 Y123.745 E140.10197
G1 X104.511 Y123.745 E140.12077
G1 X93.816 Y113.049 E140.62385
G1 X93.816 Y112.483 E140.64267
G1 X105.077 Y123.745 E141.17238
G1 X105.643 Y123.745 E141.19121
G1 X93.816 Y111.918 E141.74751
G1 X93.816 Y111.352 E141.76634
G1 X106.208 Y123.745 E142.34924
G1 X106.774 Y123.745 E142.36807
G1 X93.816 Y110.786 E142.9776
G1 X93.816 Y110.22 E142.99642
G1 X107.34 Y123.745 E143.63257
G1 X107.905 Y123.745 E143.65136
G1 X93.816 Y109.655 E144.31409
G1 X93.816 Y109.089 E144.33292
G1 X108.471 Y123.745 E145.02227
G1 X109.037 Y123.745 E145.04109
G1 X93.816 Y108.523 E145.75706
G1 X93.816 Y107.958 E145.77586
G1 X109.602 Y123.745 E146.5184
G1 X110.168 Y123.745 E146.53723
G1 X93.816 Y107.392 E147.3064
G1 X93.82 Y106.831 E147.32506
G1 X110.734 Y123.745 E148.12064
G1 X111.3 Y123.745 E148.13947
G1 X93.886 Y106.331 E148.95857
G1 X94.103 Y105.983 E148.97221
G1 X111.865 Y123.745 E149.80768
G1 X112.431 Y123.745 E149.82651
G1 X94.345 Y105.658 E150.67724
G1 X94.587 Y105.335 E150.69066
G1 X112.997 Y123.745 E151.55661
G1 X113.562 Y123.745 E151.5754
G1 X94.798 Y104.98 E152.45803
G1 X94.959 Y104.576 E152.47249
G1 X114.128 Y123.745 E153.37414
G1 X114.694 Y123.745 E153.39297
G1 X95.128 Y104.179 E154.31329
G1 X95.244 Y103.729 E154.32875
G1 X115.259 Y123.745 E155.27022
G1 X115.825 Y123.745 E155.28904
G1 X95.346 Y103.266 E156.25231
G1 X95.412 Y102.766 E156.26909
G1 X116.383 Y123.737 E157.2555
G1 X116.834 Y123.622 E157.27098
G1 X95.426 Y102.214 E158.27795
G1 X95.426 Y101.94 E158.28706
G1 X95.385 Y101.608 E158.29819
G1 X117.136 Y123.359 E159.32129
G1 X117.386 Y123.042 E159.33471
G1 X95.261 Y100.918 E160.37538
G1 X95.156 Y100.51 E160.38939
G1 X95 Y100.091 E160.40427
G1 X117.636 Y122.727 E161.46899
G1 X117.886 Y122.411 E161.48239
G1 X94.82 Y99.346 E162.56733
G1 X94.858 Y98.818 E162.58493
G1 X118.229 Y122.189 E163.68423
G1 X118.532 Y121.926 E163.69758
G1 X94.967 Y98.362 E164.80598
G1 X95.04 Y98.145 E164.81359
G1 X95.134 Y97.962 E164.82044
G1 X118.874 Y121.702 E165.93709
G1 X119.25 Y121.513 E165.95109
G1 X95.356 Y97.618 E167.07501
G1 X95.609 Y97.306 E167.08837
G1 X119.627 Y121.324 E168.21811
G1 X120.041 Y121.173 E168.23276
G1 X95.908 Y97.04 E169.36791
G1 X96.287 Y96.853 E169.38196
G1 X120.473 Y121.039 E170.5196
G1 X120.94 Y120.94 E170.53548
G1 X96.69 Y96.69 E171.67612
G1 X97.153 Y96.588 E171.69189
G1 X121.445 Y120.879 E172.83449
G1 X121.966 Y120.835 E172.85188
G1 X97.734 Y96.602 E173.9917
G1 X98.376 Y96.679 E174.01321
G1 X122.584 Y120.886 E175.15185
G1 X122.948 Y120.918 E175.16401
G1 X123.154 Y120.891 E175.17092
G1 X98.927 Y96.665 E176.31046
G1 X99.436 Y96.608 E176.32749
G1 X123.568 Y120.739 E177.46256
G1 X123.984 Y120.59 E177.47726
G1 X99.914 Y96.52 E178.60944
G1 X100.366 Y96.406 E178.62494
G1 X124.397 Y120.437 E179.75529
G1 X124.87 Y120.345 E179.77132
G1 X100.849 Y96.324 E180.90119
G1 X101.408 Y96.317 E180.91978
G1 X125.353 Y120.261 E182.04606
G1 X125.892 Y120.235 E182.06401
G1 X101.973 Y96.317 E183.18906
G1 X102.539 Y96.317 E183.20789
G1 X126.386 Y120.164 E184.32958
G1 X126.589 Y120.083 E184.33685
G1 X126.752 Y119.964 E184.34356
G1 X103.105 Y96.317 E185.45584
G1 X103.671 Y96.317 E185.47467
G1 X127.039 Y119.685 E186.57382
G1 X127.189 Y119.269 E186.58853
G1 X104.236 Y96.317 E187.66815
G1 X104.802 Y96.317 E187.68697
G1 X127.214 Y118.728 E188.74114
G1 X127.214 Y118.163 E188.75993
G1 X105.368 Y96.317 E189.7875
G1 X105.933 Y96.317 E189.80629
G1 X127.214 Y117.597 E190.80726
G1 X127.214 Y117.031 E190.82609
G1 X106.499 Y96.317 E191.80044
G1 X107.065 Y96.317 E191.81926
G1 X127.214 Y116.466 E192.76701
G1 X127.214 Y115.9 E192.78583
G1 X107.63 Y96.317 E193.70698
G1 X108.196 Y96.317 E193.72581
G1 X127.214 Y115.334 E194.62033
G1 X127.214 Y114.769 E194.63912
G1 X108.762 Y96.317 E195.50705
G1 X109.327 Y96.317 E195.52584
G1 X127.214 Y114.203 E196.36717
G1 X127.214 Y113.849 E196.37894
G1 X127.141 Y113.457 E196.3922
G1 X127.037 Y113.226 E196.40063
G1 X126.909 Y113.051 E196.40784
G1 X126.722 Y112.878 E196.41631
G1 X126.535 Y112.763 E196.42361
G1 X125.716 Y112.209 E196.4565
G1 X125.171 Y111.702 E196.48126
G1 X124.673 Y111.097 E196.50732
G1 X109.893 Y96.317 E197.20253
G1 X110.459 Y96.317 E197.22135
G1 X123.989 Y109.846 E197.85774
G1 X123.71 Y109.002 E197.8873
G1 X111.024 Y96.317 E198.48399
