;FLAVOR:Marlin
;TIME:2424
;Filament used: 1.67682m
;Layer height: 0.2
;MINX:80.387
;MINY:62.198
;MINZ:0.2
;MAXX:138.519
;MAXY:154.854
;MAXZ:8.4
;TARGET_MACHINE.NAME:Creality Ender-3 S1
;POSTPROCESSED
;  [CreateThumbnail]
;  [CreateThumbnail]
;  [KlipperPreprocessor]
;Generated with Cura_SteamEngine 5.10.0-alpha.0
;Nozzle diameter = 0.4
;Filament type = PLA
;Filament name = PLA
;Filament weight = [5.00119125]; M190 S50
; M109 S200
M140 S0
M104 S0
START_PRINT EXTRUDER_TEMP=200 BED_TEMP=50
M82 ;absolute extrusion mode
G92 E0
G92 E0
G10
;LAYER_COUNT:42
;LAYER:0
M107
G0 F9000 X88.267 Y62.73 Z0.2
;TYPE:SKIRT
G11
G1 F3000 X88.42 Y62.544 E0.00801
G1 X88.654 Y62.46 E0.01628
G1 X88.99 Y62.451 E0.02746
G1 X89.895 Y62.461 E0.05756
G1 X91.31 Y62.771 E0.10574
G1 X94.073 Y63.33 E0.1995
G1 X96.84 Y63.811 E0.29291
G1 X99.64 Y64.215 E0.387
G1 X102.437 Y64.539 E0.48065
G1 X105.235 Y64.782 E0.57407
G1 X108.046 Y64.946 E0.66772
G1 X110.873 Y65.032 E0.76179
G1 X113.678 Y65.038 E0.85508
G1 X116.505 Y64.963 E0.94914
G1 X119.306 Y64.811 E1.04244
G1 X122.118 Y64.577 E1.13629
G1 X124.925 Y64.263 E1.23024
G1 X127.715 Y63.872 E1.32394
G1 X130.486 Y63.403 E1.41741
G1 X133.256 Y62.853 E1.51134
G1 X135.019 Y62.461 E1.57141
G1 X135.389 Y62.451 E1.58372
G1 X136.374 Y62.461 E1.61649
G1 X136.561 Y62.613 E1.6245
G1 X136.646 Y62.849 E1.63285
G1 X136.655 Y63.17 E1.64353
G1 X136.655 Y67.235 E1.77873
G1 X136.695 Y70.046 E1.87223
G1 X136.815 Y72.872 E1.96631
G1 X137.013 Y75.67 E2.0596
G1 X137.291 Y78.474 E2.15332
G1 X137.648 Y81.266 E2.24694
G1 X138.065 Y83.841 E2.3337
G1 X138.245 Y85.042 E2.37409
G1 X138.255 Y85.566 E2.39152
G1 X138.255 Y89.752 E2.53075
G1 X138.237 Y90.667 E2.56119
G1 X137.904 Y91.591 E2.59386
G1 X136.987 Y94.248 E2.68735
G1 X136.142 Y96.934 E2.781
G1 X135.371 Y99.657 E2.87513
G1 X134.675 Y102.412 E2.96964
G1 X134.069 Y105.126 E3.06213
G1 X133.532 Y107.903 E3.1562
G1 X133.075 Y110.683 E3.24991
G1 X132.698 Y113.463 E3.34322
G1 X132.398 Y116.275 E3.43727
G1 X132.178 Y119.084 E3.53099
G1 X132.039 Y121.898 E3.6247
G1 X131.978 Y124.715 E3.71841
G1 X131.987 Y131.553 E3.94584
G1 X131.971 Y132.36 E3.97269
G1 X131.417 Y135.793 E4.08835
G1 X131.053 Y138.586 E4.18203
G1 X130.767 Y141.389 E4.27574
G1 X130.562 Y144.186 E4.36902
G1 X130.435 Y147.012 E4.46311
G1 X130.387 Y150.085 E4.56533
G1 X130.387 Y153.724 E4.68636
G1 X130.375 Y154.574 E4.71464
G1 X130.222 Y154.761 E4.72267
G1 X129.988 Y154.845 E4.73094
G1 X129.652 Y154.854 E4.74212
G1 X128.747 Y154.844 E4.77223
G1 X127.332 Y154.534 E4.8204
G1 X124.569 Y153.975 E4.91416
G1 X121.802 Y153.494 E5.00758
G1 X119.002 Y153.09 E5.10167
G1 X116.203 Y152.766 E5.19538
G1 X113.407 Y152.523 E5.28873
G1 X110.596 Y152.359 E5.38238
G1 X107.769 Y152.273 E5.47645
G1 X104.964 Y152.267 E5.56975
G1 X102.137 Y152.342 E5.66381
G1 X99.336 Y152.495 E5.75711
G1 X96.524 Y152.728 E5.85096
G1 X93.717 Y153.042 E5.9449
G1 X90.927 Y153.433 E6.0386
G1 X88.156 Y153.902 E6.13208
G1 X85.386 Y154.452 E6.22601
G1 X83.623 Y154.844 E6.28608
G1 X83.253 Y154.854 E6.29839
G1 X82.268 Y154.844 E6.33115
G1 X82.081 Y154.692 E6.33916
G1 X81.996 Y154.456 E6.34751
G1 X81.987 Y154.123 E6.35859
G1 X81.987 Y150.075 E6.49322
G1 X81.947 Y147.253 E6.58709
G1 X81.827 Y144.437 E6.68084
G1 X81.628 Y141.628 E6.7745
G1 X81.351 Y138.835 E6.86785
G1 X80.992 Y136.031 E6.96188
G1 X80.597 Y133.604 E7.04366
G1 X80.397 Y132.243 E7.08941
G1 X80.387 Y131.928 E7.0999
G1 X80.387 Y127.555 E7.24534
G1 X80.397 Y126.858 E7.26853
G1 X80.431 Y126.575 E7.27801
G1 X80.613 Y125.791 E7.30478
G1 X80.911 Y124.583 E7.34616
G1 X81.512 Y121.82 E7.44021
G1 X82.032 Y119.06 E7.53362
G1 X82.475 Y116.275 E7.62741
G1 X82.839 Y113.475 E7.72132
G1 X83.124 Y110.673 E7.815
G1 X83.328 Y107.873 E7.90838
G1 X83.454 Y105.049 E8.0024
G1 X83.494 Y103.234 E8.06278
G1 X83.542 Y102.696 E8.08074
G1 X83.634 Y102.254 E8.09576
G1 X84.258 Y99.816 E8.17946
G1 X84.88 Y97.056 E8.27356
G1 X85.419 Y94.305 E8.3668
G1 X85.884 Y91.525 E8.46055
G1 X86.267 Y88.747 E8.55382
G1 X86.536 Y86.33 E8.6347
G1 X86.678 Y84.911 E8.68214
G1 X87.225 Y81.512 E8.79664
G1 X87.589 Y78.719 E8.89032
G1 X87.875 Y75.916 E8.98403
G1 X88.08 Y73.119 E9.07731
G1 X88.207 Y70.293 E9.1714
G1 X88.255 Y67.22 E9.27362
G1 X88.255 Y63.519 E9.39672
G1 X88.267 Y62.73 E9.42296
G10
;MESH:Filler Hatch.stl
G0 F9000 X87.99 Y62.73
G0 X86.391 Y85.008
G0 X86.202 Y98.86
G0 X86.624 Y99.869
G0 X85.478 Y105.579
G0 X85.224 Y105.754
;TYPE:WALL-INNER
G11
G1 F3000 X85.391 Y105.963 E9.43186
G1 X85.584 Y106.17 E9.44127
G1 X85.772 Y106.344 E9.44979
G1 X85.99 Y106.524 E9.4592
G1 X86.209 Y106.674 E9.46803
G1 X86.439 Y106.812 E9.47695
G1 X86.695 Y106.938 E9.48644
G1 X86.928 Y107.037 E9.49486
G1 X87.201 Y107.127 E9.50442
G1 X87.473 Y107.197 E9.51376
G1 X87.713 Y107.241 E9.52187
G1 X87.99 Y107.268 E9.53113
G1 X88.267 Y107.279 E9.54035
G1 X88.542 Y107.269 E9.5495
G1 X88.819 Y107.241 E9.55876
G1 X89.059 Y107.197 E9.56688
G1 X89.331 Y107.127 E9.57622
G1 X89.604 Y107.038 E9.58577
G1 X89.837 Y106.938 E9.5942
G1 X90.093 Y106.812 E9.60369
G1 X90.323 Y106.674 E9.61262
G1 X90.542 Y106.524 E9.62144
G1 X90.76 Y106.344 E9.63085
G1 X90.948 Y106.17 E9.63937
G1 X91.141 Y105.963 E9.64878
G1 X91.308 Y105.754 E9.65768
G1 X91.466 Y105.531 E9.66677
G1 X91.603 Y105.295 E9.67584
G1 X91.722 Y105.058 E9.68467
G1 X91.825 Y104.809 E9.69363
G1 X91.915 Y104.54 E9.70306
G1 X91.98 Y104.277 E9.71207
G1 X92.025 Y104.031 E9.72039
G1 X92.053 Y103.758 E9.72952
G1 X92.067 Y103.477 E9.73888
G1 X92.053 Y103.202 E9.74803
G1 X92.025 Y102.925 E9.75729
G1 X91.981 Y102.683 E9.76548
G1 X91.915 Y102.422 E9.77443
G1 X91.825 Y102.155 E9.7838
G1 X91.721 Y101.901 E9.79293
G1 X91.605 Y101.669 E9.80156
G1 X91.466 Y101.436 E9.81058
G1 X91.299 Y101.192 E9.82041
G1 X91.133 Y100.989 E9.82914
G1 X90.947 Y100.793 E9.83812
G1 X90.76 Y100.616 E9.84669
G1 X90.541 Y100.439 E9.85605
G1 X90.331 Y100.29 E9.86462
G1 X90.086 Y100.148 E9.87404
G1 X89.837 Y100.022 E9.88332
G1 X89.604 Y99.926 E9.8917
G1 X89.331 Y99.833 E9.90129
G1 X89.062 Y99.767 E9.9105
G1 X88.816 Y99.722 E9.91882
G1 X88.539 Y99.691 E9.92809
G1 X88.267 Y99.681 E9.93715
G1 X87.993 Y99.691 E9.94626
G1 X87.716 Y99.722 E9.95554
G1 X87.47 Y99.767 E9.96385
G1 X87.201 Y99.833 E9.97307
G1 X86.928 Y99.926 E9.98266
G1 X86.695 Y100.022 E9.99104
G1 X86.446 Y100.148 E10.00032
G1 X86.201 Y100.29 E10.00974
G1 X85.991 Y100.439 E10.0183
G1 X85.77 Y100.618 E10.02776
G1 X85.577 Y100.797 E10.03652
G1 X85.401 Y100.987 E10.04513
G1 X85.233 Y101.193 E10.05397
G1 X85.066 Y101.436 E10.06378
G1 X84.927 Y101.669 E10.0728
G1 X84.811 Y101.901 E10.08143
G1 X84.707 Y102.155 E10.09056
G1 X84.617 Y102.422 E10.09993
G1 X84.551 Y102.684 E10.10892
G1 X84.507 Y102.925 E10.11707
G1 X84.48 Y103.197 E10.12616
G1 X84.469 Y103.491 E10.13594
G1 X84.479 Y103.761 E10.14493
G1 X84.507 Y104.031 E10.15396
G1 X84.551 Y104.277 E10.16227
G1 X84.617 Y104.54 E10.17129
G1 X84.707 Y104.809 E10.18072
G1 X84.81 Y105.058 E10.18968
G1 X84.929 Y105.295 E10.1985
G1 X85.066 Y105.531 E10.20758
G1 X85.224 Y105.754 E10.21667
G0 F9000 X85.478 Y105.579
G0 X88.832 Y107.331
G0 X88.875 Y107.637
;TYPE:WALL-OUTER
G1 F3000 X89.145 Y107.588 E10.2258
G1 X89.443 Y107.511 E10.23603
G1 X89.745 Y107.412 E10.24661
G1 X90.004 Y107.302 E10.25596
G1 X90.284 Y107.164 E10.26635
G1 X90.539 Y107.011 E10.27624
G1 X90.783 Y106.844 E10.28607
G1 X91.024 Y106.645 E10.29647
G1 X91.23 Y106.454 E10.30581
G1 X91.444 Y106.225 E10.31624
G1 X91.628 Y105.995 E10.32603
G1 X91.803 Y105.747 E10.33613
G1 X91.955 Y105.485 E10.3462
G1 X92.086 Y105.224 E10.35591
G1 X92.2 Y104.949 E10.36582
G1 X92.299 Y104.652 E10.37623
G1 X92.372 Y104.361 E10.38621
G1 X92.421 Y104.087 E10.39547
G1 X92.452 Y103.788 E10.40546
G1 X92.467 Y103.477 E10.41582
G1 X92.452 Y103.172 E10.42598
G1 X92.421 Y102.869 E10.43611
G1 X92.372 Y102.599 E10.44523
G1 X92.299 Y102.309 E10.45518
G1 X92.2 Y102.015 E10.4655
G1 X92.085 Y101.735 E10.47557
G1 X91.956 Y101.477 E10.48516
G1 X91.803 Y101.22 E10.49511
G1 X91.619 Y100.952 E10.50592
G1 X91.433 Y100.725 E10.51568
G1 X91.23 Y100.51 E10.52552
G1 X91.024 Y100.315 E10.53495
G1 X90.783 Y100.12 E10.54526
G1 X90.547 Y99.953 E10.55488
G1 X90.276 Y99.796 E10.56529
G1 X90.004 Y99.658 E10.57544
G1 X89.745 Y99.552 E10.58475
G1 X89.443 Y99.449 E10.59536
G1 X89.146 Y99.376 E10.60553
G1 X88.874 Y99.326 E10.61473
G1 X88.569 Y99.292 E10.62494
G1 X88.267 Y99.281 E10.63499
G1 X87.963 Y99.292 E10.6451
G1 X87.658 Y99.326 E10.65531
G1 X87.386 Y99.376 E10.66451
G1 X87.089 Y99.449 E10.67468
G1 X86.787 Y99.552 E10.6853
G1 X86.528 Y99.658 E10.6946
G1 X86.256 Y99.796 E10.70475
G1 X85.985 Y99.953 E10.71516
G1 X85.749 Y100.12 E10.72478
G1 X85.508 Y100.316 E10.73511
G1 X85.294 Y100.514 E10.74481
G1 X85.099 Y100.724 E10.75434
G1 X84.913 Y100.953 E10.76415
G1 X84.729 Y101.22 E10.77494
G1 X84.576 Y101.477 E10.78489
G1 X84.447 Y101.735 E10.79448
G1 X84.332 Y102.015 E10.80455
G1 X84.233 Y102.309 E10.81487
G1 X84.16 Y102.599 E10.82481
G1 X84.111 Y102.869 E10.83394
G1 X84.08 Y103.17 E10.844
G1 X84.069 Y103.491 E10.85469
G1 X84.08 Y103.789 E10.8646
G1 X84.111 Y104.087 E10.87457
G1 X84.16 Y104.361 E10.88383
G1 X84.233 Y104.652 E10.89381
G1 X84.332 Y104.949 E10.90422
G1 X84.446 Y105.224 E10.91412
G1 X84.577 Y105.485 E10.92383
G1 X84.729 Y105.747 E10.93391
G1 X84.904 Y105.995 E10.944
G1 X85.088 Y106.225 E10.9538
G1 X85.302 Y106.454 E10.96422
G1 X85.508 Y106.645 E10.97357
G1 X85.749 Y106.844 E10.98396
G1 X85.993 Y107.011 E10.9938
G1 X86.248 Y107.164 E11.00369
G1 X86.528 Y107.302 E11.01407
G1 X86.787 Y107.412 E11.02343
G1 X87.089 Y107.511 E11.034
G1 X87.387 Y107.588 E11.04424
G1 X87.657 Y107.637 E11.05336
G1 X87.962 Y107.668 E11.06356
G1 X88.267 Y107.679 E11.07371
G1 X88.57 Y107.668 E11.0838
G1 X88.875 Y107.637 E11.09399
G0 F9000 X89.072 Y107.602
G0 X89.019 Y107.297
G0 X85.04 Y102.29
;TYPE:SKIN
G1 F3000 X85.143 Y102.035 E11.10314
G1 X85.236 Y101.853 E11.10994
G1 X85.373 Y101.62 E11.11893
G1 X85.513 Y101.416 E11.12716
G1 X85.664 Y101.232 E11.13507
G1 X85.835 Y101.045 E11.1435
G1 X86.004 Y100.888 E11.15117
G1 X86.198 Y100.732 E11.15945
G1 X86.397 Y100.589 E11.1676
G1 X86.615 Y100.465 E11.17595
G1 X86.835 Y100.355 E11.18413
G1 X87.059 Y100.264 E11.19217
G1 X87.31 Y100.176 E11.20101
G1 X87.543 Y100.116 E11.20902
G1 X87.76 Y100.079 E11.21634
G1 X88.015 Y100.052 E11.22487
G1 X88.265 Y100.041 E11.23319
G1 X88.516 Y100.052 E11.24155
G1 X88.768 Y100.079 E11.24998
G1 X88.986 Y100.116 E11.25733
G1 X89.226 Y100.176 E11.26556
G1 X89.465 Y100.26 E11.27398
G1 X89.696 Y100.354 E11.28228
G1 X90.131 Y100.589 E11.29872
G1 X90.33 Y100.731 E11.30685
G1 X90.524 Y100.891 E11.31522
G1 X90.683 Y101.039 E11.32244
G1 X90.861 Y101.224 E11.33098
G1 X91.011 Y101.412 E11.33898
G1 X91.155 Y101.62 E11.3474
G1 X91.292 Y101.853 E11.35639
G1 X91.385 Y102.035 E11.36318
G1 X91.488 Y102.29 E11.37233
G1 X91.564 Y102.51 E11.38007
G1 X91.628 Y102.76 E11.38866
G1 X91.669 Y102.974 E11.3959
G1 X91.703 Y103.477 E11.41267
G1 X91.669 Y103.981 E11.42947
G1 X91.571 Y104.424 E11.44456
G1 X91.48 Y104.694 E11.45404
G1 X91.397 Y104.896 E11.4613
G1 X91.163 Y105.335 E11.47785
G1 X90.876 Y105.717 E11.49374
G1 X90.683 Y105.921 E11.50308
G1 X90.519 Y106.074 E11.51054
G1 X90.335 Y106.228 E11.51852
G1 X90.12 Y106.374 E11.52716
G1 X89.92 Y106.492 E11.53489
G1 X89.692 Y106.605 E11.54335
G1 X89.474 Y106.696 E11.55121
G1 X89.223 Y106.779 E11.56
G1 X88.766 Y106.885 E11.57561
G1 X88.527 Y106.908 E11.58359
G1 X88.264 Y106.915 E11.59234
G1 X88.001 Y106.908 E11.60109
G1 X87.762 Y106.885 E11.60908
G1 X87.305 Y106.779 E11.62468
G1 X87.054 Y106.696 E11.63347
G1 X86.836 Y106.605 E11.64133
G1 X86.608 Y106.492 E11.64979
G1 X86.408 Y106.375 E11.6575
G1 X86.198 Y106.228 E11.66603
G1 X85.845 Y105.921 E11.68159
G1 X85.656 Y105.717 E11.69084
G1 X85.504 Y105.527 E11.69893
G1 X85.369 Y105.335 E11.70674
G1 X85.249 Y105.129 E11.71467
G1 X85.134 Y104.896 E11.72331
G1 X85.048 Y104.693 E11.73064
G1 X84.961 Y104.424 E11.74004
G1 X84.9 Y104.189 E11.74812
G1 X84.863 Y103.98 E11.75518
G1 X84.84 Y103.745 E11.76303
G1 X84.829 Y103.487 E11.77162
G1 X84.84 Y103.21 E11.78084
G1 X84.863 Y102.976 E11.78866
G1 X84.9 Y102.766 E11.79575
G1 X84.964 Y102.509 E11.80456
G1 X85.04 Y102.29 E11.81227
G0 F9000 X87.35 Y106.584
G1 F3000 X85.162 Y104.395 E11.91521
G0 F9000 X85.044 Y103.711
G1 F3000 X88.041 Y106.709 E12.05621
G0 F9000 X88.598 Y106.7
G1 F3000 X85.047 Y103.148 E12.22326
G0 F9000 X85.13 Y102.666
G1 F3000 X89.073 Y106.609 E12.40872
G0 F9000 X89.498 Y106.468
G1 F3000 X85.274 Y102.244 E12.60741
G0 F9000 X85.46 Y101.865
G1 F3000 X89.879 Y106.284 E12.81526
G0 F9000 X90.221 Y106.06
G1 F3000 X85.684 Y101.523 E13.02867
G0 F9000 X85.946 Y101.22
G1 F3000 X90.523 Y105.797 E13.24396
G0 F9000 X90.79 Y105.498
G1 F3000 X86.244 Y100.952 E13.45779
G0 F9000 X86.575 Y100.717
G1 F3000 X91.026 Y105.168 E13.66715
G0 F9000 X91.222 Y104.798
G1 F3000 X86.949 Y100.526 E13.86812
G0 F9000 X87.36 Y100.371
G1 F3000 X91.374 Y104.385 E14.05692
G0 F9000 X91.473 Y103.918
G1 F3000 X87.828 Y100.273 E14.22837
G0 F9000 X88.366 Y100.246
G1 F3000 X91.496 Y103.375 E14.37557
G0 F9000 X91.413 Y102.726
G1 F3000 X89.017 Y100.331 E14.48825
G0 F9000 X89.996 Y100.744
G1 F3000 X90.994 Y101.742 E14.53519
G0 F9000 X90.955 Y101.763
G10
;MESH:Chassis (X2).stl
G0 X90.416 Y106.821
G0 X90.973 Y107.763
G0 X91.961 Y109.915
G0 X92.442 Y110.876
G0 X90.338 Y115.6
G0 X90.62 Y115.731
;TYPE:WALL-INNER
G11
G1 F3000 X90.841 Y115.423 E14.5478
G1 X91.13 Y115.181 E14.56034
G1 X91.453 Y115.01 E14.57249
G1 X91.808 Y114.911 E14.58475
G1 X92.174 Y114.893 E14.59694
G1 X92.539 Y114.954 E14.60925
G1 X92.881 Y115.089 E14.62148
G1 X93.156 Y115.277 E14.63256
G1 X93.433 Y115.562 E14.64578
G1 X93.625 Y115.88 E14.65813
G1 X93.743 Y116.233 E14.67051
G1 X93.784 Y116.59 E14.68246
G1 X93.743 Y116.958 E14.69478
G1 X93.625 Y117.31 E14.70713
G1 X93.45 Y117.603 E14.71848
G1 X93.196 Y117.886 E14.73112
G1 X92.882 Y118.099 E14.74374
G1 X92.536 Y118.238 E14.75615
G1 X92.172 Y118.295 E14.7684
G1 X91.804 Y118.277 E14.78066
G1 X91.438 Y118.174 E14.7933
G1 X91.099 Y117.981 E14.80628
G1 X90.843 Y117.767 E14.81737
G1 X90.62 Y117.461 E14.82997
G1 X90.47 Y117.145 E14.8416
G1 X90.388 Y116.784 E14.85391
G1 X90.388 Y116.402 E14.86662
G1 X90.476 Y116.038 E14.87907
G1 X90.62 Y115.731 E14.89035
G0 F9000 X90.338 Y115.6
G0 X87.687 Y120.7
G0 X87.515 Y120.996
G1 F3000 X90.217 Y120.996 E14.98022
G1 X94.226 Y122.996 E15.12923
G1 X105.938 Y122.996 E15.51878
G1 X109.943 Y120.996 E15.66767
G1 X121.88 Y120.996 E16.0647
G1 X121.88 Y112.196 E16.35738
G1 X109.943 Y112.196 E16.75441
G1 X105.938 Y110.196 E16.9033
G1 X94.226 Y110.196 E17.29285
G1 X90.223 Y112.196 E17.44168
G1 X87.515 Y112.197 E17.53175
G1 X84.973 Y116.593 E17.70064
G1 X87.515 Y120.996 E17.86974
G0 F9000 X87.687 Y120.7
G0 X99.905 Y118.65
G0 X99.905 Y118.341
G1 F3000 X99.544 Y118.263 E17.88203
G1 X99.2 Y118.11 E17.89455
G1 X98.911 Y117.901 E17.90641
G1 X98.677 Y117.636 E17.91817
G1 X98.487 Y117.316 E17.93055
G1 X98.364 Y116.957 E17.94317
G1 X98.332 Y116.591 E17.95539
G1 X98.369 Y116.23 E17.96746
G1 X98.486 Y115.873 E17.97995
G1 X98.677 Y115.552 E17.99238
G1 X98.905 Y115.294 E18.00383
G1 X99.203 Y115.074 E18.01615
G1 X99.546 Y114.925 E18.02859
G1 X99.86 Y114.86 E18.03925
G1 X100.256 Y114.851 E18.05243
G1 X100.623 Y114.924 E18.06487
G1 X100.96 Y115.074 E18.07714
G1 X101.259 Y115.294 E18.08949
G1 X101.487 Y115.552 E18.10094
G1 X101.678 Y115.878 E18.11351
G1 X101.794 Y116.223 E18.12561
G1 X101.832 Y116.591 E18.13792
G1 X101.794 Y116.964 E18.15039
G1 X101.679 Y117.309 E18.16248
G1 X101.506 Y117.61 E18.17403
G1 X101.257 Y117.897 E18.18667
G1 X100.957 Y118.116 E18.19902
G1 X100.627 Y118.262 E18.21102
