;FLAVOR:Marlin
;TIME:413
;Filament used: 0.18607m
;Layer height: 0.2
;MINX:72.402
;MINY:62.601
;MINZ:0.2
;MAXX:157.39
;MAXY:166.946
;MAXZ:7.8
;TARGET_MACHINE.NAME:Creality Ender-3 S1
;POSTPROCESSED
;  [CreateThumbnail]
;  [CreateThumbnail]
;  [KlipperPreprocessor]
;Generated with Cura_SteamEngine 5.6.0
;
;

;
;

M82 ;absolute extrusion mode
;Nozzle diameter = 0.4
;Filament type = PLA
;Filament name = PLA
;Filament weight = [0.5549642553710937]
; M190 S50
; M109 S200
M140 S0
M104 S0
START_PRINT EXTRUDER_TEMP=200 BED_TEMP=50
G92 E0
G92 E0
G10
;LAYER_COUNT:39
;LAYER:0
M107
G0 F9000 X82.405 Y66.748 Z0.2
;TYPE:SKIRT
G11
G1 F3000 X82.973 Y66.046 E0.03003
G1 X83.601 Y65.397 E0.06007
G1 X84.284 Y64.807 E0.09009
G1 X85.017 Y64.279 E0.12014
G1 X85.794 Y63.818 E0.15019
G1 X86.608 Y63.427 E0.18022
G1 X87.454 Y63.11 E0.21027
G1 X88.324 Y62.869 E0.2403
G1 X89.212 Y62.706 E0.27032
G1 X90.291 Y62.615 E0.30634
G1 X91.059 Y62.601 E0.33189
G1 X91.927 Y62.612 E0.36076
G1 X92.829 Y62.663 E0.39081
G1 X93.722 Y62.794 E0.42083
G1 X94.601 Y63.004 E0.45089
G1 X95.457 Y63.29 E0.4809
G1 X96.008 Y63.52 E0.50076
G1 X98.775 Y64.774 E0.6018
G1 X101.126 Y65.756 E0.68654
G1 X103.503 Y66.671 E0.77126
G1 X105.865 Y67.505 E0.85457
G1 X108.299 Y68.286 E0.93959
G1 X110.726 Y68.992 E1.02366
G1 X113.211 Y69.638 E1.10906
G1 X115.669 Y70.203 E1.19295
G1 X118.18 Y70.706 E1.27812
G1 X120.665 Y71.132 E1.36198
G1 X123.15 Y71.485 E1.44546
G1 X125.686 Y71.773 E1.53035
G1 X128.234 Y71.989 E1.6154
G1 X130.776 Y72.133 E1.70008
G1 X133.303 Y72.204 E1.78416
G1 X135.86 Y72.204 E1.86921
G1 X138.053 Y72.15 E1.94217
G1 X139.299 Y72.158 E1.98362
G1 X140.201 Y72.208 E2.01366
G1 X141.094 Y72.338 E2.04368
G1 X141.973 Y72.546 E2.07372
G1 X142.83 Y72.831 E2.10376
G1 X143.658 Y73.191 E2.13379
G1 X144.452 Y73.623 E2.16385
G1 X145.203 Y74.123 E2.19386
G1 X145.908 Y74.688 E2.22391
G1 X146.56 Y75.313 E2.25395
G1 X147.154 Y75.993 E2.28398
G1 X147.686 Y76.723 E2.31402
G1 X148.151 Y77.497 E2.34406
G1 X148.546 Y78.31 E2.37412
G1 X148.867 Y79.154 E2.40415
G1 X149.112 Y80.023 E2.43418
G1 X149.28 Y80.91 E2.46421
G1 X149.379 Y82.07 E2.50293
G1 X149.392 Y82.677 E2.52312
G1 X149.392 Y89.904 E2.76349
G1 X149.429 Y92.51 E2.85018
G1 X149.538 Y95.075 E2.93557
G1 X149.716 Y97.582 E3.01916
G1 X149.967 Y100.123 E3.10409
G1 X150.288 Y102.631 E3.18818
G1 X150.682 Y105.136 E3.27252
G1 X151.144 Y107.623 E3.35666
G1 X151.685 Y110.137 E3.44219
G1 X152.284 Y112.583 E3.52595
G1 X152.957 Y115.027 E3.61026
G1 X153.702 Y117.462 E3.69495
G1 X154.513 Y119.864 E3.77927
G1 X155.399 Y122.268 E3.86449
G1 X156.638 Y125.331 E3.97438
G1 X156.939 Y126.182 E4.00441
G1 X157.164 Y127.057 E4.03446
G1 X157.31 Y127.948 E4.06449
G1 X157.377 Y128.822 E4.09364
G1 X157.389 Y129.558 E4.11812
G1 X157.354 Y131.783 E4.19214
G1 X157.39 Y135.799 E4.32572
G1 X157.38 Y136.611 E4.35272
G1 X157.325 Y137.512 E4.38275
G1 X157.191 Y138.405 E4.41278
G1 X156.978 Y139.283 E4.44283
G1 X156.689 Y140.138 E4.47285
G1 X156.294 Y141.027 E4.5052
G1 X155.471 Y142.64 E4.56543
G1 X154.365 Y144.911 E4.64945
G1 X153.321 Y147.222 E4.73379
G1 X152.338 Y149.572 E4.81852
G1 X151.411 Y151.976 E4.90421
G1 X150.579 Y154.33 E4.98725
G1 X149.804 Y156.737 E5.07136
G1 X148.981 Y159.577 E5.1697
G1 X148.691 Y160.432 E5.19973
G1 X148.327 Y161.259 E5.22978
G1 X147.891 Y162.05 E5.25982
G1 X147.387 Y162.799 E5.28985
G1 X146.819 Y163.501 E5.31988
G1 X146.191 Y164.15 E5.34992
G1 X145.508 Y164.74 E5.37994
G1 X144.775 Y165.268 E5.40999
G1 X143.998 Y165.729 E5.44004
G1 X143.184 Y166.12 E5.47007
G1 X142.338 Y166.437 E5.50012
G1 X141.468 Y166.678 E5.53015
G1 X140.58 Y166.841 E5.56017
G1 X139.501 Y166.932 E5.59619
G1 X138.733 Y166.946 E5.62174
G1 X137.864 Y166.935 E5.65064
G1 X136.962 Y166.884 E5.68069
G1 X136.069 Y166.753 E5.71071
G1 X135.19 Y166.543 E5.74077
G1 X134.334 Y166.257 E5.77079
G1 X133.782 Y166.026 E5.79069
G1 X131.032 Y164.779 E5.89112
G1 X128.666 Y163.791 E5.9764
G1 X126.289 Y162.876 E6.06111
G1 X123.927 Y162.042 E6.14443
G1 X121.493 Y161.261 E6.22945
G1 X119.066 Y160.555 E6.31351
G1 X116.581 Y159.909 E6.39891
G1 X114.123 Y159.344 E6.4828
G1 X111.612 Y158.841 E6.56797
G1 X109.127 Y158.415 E6.65183
G1 X106.642 Y158.062 E6.73531
G1 X104.106 Y157.774 E6.8202
G1 X101.558 Y157.558 E6.90525
G1 X99.016 Y157.414 E6.98994
G1 X96.489 Y157.343 E7.07402
G1 X93.932 Y157.343 E7.15906
G1 X91.739 Y157.397 E7.23203
G1 X90.493 Y157.389 E7.27347
G1 X89.591 Y157.339 E7.30351
G1 X88.698 Y157.209 E7.33353
G1 X87.819 Y157.001 E7.36357
G1 X86.962 Y156.716 E7.39361
G1 X86.134 Y156.356 E7.42364
G1 X85.34 Y155.924 E7.45371
G1 X84.589 Y155.424 E7.48371
G1 X83.884 Y154.859 E7.51376
G1 X83.232 Y154.234 E7.5438
G1 X82.638 Y153.554 E7.57383
G1 X82.106 Y152.824 E7.60388
G1 X81.641 Y152.05 E7.63391
G1 X81.246 Y151.237 E7.66397
G1 X80.925 Y150.393 E7.694
G1 X80.68 Y149.524 E7.72403
G1 X80.512 Y148.637 E7.75406
G1 X80.413 Y147.466 E7.79315
G1 X80.4 Y146.858 E7.81337
G1 X80.4 Y139.643 E8.05335
G1 X80.363 Y137.037 E8.14003
G1 X80.254 Y134.471 E8.22545
G1 X80.076 Y131.964 E8.30905
G1 X79.825 Y129.423 E8.39397
G1 X79.504 Y126.916 E8.47804
G1 X79.11 Y124.411 E8.56238
G1 X78.644 Y121.904 E8.64719
G1 X78.116 Y119.442 E8.73094
G1 X77.51 Y116.977 E8.81536
G1 X76.828 Y114.496 E8.90094
G1 X76.09 Y112.085 E8.98481
G1 X75.279 Y109.683 E9.06913
G1 X74.39 Y107.273 E9.15456
G1 X73.402 Y104.815 E9.24267
G1 X73.194 Y104.317 E9.26062
G1 X72.884 Y103.469 E9.29065
G1 X72.65 Y102.597 E9.32068
G1 X72.494 Y101.707 E9.35074
G1 X72.413 Y100.683 E9.3849
G1 X72.403 Y99.989 E9.40799
G1 X72.438 Y97.729 E9.48316
G1 X72.402 Y93.748 E9.61558
G1 X72.411 Y92.956 E9.64192
G1 X72.464 Y92.055 E9.67194
G1 X72.597 Y91.161 E9.702
G1 X72.808 Y90.283 E9.73204
G1 X73.096 Y89.427 E9.76207
G1 X73.497 Y88.522 E9.795
G1 X74.321 Y86.907 E9.8553
G1 X75.435 Y84.62 E9.93991
G1 X76.479 Y82.309 E10.02425
G1 X77.449 Y79.989 E10.10789
G1 X78.381 Y77.571 E10.19408
G1 X79.217 Y75.205 E10.27754
G1 X79.988 Y72.81 E10.36123
G1 X80.811 Y69.97 E10.45957
G1 X81.101 Y69.115 E10.4896
G1 X81.465 Y68.288 E10.51965
G1 X81.901 Y67.497 E10.54969
G1 X82.405 Y66.748 E10.57972
G10
;MESH:Ladder (Mirror).stl
G0 F9000 X89.935 Y73.214
G0 X91.2 Y73.4
;TYPE:WALL-INNER
G11
G1 F2963 X91.2 Y77.375 E10.71358
G1 F2891.6 X91.2 Y81.35 E10.85075
G1 F2823.5 X91.2 Y85.325 E10.99122
G1 F2758.6 X91.2 Y89.3 E11.135
G1 F2696.6 X91.2 Y93.275 E11.28208
G10
G0 F9000 X91.2 Y93.48
G0 X91.31 Y94.553
G0 X91.31 Y98.947
G0 X91.2 Y100.225
G11
G1 F2684.6 X91.2 Y104.09 E11.42574
G1 F2708.8 X91.2 Y107.955 E11.5681
G1 F2733.5 X91.2 Y111.82 E11.70919
G1 F2758.6 X91.2 Y115.685 E11.84899
G1 F2784.2 X91.2 Y119.55 E11.9875
G1 F2810.3 X91.2 Y123.415 E12.12473
G1 F2843.6 X91.2 Y127.28 E12.26035
G1 F2870.8 X91.2 Y131.145 E12.39468
G1 F2898.6 X91.2 Y135.01 E12.52773
G1 F2926.8 X91.2 Y138.875 E12.6595
G1 F2955.7 X91.2 Y142.74 E12.78998
G1 F2985.1 X91.2 Y146.605 E12.91917
G10
G0 F9000 X91.386 Y100.014
G0 X91.386 Y98.935
G0 X96.061 Y98.947
G0 X96.914 Y99.799
;TYPE:WALL-OUTER
G11
G1 F2591.8 X90.457 Y99.799 E13.16776
G1 F2666.7 X90.457 Y93.701 E13.39593
G1 F2746 X93.586 Y93.701 E13.50963
G1 F2912.6 X96.715 Y93.7 E13.61682
G1 F2666.7 X96.914 Y93.75 E13.6245
G1 F2464.1 X96.914 Y99.799 E13.86945
G0 F9000 X96.714 Y99.799
G10
G0 X103.771 Y99.799
G11
G1 F2746 X100.642 Y99.799 E13.98314
G1 F2912.6 X97.513 Y99.8 E14.09034
G1 F3000 X97.514 Y99.8 E14.09037
G1 F2666.7 X97.314 Y99.75 E14.09808
G1 F2464.1 X97.314 Y96.725 E14.22058
G1 F2597.4 X97.314 Y93.7 E14.33679
G1 F2746 X100.443 Y93.701 E14.45048
G1 F2912.6 X103.572 Y93.7 E14.55768
G1 F2666.7 X103.771 Y93.75 E14.56535
G1 F2464.1 X103.771 Y96.775 E14.68785
G1 F2597.4 X103.771 Y99.8 E14.80406
G0 F9000 X103.571 Y99.799
G10
G0 X110.629 Y99.799
G11
G1 F2746 X107.5 Y99.799 E14.91775
G1 F2912.6 X104.371 Y99.8 E15.02495
G1 F2666.7 X104.171 Y99.75 E15.03266
G1 F2464.1 X104.171 Y96.725 E15.15515
G1 F2597.4 X104.171 Y93.7 E15.27136
G1 F2746 X107.3 Y93.701 E15.38506
G1 F2912.6 X110.429 Y93.7 E15.49225
G1 F2666.7 X110.629 Y93.75 E15.49997
G1 F2464.1 X110.629 Y96.775 E15.62246
G1 F2597.4 X110.629 Y99.8 E15.73867
G0 F9000 X110.629 Y99.799
G0 X110.429 Y99.799
G10
G0 X117.286 Y93.7
G11
G1 F2666.7 X117.486 Y93.75 E15.74638
G1 F2464.1 X117.486 Y96.775 E15.86888
G1 F2597.4 X117.486 Y99.8 E15.98508
G1 F2746 X114.357 Y99.799 E16.09878
G1 F2912.6 X111.228 Y99.8 E16.20597
G1 F3000 X111.229 Y99.8 E16.20601
G1 F2666.7 X111.029 Y99.75 E16.21372
G1 F2464.1 X111.029 Y96.725 E16.33622
G1 F2597.4 X111.029 Y93.7 E16.45242
G1 F2746 X114.158 Y93.701 E16.56612
G1 F2912.6 X117.287 Y93.7 E16.67331
G0 F9000 X117.48 Y93.748
G10
G0 X118.739 Y94.553
G0 X123.49 Y98.947
G0 X124.343 Y99.799
G11
G1 F2746 X121.214 Y99.799 E16.78701
G1 F2912.6 X118.085 Y99.8 E16.8942
G1 F3000 X118.086 Y99.8 E16.89424
G1 F2666.7 X117.886 Y99.75 E16.90195
G1 F2464.1 X117.886 Y96.725 E17.02445
G1 F2597.4 X117.886 Y93.7 E17.14065
G1 F2746 X121.015 Y93.701 E17.25435
G1 F2912.6 X124.144 Y93.7 E17.36154
G1 F2666.7 X124.343 Y93.75 E17.36922
G1 F2464.1 X124.343 Y96.775 E17.49172
G1 F2597.4 X124.343 Y99.8 E17.60792
G0 F9000 X124.143 Y99.799
G0 X124.943 Y99.8
G1 F2666.7 X124.743 Y99.75 E17.61564
G1 F2464.1 X124.743 Y96.725 E17.73813
G1 F2597.4 X124.743 Y93.7 E17.85434
G1 F2746 X127.872 Y93.701 E17.96804
G1 F2912.6 X131.001 Y93.7 E18.07523
G1 F2666.7 X131.2 Y93.75 E18.08291
G1 F2464.1 X131.2 Y96.775 E18.2054
G1 F2597.4 X131.2 Y99.8 E18.32161
G1 F2746 X128.071 Y99.799 E18.43531
G1 F2912.6 X124.942 Y99.8 E18.5425
G0 F9000 X124.943 Y99.8
G0 X124.749 Y99.752
G10
G0 X89.857 Y93.7
G11
G1 F2666.7 X90.057 Y93.75 E18.55021
G1 F2464.1 X90.057 Y96.775 E18.67271
G1 F2597.4 X90.057 Y99.8 E18.78891
G1 F2746 X86.928 Y99.799 E18.90261
G1 F2912.6 X83.799 Y99.8 E19.00981
G1 F2666.7 X83.6 Y99.75 E19.01748
G1 F2464.1 X83.6 Y96.725 E19.13998
G1 F2597.4 X83.6 Y93.7 E19.25618
G1 F2746 X86.729 Y93.701 E19.36988
G1 F2912.6 X89.858 Y93.7 E19.47708
G1 F3000 X89.857 Y93.7 E19.47711
G0 F9000 X90.051 Y93.748
G10
G0 X82.85 Y93.65
G11
G1 F2400 X83 Y93.65 E19.48334
G1 X83.2 Y93.75 E19.49264
G1 F2464.1 X83.2 Y96.774 E19.6151
G1 F2597.4 X83.2 Y99.798 E19.73126
G1 F2823.5 X82.8 Y99.8 E19.7454
G1 F3000 X82.8 Y100.2 E19.7587
G1 F2992.5 X83.069 Y100.199 E19.76767
G1 F2660.8 X83.4 Y100.15 E19.78022
G1 F2666.7 X83.8 Y100.2 E19.7953
G1 F2992.5 X89.926 Y100.199 E19.99957
G1 F2660.8 X90.257 Y100.15 E20.01211
G1 X90.635 Y100.201 E20.02642
G1 F2992.5 X90.8 Y100.351 E20.03385
G1 F3000 X90.8 Y147 E21.5854
G1 X91.6 Y147 E21.61201
G1 X91.6 Y100.351 E23.16357
G1 F2992.5 X91.765 Y100.201 E23.171
G1 F2977.7 X96.783 Y100.199 E23.33915
G1 F2660.8 X97.114 Y100.15 E23.3517
G1 F2666.7 X97.514 Y100.2 E23.36678
G1 F2992.5 X103.64 Y100.199 E23.57104
G1 F2660.8 X103.971 Y100.15 E23.58359
G1 F2666.7 X104.371 Y100.2 E23.59868
G1 F2992.5 X110.498 Y100.199 E23.80297
G1 F2660.8 X110.829 Y100.15 E23.81552
G1 F2666.7 X111.229 Y100.2 E23.8306
G1 F2992.5 X117.355 Y100.199 E24.03486
G1 F2660.8 X117.686 Y100.15 E24.04741
G1 F2666.7 X118.086 Y100.2 E24.06249
G1 F2992.5 X124.212 Y100.199 E24.26675
G1 F2660.8 X124.543 Y100.15 E24.2793
G1 F2666.7 X124.943 Y100.2 E24.29439
G1 F2992.5 X131.069 Y100.199 E24.49865
G1 F2660.8 X131.4 Y100.15 E24.5112
G1 F2666.7 X131.8 Y100.2 E24.52628
G1 F3000 X137.2 Y100.2 E24.70588
G1 X137.2 Y99.8 E24.71919
G1 X131.8 Y99.8 E24.89879
G1 F2666.7 X131.6 Y99.75 E24.90651
G1 F2464.1 X131.6 Y96.725 E25.029
G1 F2597.4 X131.6 Y93.7 E25.14521
G1 F2746 X134.4 Y93.701 E25.24695
G1 F2912.6 X137.2 Y93.7 E25.34287
G1 F3000 X137.2 Y93.3 E25.35618
G1 F2992.5 X131.731 Y93.301 E25.53853
G1 F2660.8 X131.4 Y93.35 E25.55108
G1 F2666.7 X131 Y93.3 E25.56616
G1 F2992.5 X124.874 Y93.301 E25.77042
G1 F2660.8 X124.543 Y93.35 E25.78297
G1 F2666.7 X124.143 Y93.3 E25.79806
G1 F2992.5 X118.017 Y93.301 E26.00232
G1 F2660.8 X117.686 Y93.35 E26.01486
G1 F2666.7 X117.286 Y93.3 E26.02995
G1 F2992.5 X111.16 Y93.301 E26.23421
G1 F2660.8 X110.829 Y93.35 E26.24676
G1 F2666.7 X110.429 Y93.3 E26.26184
G1 F2992.5 X104.302 Y93.301 E26.46614
G1 F2660.8 X103.971 Y93.35 E26.47868
G1 F2666.7 X103.571 Y93.3 E26.49377
G1 F2992.5 X97.445 Y93.301 E26.69803
G1 F2660.8 X97.114 Y93.35 E26.71058
G1 F2666.7 X96.714 Y93.3 E26.72566
G1 F3000 X91.8 Y93.3 E26.8891
G1 X91.6 Y93.15 E26.89741
G1 X91.6 Y73 E27.56761
G1 X90.8 Y73 E27.59421
G1 X90.8 Y93.149 E28.26437
G1 F2992.5 X90.629 Y93.299 E28.27196
G1 F2660.8 X90.257 Y93.35 E28.28604
G1 F2666.7 X89.857 Y93.3 E28.30112
G1 F2992.5 X83.731 Y93.301 E28.50538
G1 F2660.8 X83.4 Y93.35 E28.51793
G1 F2400 X82.85 Y93.35 E28.5408
G1 X82.85 Y93.65 E28.55327
G0 F9000 X83 Y93.65
G0 X83.044 Y93.672
G10
;MESH:Ladder (Mirror).stl(1)
G0 X138.412 Y93.672
G0 X138.592 Y82.947
;TYPE:WALL-INNER
G11
G1 F2985.1 X138.592 Y86.812 E28.68246
G1 F2955.7 X138.592 Y90.677 E28.81294
G1 F2926.8 X138.592 Y94.542 E28.94471
G1 F2898.6 X138.592 Y98.407 E29.07776
G1 F2870.8 X138.592 Y102.272 E29.21209
G1 F2843.6 X138.592 Y106.137 E29.34771
G1 F2810.3 X138.592 Y110.002 E29.48494
G1 F2784.2 X138.592 Y113.867 E29.62345
G1 F2758.6 X138.592 Y117.732 E29.76325
G1 F2733.5 X138.592 Y121.597 E29.90433
G1 F2708.8 X138.592 Y125.462 E30.0467
G1 F2684.6 X138.592 Y129.327 E30.19036
G10
G0 F9000 X138.482 Y130.6
G0 X138.482 Y134.994
G0 X138.592 Y136.272
G11
G1 F2696.6 X138.592 Y140.247 E30.33744
G1 F2758.6 X138.592 Y144.222 E30.48122
G1 F2823.5 X138.592 Y148.197 E30.62169
G1 F2891.6 X138.592 Y152.172 E30.75886
G1 F2963 X138.592 Y156.147 E30.89272
G10
G0 F9000 X138.406 Y136.061
G0 X138.406 Y134.982
G0 X133.731 Y134.994
G0 X133.078 Y135.847
;TYPE:WALL-OUTER
G11
G1 F2666.7 X132.878 Y135.797 E30.90043
G1 F2464.1 X132.878 Y132.772 E31.02293
G1 F2591.8 X132.878 Y129.747 E31.13939
G1 X139.335 Y129.748 E31.38797
G1 F2597.4 X139.335 Y135.846 E31.62223
G1 F2746 X136.206 Y135.846 E31.73593
G1 F2912.6 X133.077 Y135.847 E31.84312
G0 F9000 X133.078 Y135.847
G0 X132.884 Y135.799
G10
G0 X131.625 Y134.994
G0 X126.874 Y134.994
G0 X126.221 Y135.847
G11
G1 F2666.7 X126.021 Y135.797 E31.85083
G1 F2464.1 X126.021 Y132.772 E31.97333
G1 F2597.4 X126.021 Y129.747 E32.08954
G1 F2746 X129.15 Y129.748 E32.20323
G1 F2912.6 X132.279 Y129.747 E32.31043
G1 F2666.7 X132.478 Y129.797 E32.3181
G1 F2464.1 X132.478 Y132.822 E32.4406
G1 F2597.4 X132.478 Y135.847 E32.55681
G1 F2746 X129.349 Y135.846 E32.6705
G1 F2912.6 X126.22 Y135.847 E32.7777
G1 F3000 X126.221 Y135.847 E32.77773
G0 F9000 X126.027 Y135.799
G0 X126.221 Y136.247
G1 F2992.5 X132.347 Y136.246 E32.98199
G1 F2660.8 X132.678 Y136.197 E32.99454
G1 F2666.7 X133.078 Y136.247 E33.00962
G1 F3000 X137.992 Y136.247 E33.17306
G1 X138.192 Y136.397 E33.18138
G1 X138.192 Y156.547 E33.85157
G1 X138.992 Y156.547 E33.87818
G1 X138.992 Y136.398 E34.54834
G1 F2992.5 X139.157 Y136.248 E34.55577
G1 F2660.8 X139.535 Y136.197 E34.57008
G1 F2666.7 X139.935 Y136.247 E34.58516
G1 F2992.5 X146.061 Y136.246 E34.78942
G1 F2660.8 X146.392 Y136.197 E34.80197
G1 F2400 X146.942 Y136.197 E34.82483
G1 X146.942 Y135.897 E34.83731
G1 X146.792 Y135.897 E34.84354
G1 X146.592 Y135.797 E34.85284
G1 F2464.1 X146.592 Y132.773 E34.97529
G1 F2597.4 X146.592 Y129.749 E35.09146
G1 F2823.5 X146.992 Y129.747 E35.1056
G1 F3000 X146.992 Y129.347 E35.1189
G1 F2992.5 X146.723 Y129.348 E35.12787
G1 F2660.8 X146.392 Y129.397 E35.14042
G1 F2666.7 X145.992 Y129.347 E35.1555
G1 F2992.5 X139.866 Y129.348 E35.35976
G1 F2660.8 X139.535 Y129.397 E35.37231
G1 X139.163 Y129.346 E35.38639
G1 F2992.5 X138.992 Y129.196 E35.39398
G1 F3000 X138.992 Y82.547 E36.94553
G1 X138.192 Y82.547 E36.97214
G1 X138.192 Y129.196 E38.52369
G1 F2992.5 X138.027 Y129.346 E38.53112
G1 F2977.7 X133.009 Y129.348 E38.69928
G1 F2660.8 X132.678 Y129.397 E38.71182
