;FLAVOR:Marlin
;TIME:726
;Filament used: 0.398459m
;Layer height: 0.2
;MINX:56.794
;MINY:51.759
;MINZ:0.2
;MAXX:163.247
;MAXY:168.138
;MAXZ:3.4
;TARGET_MACHINE.NAME:Creality Ender-3 S1
;POSTPROCESSED
;  [CreateThumbnail]
;  [CreateThumbnail]
;  [KlipperPreprocessor]
;Generated with Cura_SteamEngine 5.6.0
;
;

;
;

M82 ;absolute extrusion mode
;Nozzle diameter = 0.4
;Filament type = PLA
;Filament name = PLA
;Filament weight = [1.1884235229492188]
; M190 S50
; M109 S200
M140 S0
M104 S0
START_PRINT EXTRUDER_TEMP=200 BED_TEMP=50
G92 E0
G92 E0
G10
;LAYER_COUNT:17
;LAYER:0
M107
G0 F9000 X60.856 Y59.292 Z0.2
;TYPE:SKIRT
G11
G1 F3000 X61.483 Y58.642 E0.03004
G1 X62.165 Y58.05 E0.06008
G1 X62.897 Y57.521 E0.09011
G1 X63.673 Y57.059 E0.12015
G1 X64.487 Y56.667 E0.1502
G1 X65.332 Y56.349 E0.18023
G1 X66.202 Y56.107 E0.21027
G1 X67.042 Y55.949 E0.23869
G1 X70.159 Y55.465 E0.34361
G1 X72.672 Y54.995 E0.42864
G1 X75.139 Y54.463 E0.51258
G1 X77.573 Y53.866 E0.59593
G1 X80.061 Y53.178 E0.68179
G1 X83.011 Y52.266 E0.78449
G1 X83.881 Y52.026 E0.81451
G1 X84.77 Y51.864 E0.84456
G1 X85.845 Y51.774 E0.88044
G1 X86.484 Y51.759 E0.9017
G1 X132.816 Y51.76 E2.44271
G1 X133.539 Y51.772 E2.46676
G1 X134.66 Y51.853 E2.50414
G1 X135.336 Y51.939 E2.52681
G1 X137.871 Y52.228 E2.61167
G1 X140.408 Y52.446 E2.69636
G1 X141.303 Y52.564 E2.72638
G1 X142.185 Y52.759 E2.75643
G1 X143.046 Y53.033 E2.78648
G1 X143.879 Y53.381 E2.81651
G1 X144.678 Y53.801 E2.84653
G1 X145.437 Y54.291 E2.87658
G1 X146.15 Y54.846 E2.90663
G1 X147.087 Y55.754 E2.95003
G1 X148.278 Y57.08 E3.00931
G1 X149.996 Y58.923 E3.09311
G1 X151.798 Y60.745 E3.17834
G1 X153.644 Y62.511 E3.26331
G1 X154.882 Y63.648 E3.31922
G1 X155.543 Y64.314 E3.35043
G1 X156.196 Y65.035 E3.38278
G1 X157.976 Y66.945 E3.46962
G1 X160.203 Y69.193 E3.57486
G1 X160.817 Y69.856 E3.60492
G1 X161.37 Y70.57 E3.63496
G1 X161.858 Y71.33 E3.665
G1 X162.276 Y72.13 E3.69502
G1 X162.622 Y72.964 E3.72505
G1 X162.893 Y73.826 E3.7551
G1 X163.087 Y74.708 E3.78514
G1 X163.202 Y75.603 E3.81515
G1 X163.232 Y76.135 E3.83287
G1 X163.247 Y76.774 E3.85413
G1 X163.246 Y127.193 E5.53108
G1 X163.236 Y127.894 E5.55439
G1 X163.183 Y128.796 E5.58445
G1 X163.051 Y129.689 E5.61447
G1 X162.84 Y130.568 E5.64454
G1 X162.552 Y131.424 E5.67458
G1 X162.19 Y132.251 E5.7046
G1 X161.756 Y133.043 E5.73464
G1 X161.253 Y133.793 E5.76467
G1 X160.686 Y134.496 E5.79471
G1 X160.06 Y135.146 E5.82473
G1 X159.675 Y135.493 E5.84197
G1 X159.112 Y135.975 E5.86662
G1 X157.118 Y137.734 E5.95506
G1 X155.256 Y139.47 E6.03973
G1 X153.48 Y141.225 E6.12277
G1 X151.7 Y143.083 E6.20835
G1 X149.991 Y144.973 E6.2931
G1 X148.301 Y146.953 E6.37968
G1 X147.361 Y148.092 E6.4288
G1 X146.756 Y148.763 E6.45885
G1 X146.094 Y149.377 E6.48888
G1 X145.38 Y149.93 E6.51892
G1 X144.62 Y150.418 E6.54896
G1 X143.82 Y150.837 E6.579
G1 X142.986 Y151.183 E6.60903
G1 X142.124 Y151.454 E6.63908
G1 X141.242 Y151.648 E6.66912
G1 X140.368 Y151.762 E6.69843
G1 X139.39 Y151.846 E6.73108
G1 X138.507 Y151.91 E6.76053
G1 X135.875 Y152.175 E6.84851
G1 X134.527 Y152.331 E6.89365
G1 X133.947 Y152.382 E6.91301
G1 X133.238 Y152.423 E6.93663
G1 X130.713 Y152.606 E7.02083
G1 X128.152 Y152.864 E7.10644
G1 X125.657 Y153.186 E7.19012
G1 X123.111 Y153.589 E7.27585
G1 X120.666 Y154.047 E7.35859
G1 X118.131 Y154.596 E7.44486
G1 X115.736 Y155.185 E7.52689
G1 X113.238 Y155.877 E7.6131
G1 X110.798 Y156.627 E7.698
G1 X108.414 Y157.434 E7.78171
G1 X106.023 Y158.32 E7.86652
G1 X103.68 Y159.264 E7.95054
G1 X101.34 Y160.286 E8.03547
G1 X99.055 Y161.36 E8.11944
G1 X96.778 Y162.511 E8.2043
G1 X94.558 Y163.713 E8.28827
G1 X92.311 Y165.013 E8.37461
G1 X90.981 Y165.823 E8.4264
G1 X89.885 Y166.504 E8.46932
G1 X89.098 Y166.946 E8.49934
G1 X88.274 Y167.317 E8.5294
G1 X87.421 Y167.613 E8.55943
G1 X86.108 Y167.912 E8.60422
G1 X85.421 Y168.013 E8.62731
G1 X84.909 Y168.073 E8.64446
G1 X84.008 Y168.138 E8.6745
G1 X83.105 Y168.123 E8.70454
G1 X82.207 Y168.029 E8.73457
G1 X81.321 Y167.855 E8.7646
G1 X80.454 Y167.604 E8.79462
G1 X79.612 Y167.277 E8.82467
G1 X78.802 Y166.877 E8.85471
G1 X78.031 Y166.407 E8.88475
G1 X77.305 Y165.87 E8.91478
G1 X76.629 Y165.272 E8.9448
G1 X76.008 Y164.615 E8.97487
G1 X75.448 Y163.907 E9.00489
G1 X74.953 Y163.152 E9.03492
G1 X74.526 Y162.356 E9.06496
G1 X74.172 Y161.525 E9.09501
G1 X73.892 Y160.666 E9.12506
G1 X73.702 Y159.848 E9.15299
G1 X73.517 Y158.872 E9.18603
G1 X73.329 Y157.803 E9.22213
G1 X72.82 Y155.322 E9.30636
G1 X72.245 Y152.869 E9.39016
G1 X71.587 Y150.387 E9.47557
G1 X70.865 Y147.942 E9.56036
G1 X70.079 Y145.537 E9.64451
G1 X69.226 Y143.152 E9.72876
G1 X68.298 Y140.776 E9.8136
G1 X67.307 Y138.435 E9.89815
G1 X66.25 Y136.121 E9.98276
G1 X65.139 Y133.862 E10.06649
G1 X63.95 Y131.607 E10.15128
G1 X62.699 Y129.39 E10.23595
G1 X61.377 Y127.193 E10.32123
G1 X59.8 Y124.728 E10.41856
G1 X59.443 Y124.124 E10.4419
G1 X59.232 Y123.738 E10.45653
G1 X58.875 Y123.021 E10.48317
G1 X58.718 Y122.671 E10.49593
G1 X58.385 Y121.838 E10.52576
G1 X58.195 Y121.279 E10.5454
G1 X57.938 Y120.391 E10.57615
G1 X57.747 Y119.534 E10.60535
G1 X57.688 Y119.209 E10.61634
G1 X57.561 Y118.302 E10.6468
G1 X57.506 Y117.699 E10.66694
G1 X57.487 Y117.383 E10.67747
G1 X57.467 Y116.648 E10.70192
G1 X57.484 Y115.973 E10.72438
G1 X57.572 Y114.432 E10.77572
G1 X57.571 Y114.301 E10.78007
G1 X57.666 Y112.498 E10.84012
G1 X57.726 Y109.965 E10.9244
G1 X57.716 Y107.426 E11.00884
G1 X57.633 Y104.868 E11.09397
G1 X57.48 Y102.358 E11.17761
G1 X57.255 Y99.824 E11.26222
G1 X57.004 Y97.792 E11.33032
G1 X56.866 Y96.588 E11.37062
G1 X56.804 Y95.721 E11.39953
G1 X56.794 Y95.017 E11.42295
G1 X56.803 Y94.468 E11.44121
G1 X56.858 Y93.566 E11.47127
G1 X56.973 Y92.777 E11.49779
G1 X57.139 Y91.882 E11.52807
G1 X57.582 Y89.289 E11.61556
G1 X57.943 Y86.749 E11.70089
G1 X58.227 Y84.249 E11.78457
G1 X58.444 Y81.696 E11.86979
G1 X58.586 Y79.166 E11.95407
G1 X58.657 Y76.632 E12.03839
G1 X58.657 Y74.098 E12.12267
G1 X58.584 Y71.533 E12.20802
G1 X58.441 Y69.025 E12.29157
G1 X58.333 Y67.659 E12.33714
G1 X58.298 Y66.911 E12.36205
G1 X58.302 Y65.892 E12.39594
G1 X58.356 Y64.991 E12.42596
G1 X58.488 Y64.097 E12.45602
G1 X58.7 Y63.219 E12.48606
G1 X58.988 Y62.363 E12.5161
G1 X59.351 Y61.536 E12.54614
G1 X59.786 Y60.745 E12.57616
G1 X60.289 Y59.995 E12.6062
G1 X60.856 Y59.292 E12.63624
G10
G0 F9000 X83.946 Y65.469
G0 X84.523 Y65.762
G0 X84.981 Y66.221
G0 X85.274 Y66.797
G0 X85.373 Y67.407
G0 X85.589 Y93.069
G0 X74.104 Y93.341
G0 X73.52 Y93.497
G0 X72.972 Y93.753
G0 X72.477 Y94.099
G0 X72.049 Y94.527
G0 X71.702 Y95.023
G0 X71.447 Y95.571
G0 X71.291 Y96.154
G0 X71.241 Y96.726
G0 X71.252 Y110.826
G0 X141.244 Y110.817
G0 X141.509 Y110.817
G11
G1 F3000 X145.526 Y110.817 E12.76984
G1 X145.544 Y110.873 E12.7718
G1 X145.645 Y110.945 E12.77593
G1 X145.705 Y110.964 E12.77802
G1 X145.705 Y110.973 E12.77832
G1 X145.719 Y111.017 E12.77985
G1 X141.909 Y111.017 E12.90658
G1 X141.79 Y111.056 E12.91074
G1 X141.709 Y111.217 E12.91674
G1 X141.709 Y122.417 E13.28925
G1 X141.67 Y122.298 E13.29341
G1 X141.509 Y122.217 E13.29941
G1 X141.509 Y110.817 E13.67857
G10
G0 F9000 X141.244 Y110.817
G0 X141.244 Y113.217
G0 X143.709 Y113.217
G11
G1 F3000 X144.309 Y113.217 E13.69853
G1 X144.309 Y122.417 E14.00452
G1 X143.709 Y122.417 E14.02448
G1 X143.709 Y113.217 E14.33047
G10
G0 F9000 X146.347 Y111.292
G11
G1 F3000 X146.508 Y111.373 E14.33647
G1 X146.509 Y122.217 E14.69714
G1 X146.39 Y122.256 E14.70131
G1 X146.31 Y122.415 E14.70723
G1 X146.309 Y111.217 E15.07967
G1 X146.295 Y111.173 E15.08121
G1 X146.308 Y111.173 E15.08164
G1 X146.347 Y111.292 E15.08581
G10
G0 F9000 X144.709 Y112.817
;TYPE:SUPPORT-INTERFACE
G11
G1 F3000 X143.309 Y112.817 E15.13237
G1 X143.309 Y122.417 E15.45167
G1 X142.109 Y122.417 E15.49158
G1 X142.109 Y111.417 E15.85744
G1 X145.909 Y111.417 E15.98383
G1 X145.91 Y122.417 E16.34969
G1 X144.709 Y122.417 E16.38964
G1 X144.709 Y112.817 E16.70893
G0 F9000 X145.109 Y112.617
G1 F2591.8 X145.037 Y112.367 E16.71895
G1 F2303.3 X142.981 Y112.368 E16.80802
G1 F2620.1 X142.909 Y112.617 E16.81789
G1 F3000 X142.909 Y122.017 E17.13053
G1 X142.509 Y122.017 E17.14384
G1 X142.509 Y112.617 E17.45648
G1 F2569.6 X142.576 Y112.152 E17.47473
G1 F2243 X142.576 Y111.884 E17.48665
G1 X142.844 Y111.884 E17.49857
G1 F2312.1 X143.022 Y111.869 E17.50628
G1 F2390.4 X144.909 Y111.867 E17.58505
G1 F2316.6 X145.174 Y111.885 E17.59649
G1 F2238.8 X145.441 Y111.885 E17.60839
G1 X145.442 Y112.152 E17.62029
G1 F2564.1 X145.51 Y112.617 E17.63857
G1 F2992.5 X145.51 Y122.017 E17.952
G1 X145.109 Y122.017 E17.96537
G1 X145.109 Y112.617 E18.2788
G0 F9000 X144.709 Y112.817
G1 F3000 X143.309 Y112.817 E18.32536
G1 X143.309 Y122.417 E18.64466
G1 X142.109 Y122.417 E18.68457
G1 X142.109 Y111.417 E19.05043
G1 X145.909 Y111.417 E19.17682
G1 X145.91 Y122.417 E19.54268
G1 X144.709 Y122.417 E19.58263
G1 X144.709 Y112.817 E19.90193
G0 F9000 X145.109 Y112.617
G1 F2591.8 X145.037 Y112.367 E19.91194
G1 F2303.3 X142.981 Y112.368 E20.00101
G1 F2620.1 X142.909 Y112.617 E20.01088
G1 F3000 X142.909 Y122.017 E20.32353
G1 X142.509 Y122.017 E20.33683
G1 X142.509 Y112.617 E20.64948
G1 F2569.6 X142.576 Y112.152 E20.66772
G1 F2243 X142.576 Y111.884 E20.67964
G1 X142.844 Y111.884 E20.69156
G1 F2312.1 X143.022 Y111.869 E20.69927
G1 F2390.4 X144.909 Y111.867 E20.77804
G1 F2316.6 X145.174 Y111.885 E20.78948
G1 F2238.8 X145.441 Y111.885 E20.80138
G1 X145.442 Y112.152 E20.81328
G1 F2564.1 X145.51 Y112.617 E20.83157
G1 F2992.5 X145.51 Y122.017 E21.14499
G1 X145.109 Y122.017 E21.15836
G1 X145.109 Y112.617 E21.47179
G10
;MESH:Handrail Top Rear.stl
G0 F9000 X146.774 Y112.616
G0 X147.662 Y122.764
G0 X147.658 Y128.554
G0 X147.426 Y129.541
G0 X146.933 Y130.426
G0 X146.218 Y131.141
G0 X145.333 Y131.635
G0 X144.347 Y131.866
G0 X143.337 Y131.82
G0 X142.376 Y131.498
G0 X141.54 Y130.925
G0 X140.892 Y130.146
G0 X140.484 Y129.22
G0 X140.345 Y128.232
G0 X140.356 Y122.764
G0 X141.246 Y110.779
G0 X125.852 Y110.826
G0 X71.252 Y110.826
G0 X71.241 Y96.726
G0 X71.291 Y96.154
G0 X71.447 Y95.571
G0 X71.702 Y95.023
G0 X72.049 Y94.527
G0 X72.477 Y94.099
G0 X72.972 Y93.753
G0 X73.52 Y93.497
G0 X74.104 Y93.341
G0 X84.44 Y93.096
G0 X85.067 Y92.109
G0 X84.434 Y91.504
;TYPE:WALL-OUTER
G11
G1 F3000 X84.091 Y91.967 E21.49095
G1 F2977.7 X83.681 Y92.172 E21.50632
G1 F2992.5 X83.448 Y92.233 E21.51435
G1 F3007.5 X68.691 Y92.234 E22.00394
G1 F3000 X68.691 Y91.834 E22.01724
G1 F3007.5 X83.45 Y91.832 E22.5069
G1 F3000 X83.816 Y91.659 E22.52037
G1 F2977.7 X83.952 Y91.492 E22.52758
G1 F3007.5 X84.109 Y91.275 E22.53647
G1 F3061.2 X84.104 Y67.182 E23.32178
G1 F3053.4 X83.816 Y66.808 E23.3372
G1 F3030.3 X83.462 Y66.636 E23.35016
G1 F3015.1 X68.691 Y66.634 E23.83899
G1 F3000 X68.691 Y66.234 E23.8523
G1 F3015.1 X83.448 Y66.234 E24.34066
G1 F3007.5 X83.676 Y66.293 E24.34848
G1 F3000 X84.095 Y66.506 E24.36411
G1 F3022.7 X84.438 Y66.973 E24.38324
G1 X84.509 Y67.301 E24.39432
G1 F3015.1 X84.509 Y91.146 E25.18344
G1 F3007.5 X84.434 Y91.504 E25.19557
G0 F9000 X84.475 Y91.308
G10
;MESH:Drain Lever.stl
G0 X84.113 Y91.617
G0 X83.251 Y90.978
G0 X67.838 Y90.981
G0 X67.838 Y93.087
G0 X71.997 Y93.626
G0 X71.173 Y95.02
G0 X69.853 Y95.066
;TYPE:WALL-INNER
G11
G1 F2797.2 X69.589 Y95.037 E25.20505
G1 F3000 X69.338 Y95.037 E25.2134
G10
G0 F9000 X69.391 Y95.037
G0 X69.305 Y95.223
G0 X68.825 Y96.287
G0 X67.741 Y102.927
G0 X68.796 Y105.672
G0 X70.765 Y104.922
G0 X69.931 Y102.705
G0 X69.045 Y102.795
;TYPE:WALL-OUTER
G11
G1 F2977.7 X70.357 Y94.637 E25.49028
G1 F3000 X69.091 Y94.637 E25.53239
G1 X69.04 Y94.771 E25.53716
G1 X68.891 Y94.837 E25.54258
G1 X67.191 Y94.837 E25.59912
G1 X67.191 Y95.237 E25.61242
G1 X68.891 Y95.237 E25.66896
G1 X69.04 Y95.303 E25.67438
G1 X69.091 Y95.437 E25.67915
G1 X69.661 Y95.437 E25.69811
G1 F2985.1 X69.791 Y95.634 E25.706
G1 F2955.7 X68.632 Y102.835 E25.95223
G1 F2977.7 X69.29 Y104.571 E26.01444
G1 F3007.5 X69.664 Y104.429 E26.02771
G1 F2977.7 X69.045 Y102.795 E26.08626
G0 F9000 X69.076 Y102.598
G10
;MESH:Brake Wheel.stl
G0 X69.931 Y102.705
G0 X71.265 Y106.252
G0 X71.252 Y110.826
G0 X73.834 Y111.097
G0 X74.804 Y111.397
G0 X75.706 Y111.865
G0 X76.51 Y112.487
G0 X77.189 Y113.242
G0 X77.722 Y114.105
G0 X78.093 Y115.05
G0 X78.29 Y116.046
G0 X78.305 Y117.061
G0 X78.138 Y118.065
G0 X77.796 Y119.02
G0 X77.385 Y119.732
G0 X76.676 Y120.627
G0 X75.893 Y119.855
G0 X74.567 Y117.511
G0 X74.837 Y117.637
;TYPE:WALL-INNER
G11
G1 F3000 X74.964 Y117.294 E26.09843
G1 X75.089 Y116.722 E26.1179
G1 X75.231 Y116.64 E26.12336
G1 X75.084 Y116.556 E26.12899
G1 X74.989 Y116.063 E26.14569
G1 X74.869 Y115.695 E26.15856
G1 X74.665 Y115.329 E26.1725
G1 X74.436 Y114.986 E26.18621
G1 X74.48 Y114.815 E26.19209
G1 X74.308 Y114.86 E26.198
G1 X73.895 Y114.58 E26.2146
G1 X73.645 Y114.455 E26.22389
G1 X73.321 Y114.334 E26.2354
G1 X72.738 Y114.206 E26.25525
G1 X72.656 Y114.061 E26.26079
G1 X72.574 Y114.206 E26.26633
G1 X71.991 Y114.334 E26.28618
G1 X71.667 Y114.455 E26.29769
G1 X71.417 Y114.58 E26.30698
G1 X71.004 Y114.86 E26.32358
G1 X70.832 Y114.815 E26.32949
G1 X70.876 Y114.986 E26.33536
G1 X70.647 Y115.33 E26.34911
G1 X70.441 Y115.702 E26.36325
G1 X70.323 Y116.063 E26.37588
G1 X70.228 Y116.556 E26.39258
G1 X70.081 Y116.64 E26.39821
G1 X70.223 Y116.722 E26.40367
G1 X70.348 Y117.294 E26.42314
G1 X70.475 Y117.637 E26.43531
G1 X70.647 Y117.948 E26.44713
G1 X70.88 Y118.299 E26.46114
G1 X70.826 Y118.468 E26.46704
G1 X70.996 Y118.416 E26.47295
G1 X71.497 Y118.74 E26.4928
G1 X71.808 Y118.883 E26.50418
G1 X72.069 Y118.969 E26.51332
G1 X72.572 Y119.067 E26.53037
G1 X72.656 Y119.227 E26.53638
G1 X72.746 Y119.055 E26.54283
G1 X73.243 Y118.969 E26.55961
G1 X73.504 Y118.883 E26.56875
G1 X73.815 Y118.74 E26.58013
G1 X74.318 Y118.415 E26.60005
G1 X74.486 Y118.468 E26.60591
G1 X74.432 Y118.298 E26.61184
G1 X74.665 Y117.948 E26.62583
G1 X74.837 Y117.637 E26.63765
G0 F9000 X74.567 Y117.511
G0 X74.02 Y118.245
G0 X74.421 Y118.819
;TYPE:WALL-OUTER
G1 F3007.5 X74.618 Y118.882 E26.64451
G1 F2649 X75.583 Y119.846 E26.69589
G1 F2637.4 X75.496 Y120.004 E26.70271
G1 F2992.5 X75.25 Y120.193 E26.71306
G1 F3007.5 X75.037 Y120.338 E26.72161
G1 F3015.1 X74.797 Y120.483 E26.73089
G1 F3022.7 X74.576 Y120.598 E26.73911
G1 F3015.1 X74.327 Y120.709 E26.74813
G1 X74.09 Y120.799 E26.75652
G1 F3007.5 X73.84 Y120.876 E26.7652
G1 X73.585 Y120.94 E26.77392
G1 X73.323 Y120.989 E26.78277
G1 F2977.7 X73.02 Y121.024 E26.79299
G1 F2625.8 X72.856 Y120.974 E26.7995
G1 F2643.2 X72.856 Y119.611 E26.85096
G1 F3000 X72.952 Y119.425 E26.85792
G1 X73.34 Y119.358 E26.87101
G1 X73.735 Y119.229 E26.88483
G1 X74.093 Y119.047 E26.89819
G1 X74.421 Y118.819 E26.91148
G0 F9000 X74.612 Y118.88
G10
G0 X74.119 Y118.176
G0 X75.071 Y117.55
G0 X76.984 Y118.334
G0 X77.128 Y118.379
G11
G1 F3000 X77.224 Y118.112 E26.92091
G1 X77.3 Y117.85 E26.92999
G1 X77.367 Y117.556 E26.94002
G1 X77.413 Y117.268 E26.94972
G1 F2977.7 X77.439 Y117.006 E26.95854
G1 F2790.7 X77.406 Y116.6 E26.9731
G1 F2797.2 X77.437 Y116.262 E26.98521
G1 F2992.5 X77.389 Y115.847 E26.99914
G1 F3000 X77.336 Y115.575 E27.00836
G1 X77.258 Y115.279 E27.01854
G1 X77.175 Y115.023 E27.02749
G1 F2992.5 X77.066 Y114.749 E27.03732
G1 X76.941 Y114.478 E27.04727
G1 X76.767 Y114.158 E27.05942
G1 F2977.7 X76.485 Y113.747 E27.07612
G1 F2985.1 X76.307 Y113.525 E27.08563
G1 F2771.4 X76.091 Y113.334 E27.09601
G1 F2777.8 X75.776 Y112.994 E27.11266
G1 F3007.5 X75.465 Y112.748 E27.12582
G1 X75.237 Y112.593 E27.13497
G1 X74.984 Y112.443 E27.14472
G1 X74.733 Y112.313 E27.1541
G1 X74.464 Y112.193 E27.16387
G1 F3000 X73.912 Y111.997 E27.18336
G1 X73.377 Y111.894 E27.20148
