;FLAVOR:Marlin
;TIME:405
;Filament used: 0.186053m
;Layer height: 0.2
;MINX:72.402
;MINY:53.074
;MINZ:0.2
;MAXX:157.409
;MAXY:157.399
;MAXZ:7.8
;TARGET_MACHINE.NAME:Creality Ender-3 S1
;POSTPROCESSED
;  [CreateThumbnail]
;  [CreateThumbnail]
;  [KlipperPreprocessor]
;Generated with Cura_SteamEngine 5.6.0
;
;

;
;

M82 ;absolute extrusion mode
;Nozzle diameter = 0.4
;Filament type = PLA
;Filament name = PLA
;Filament weight = [0.5549109362792969]
; M190 S50
; M109 S200
M140 S0
M104 S0
START_PRINT EXTRUDER_TEMP=200 BED_TEMP=50
G92 E0
G92 E0
G10
;LAYER_COUNT:39
;LAYER:0
M107
G0 F9000 X82.405 Y66.748 Z0.2
;TYPE:SKIRT
G11
G1 F3000 X82.973 Y66.046 E0.03003
G1 X83.601 Y65.397 E0.06007
G1 X84.284 Y64.807 E0.09009
G1 X85.017 Y64.279 E0.12014
G1 X85.794 Y63.818 E0.15019
G1 X86.608 Y63.427 E0.18022
G1 X87.454 Y63.11 E0.21027
G1 X88.324 Y62.869 E0.2403
G1 X89.212 Y62.706 E0.27032
G1 X90.291 Y62.615 E0.30634
G1 X91.059 Y62.601 E0.33189
G1 X92.809 Y62.624 E0.3901
G1 X93.948 Y62.657 E0.428
G1 X96.482 Y62.659 E0.51228
G1 X99.014 Y62.589 E0.59652
G1 X101.554 Y62.447 E0.68114
G1 X104.073 Y62.235 E0.76522
G1 X106.619 Y61.948 E0.85043
G1 X109.117 Y61.594 E0.93435
G1 X111.626 Y61.166 E1.019
G1 X114.121 Y60.667 E1.10363
G1 X116.559 Y60.109 E1.18681
G1 X119.069 Y59.458 E1.27306
G1 X121.49 Y58.756 E1.3569
G1 X123.915 Y57.979 E1.44159
G1 X126.279 Y57.146 E1.52496
G1 X128.679 Y56.223 E1.61048
G1 X131.039 Y55.238 E1.69554
G1 X133.827 Y53.983 E1.79723
G1 X134.666 Y53.649 E1.82727
G1 X135.531 Y53.39 E1.8573
G1 X136.416 Y53.21 E1.88734
G1 X137.671 Y53.09 E1.92927
G1 X138.459 Y53.074 E1.95548
G1 X139.323 Y53.084 E1.98422
G1 X140.225 Y53.134 E2.01427
G1 X141.118 Y53.264 E2.04428
G1 X141.997 Y53.473 E2.07433
G1 X142.854 Y53.758 E2.10437
G1 X143.682 Y54.118 E2.1344
G1 X144.475 Y54.55 E2.16444
G1 X145.227 Y55.05 E2.19447
G1 X145.932 Y55.615 E2.22452
G1 X146.584 Y56.24 E2.25456
G1 X147.178 Y56.921 E2.28462
G1 X147.709 Y57.651 E2.31464
G1 X148.174 Y58.425 E2.34467
G1 X148.568 Y59.238 E2.37472
G1 X149.014 Y60.484 E2.41874
G1 X149.516 Y62.244 E2.47961
G1 X150.277 Y64.711 E2.56548
G1 X151.08 Y67.073 E2.64845
G1 X151.987 Y69.511 E2.73497
G1 X152.921 Y71.823 E2.81791
G1 X153.943 Y74.156 E2.90262
G1 X155.027 Y76.457 E2.98722
G1 X156.301 Y78.972 E3.08099
G1 X156.673 Y79.795 E3.11103
G1 X156.97 Y80.647 E3.14104
G1 X157.191 Y81.523 E3.17109
G1 X157.334 Y82.415 E3.20114
G1 X157.396 Y83.248 E3.22892
G1 X157.408 Y83.984 E3.2534
G1 X157.373 Y86.209 E3.32741
G1 X157.409 Y90.225 E3.46099
G1 X157.4 Y91.019 E3.4874
G1 X157.347 Y91.921 E3.51745
G1 X157.214 Y92.814 E3.54748
G1 X157.003 Y93.692 E3.57752
G1 X156.665 Y94.676 E3.61212
G1 X156.376 Y95.395 E3.6379
G1 X155.892 Y96.553 E3.67964
G1 X154.987 Y98.899 E3.76327
G1 X154.129 Y101.327 E3.84892
G1 X153.351 Y103.742 E3.93331
G1 X152.647 Y106.162 E4.01714
G1 X151.999 Y108.649 E4.10262
G1 X151.426 Y111.133 E4.1874
G1 X150.934 Y113.581 E4.27045
G1 X150.5 Y116.11 E4.3558
G1 X150.142 Y118.622 E4.44019
G1 X149.855 Y121.133 E4.52425
G1 X149.639 Y123.66 E4.60861
G1 X149.495 Y126.21 E4.69355
G1 X149.421 Y128.776 E4.77894
G1 X149.411 Y130.124 E4.82377
G1 X149.41 Y137.091 E5.05549
G1 X149.399 Y137.818 E5.07968
G1 X149.345 Y138.72 E5.10973
G1 X149.212 Y139.613 E5.13976
G1 X149 Y140.491 E5.1698
G1 X148.712 Y141.347 E5.19984
G1 X148.349 Y142.174 E5.22988
G1 X147.914 Y142.965 E5.2599
G1 X147.411 Y143.715 E5.28994
G1 X146.844 Y144.418 E5.31998
G1 X146.216 Y145.068 E5.35004
G1 X145.534 Y145.659 E5.38006
G1 X144.802 Y146.188 E5.41009
G1 X144.026 Y146.65 E5.44013
G1 X143.212 Y147.042 E5.47018
G1 X142.367 Y147.36 E5.50021
G1 X141.497 Y147.602 E5.53025
G1 X140.609 Y147.766 E5.56028
G1 X139.488 Y147.86 E5.5977
G1 X138.752 Y147.872 E5.62218
G1 X137.002 Y147.849 E5.68039
G1 X135.863 Y147.816 E5.71829
G1 X133.329 Y147.814 E5.80257
G1 X130.797 Y147.884 E5.88682
G1 X128.257 Y148.026 E5.97143
G1 X125.738 Y148.238 E6.05551
G1 X123.192 Y148.525 E6.14072
G1 X120.694 Y148.879 E6.22464
G1 X118.185 Y149.307 E6.30929
G1 X115.69 Y149.806 E6.39392
G1 X113.252 Y150.364 E6.47711
G1 X110.742 Y151.015 E6.56335
G1 X108.321 Y151.717 E6.64719
G1 X105.896 Y152.494 E6.73189
G1 X103.532 Y153.327 E6.81525
G1 X101.132 Y154.25 E6.90077
G1 X98.772 Y155.235 E6.98583
G1 X95.984 Y156.49 E7.08752
G1 X95.145 Y156.824 E7.11756
G1 X94.28 Y157.083 E7.14759
G1 X93.395 Y157.263 E7.17763
G1 X92.14 Y157.383 E7.21956
G1 X91.363 Y157.399 E7.24541
G1 X90.502 Y157.39 E7.27405
G1 X89.601 Y157.341 E7.30406
G1 X88.707 Y157.212 E7.3341
G1 X87.828 Y157.005 E7.36414
G1 X86.971 Y156.72 E7.39417
G1 X86.142 Y156.361 E7.42422
G1 X85.349 Y155.93 E7.45424
G1 X84.596 Y155.43 E7.4843
G1 X83.891 Y154.866 E7.51433
G1 X83.238 Y154.242 E7.54437
G1 X82.644 Y153.562 E7.5744
G1 X82.111 Y152.833 E7.60444
G1 X81.646 Y152.059 E7.63447
G1 X81.25 Y151.247 E7.66452
G1 X80.928 Y150.403 E7.69457
G1 X80.682 Y149.534 E7.7246
G1 X80.513 Y148.647 E7.75464
G1 X80.413 Y147.467 E7.79402
G1 X80.4 Y146.858 E7.81428
G1 X80.4 Y139.613 E8.05525
G1 X80.363 Y137.037 E8.14094
G1 X80.254 Y134.469 E8.22643
G1 X80.077 Y131.967 E8.30985
G1 X79.828 Y129.454 E8.39385
G1 X79.5 Y126.891 E8.47979
G1 X79.109 Y124.406 E8.56346
G1 X78.649 Y121.93 E8.64722
G1 X78.105 Y119.403 E8.73319
G1 X77.508 Y116.964 E8.81671
G1 X76.832 Y114.509 E8.9014
G1 X76.096 Y112.105 E8.98502
G1 X75.271 Y109.66 E9.07085
G1 X74.404 Y107.307 E9.15425
G1 X73.197 Y104.325 E9.26125
G1 X72.886 Y103.477 E9.29129
G1 X72.651 Y102.605 E9.32133
G1 X72.495 Y101.715 E9.35138
G1 X72.413 Y100.683 E9.38581
G1 X72.403 Y99.989 E9.4089
G1 X72.438 Y97.739 E9.48374
G1 X72.402 Y93.748 E9.61649
G1 X72.411 Y92.956 E9.64283
G1 X72.464 Y92.055 E9.67285
G1 X72.597 Y91.161 E9.70291
G1 X72.808 Y90.283 E9.73295
G1 X73.096 Y89.427 E9.76299
G1 X73.499 Y88.519 E9.79603
G1 X74.32 Y86.909 E9.85614
G1 X75.435 Y84.62 E9.94082
G1 X76.479 Y82.309 E10.02517
G1 X77.449 Y79.989 E10.1088
G1 X78.381 Y77.571 E10.19499
G1 X79.217 Y75.205 E10.27845
G1 X79.988 Y72.81 E10.36214
G1 X80.811 Y69.97 E10.46048
G1 X81.101 Y69.115 E10.49051
G1 X81.465 Y68.288 E10.52056
G1 X81.901 Y67.497 E10.5506
G1 X82.405 Y66.748 E10.58063
G10
;MESH:Ladder (Mirror).stl
G0 F9000 X89.935 Y73.214
G0 X91.2 Y73.4
;TYPE:WALL-INNER
G11
G1 F2963 X91.2 Y77.375 E10.71449
G1 F2891.6 X91.2 Y81.35 E10.85166
G1 F2823.5 X91.2 Y85.325 E10.99213
G1 F2758.6 X91.2 Y89.3 E11.13591
G1 F2696.6 X91.2 Y93.275 E11.28299
G10
G0 F9000 X91.2 Y93.48
G0 X91.31 Y94.553
G0 X91.31 Y98.947
G0 X91.2 Y100.225
G11
G1 F2684.6 X91.2 Y104.09 E11.42665
G1 F2708.8 X91.2 Y107.955 E11.56902
G1 F2733.5 X91.2 Y111.82 E11.7101
G1 F2758.6 X91.2 Y115.685 E11.8499
G1 F2784.2 X91.2 Y119.55 E11.98841
G1 F2810.3 X91.2 Y123.415 E12.12564
G1 F2843.6 X91.2 Y127.28 E12.26126
G1 F2870.8 X91.2 Y131.145 E12.3956
G1 F2898.6 X91.2 Y135.01 E12.52865
G1 F2926.8 X91.2 Y138.875 E12.66041
G1 F2955.7 X91.2 Y142.74 E12.79089
G1 F2985.1 X91.2 Y146.605 E12.92008
G10
G0 F9000 X91.02 Y100.199
G0 X89.947 Y101.053
G0 X83.069 Y101.065
G0 X83.069 Y100.199
;TYPE:WALL-OUTER
G11
G1 F2660.8 X83.4 Y100.15 E12.93263
G1 F2666.7 X83.8 Y100.2 E12.94771
G1 F2992.5 X89.926 Y100.199 E13.15197
G1 F2660.8 X90.257 Y100.15 E13.16452
G1 X90.635 Y100.201 E13.17883
G1 F2992.5 X90.8 Y100.351 E13.18626
G1 F3000 X90.8 Y147 E14.73781
G1 X91.6 Y147 E14.76442
G1 X91.6 Y100.351 E16.31597
G1 F2992.5 X91.765 Y100.201 E16.32341
G1 F2977.7 X96.783 Y100.199 E16.49156
G1 F2660.8 X97.114 Y100.15 E16.50411
G1 F2666.7 X97.514 Y100.2 E16.51919
G1 F2992.5 X103.64 Y100.199 E16.72345
G1 F2660.8 X103.971 Y100.15 E16.736
G1 F2666.7 X104.371 Y100.2 E16.75108
G1 F2992.5 X110.498 Y100.199 E16.95538
G1 F2660.8 X110.829 Y100.15 E16.96793
G1 F2666.7 X111.229 Y100.2 E16.98301
G1 F2992.5 X117.355 Y100.199 E17.18727
G1 F2660.8 X117.686 Y100.15 E17.19982
G1 F2666.7 X118.086 Y100.2 E17.2149
G1 F2992.5 X124.212 Y100.199 E17.41916
G1 F2660.8 X124.543 Y100.15 E17.43171
G1 F2666.7 X124.943 Y100.2 E17.44679
G1 F2992.5 X131.069 Y100.199 E17.65106
G1 F2660.8 X131.4 Y100.15 E17.6636
G1 F2666.7 X131.8 Y100.2 E17.67869
G1 F3000 X137.2 Y100.2 E17.85829
G1 X137.2 Y99.8 E17.8716
G1 X131.8 Y99.8 E18.0512
G1 F2666.7 X131.6 Y99.75 E18.05891
G1 F2464.1 X131.6 Y96.725 E18.18141
G1 F2597.4 X131.6 Y93.7 E18.29762
G1 F2746 X134.4 Y93.701 E18.39936
G1 F2912.6 X137.2 Y93.7 E18.49528
G1 F3000 X137.2 Y93.3 E18.50859
G1 F2992.5 X131.731 Y93.301 E18.69094
G1 F2660.8 X131.4 Y93.35 E18.70349
G1 F2666.7 X131 Y93.3 E18.71857
G1 F2992.5 X124.874 Y93.301 E18.92283
G1 F2660.8 X124.543 Y93.35 E18.93538
G1 F2666.7 X124.143 Y93.3 E18.95046
G1 F2992.5 X118.017 Y93.301 E19.15472
G1 F2660.8 X117.686 Y93.35 E19.16727
G1 F2666.7 X117.286 Y93.3 E19.18236
G1 F2992.5 X111.16 Y93.301 E19.38662
G1 F2660.8 X110.829 Y93.35 E19.39917
G1 F2666.7 X110.429 Y93.3 E19.41425
G1 F2992.5 X104.302 Y93.301 E19.61854
G1 F2660.8 X103.971 Y93.35 E19.63109
G1 F2666.7 X103.571 Y93.3 E19.64617
G1 F2992.5 X97.445 Y93.301 E19.85044
G1 F2660.8 X97.114 Y93.35 E19.86298
G1 F2666.7 X96.714 Y93.3 E19.87807
G1 F3000 X91.8 Y93.3 E20.04151
G1 X91.6 Y93.15 E20.04982
G1 X91.6 Y73 E20.72001
G1 X90.8 Y73 E20.74662
G1 X90.8 Y93.149 E21.41678
G1 F2992.5 X90.629 Y93.299 E21.42437
G1 F2660.8 X90.257 Y93.35 E21.43845
G1 F2666.7 X89.857 Y93.3 E21.45353
G1 F2992.5 X83.731 Y93.301 E21.65779
G1 F2660.8 X83.4 Y93.35 E21.67034
G1 F2400 X82.85 Y93.35 E21.69321
G1 X82.85 Y93.65 E21.70568
G1 X83 Y93.65 E21.71191
G1 X83.2 Y93.75 E21.72121
G1 F2464.1 X83.2 Y96.774 E21.84367
G1 F2597.4 X83.2 Y99.798 E21.95983
G1 F2823.5 X82.8 Y99.8 E21.97397
G1 F3000 X82.8 Y100.2 E21.98727
G1 F2992.5 X83.069 Y100.199 E21.99624
G0 F9000 X83.267 Y100.17
G0 X83.8 Y99.8
G1 F2666.7 X83.6 Y99.75 E22.00396
G1 F2464.1 X83.6 Y96.725 E22.12645
G1 F2597.4 X83.6 Y93.7 E22.24266
G1 F2746 X86.729 Y93.701 E22.35636
G1 F2912.6 X89.858 Y93.7 E22.46355
G1 F2666.7 X90.057 Y93.75 E22.47123
G1 F2464.1 X90.057 Y96.775 E22.59372
G1 F2597.4 X90.057 Y99.8 E22.70993
G1 F2746 X86.928 Y99.799 E22.82363
G1 F2912.6 X83.799 Y99.8 E22.93082
G1 F3000 X83.8 Y99.8 E22.93085
G0 F9000 X83.606 Y99.752
G10
G0 X96.714 Y93.7
G11
G1 F2666.7 X96.914 Y93.75 E22.93857
G1 F2464.1 X96.914 Y96.775 E23.06106
G1 F2591.8 X96.914 Y99.8 E23.17752
G1 X90.457 Y99.799 E23.4261
G1 F2597.4 X90.457 Y93.701 E23.66036
G1 F2746 X93.586 Y93.701 E23.77406
G1 F2912.6 X96.715 Y93.7 E23.88125
G1 F3000 X96.714 Y93.7 E23.88129
G0 F9000 X96.908 Y93.748
G0 X97.314 Y93.701
G1 F2746 X100.443 Y93.701 E23.99498
G1 F2912.6 X103.572 Y93.7 E24.10218
G1 F2666.7 X103.771 Y93.75 E24.10985
G1 F2464.1 X103.771 Y96.775 E24.23235
G1 F2597.4 X103.771 Y99.8 E24.34856
G1 F2746 X100.642 Y99.799 E24.46225
G1 F2912.6 X97.513 Y99.8 E24.56945
G1 F3000 X97.514 Y99.8 E24.56948
G1 F2666.7 X97.314 Y99.75 E24.57719
G1 F2464.1 X97.314 Y96.725 E24.69969
G1 F2597.4 X97.314 Y93.7 E24.8159
G0 F9000 X97.514 Y93.701
G10
G0 X104.371 Y99.8
G11
G1 F2666.7 X104.171 Y99.75 E24.82361
G1 F2464.1 X104.171 Y96.725 E24.9461
G1 F2597.4 X104.171 Y93.7 E25.06231
G1 F2746 X107.3 Y93.701 E25.17601
G1 F2912.6 X110.429 Y93.7 E25.2832
G1 F2666.7 X110.629 Y93.75 E25.29092
G1 F2464.1 X110.629 Y96.775 E25.41341
G1 F2597.4 X110.629 Y99.8 E25.52962
G1 F2746 X107.5 Y99.799 E25.64331
G1 F2912.6 X104.371 Y99.8 E25.75051
G0 F9000 X104.177 Y99.752
G10
G0 X105.024 Y98.947
G0 X109.776 Y98.947
G0 X111.029 Y99.75
G11
G1 F2464.1 X111.029 Y96.725 E25.873
G1 F2597.4 X111.029 Y93.7 E25.98921
G1 F2666.7 X111.029 Y93.701 E25.98925
G1 F2746 X114.158 Y93.701 E26.10294
G1 F2912.6 X117.287 Y93.7 E26.21014
G1 F2666.7 X117.486 Y93.75 E26.21782
G1 F2464.1 X117.486 Y96.775 E26.34031
G1 F2597.4 X117.486 Y99.8 E26.45652
G1 F2746 X114.357 Y99.799 E26.57021
G1 F2912.6 X111.228 Y99.8 E26.67741
G1 F2666.7 X111.029 Y99.75 E26.68509
G0 F9000 X111.029 Y99.55
G10
G0 X124.743 Y99.75
G11
G1 F2464.1 X124.743 Y96.725 E26.80758
G1 F2597.4 X124.743 Y93.7 E26.92379
G1 F2746 X127.872 Y93.701 E27.03748
G1 F2912.6 X131.001 Y93.7 E27.14468
G1 F2666.7 X131.2 Y93.75 E27.15236
G1 F2464.1 X131.2 Y96.775 E27.27485
G1 F2597.4 X131.2 Y99.8 E27.39106
G1 F2746 X128.071 Y99.799 E27.50475
G1 F2912.6 X124.942 Y99.8 E27.61195
G1 F3000 X124.943 Y99.8 E27.61198
G1 F2666.7 X124.743 Y99.75 E27.61969
G0 F9000 X124.743 Y99.55
G10
G0 X124.143 Y93.7
G11
G1 F2666.7 X124.343 Y93.75 E27.62741
G1 F2464.1 X124.343 Y96.775 E27.7499
G1 F2597.4 X124.343 Y99.8 E27.86611
G1 F2746 X121.214 Y99.799 E27.97981
G1 F2912.6 X118.085 Y99.8 E28.087
G1 F3000 X118.086 Y99.8 E28.08703
G1 F2666.7 X117.886 Y99.75 E28.09475
G1 F2464.1 X117.886 Y96.725 E28.21724
G1 F2597.4 X117.886 Y93.7 E28.33345
G1 F2746 X121.015 Y93.701 E28.44715
G1 F2912.6 X124.144 Y93.7 E28.55434
G0 F9000 X124.337 Y93.748
G10
;MESH:Ladder (Mirror).stl(1)
G0 X138.431 Y93.748
G0 X138.611 Y90.698
;TYPE:WALL-INNER
G11
G1 F2684.6 X138.611 Y94.563 E28.698
G1 F2708.8 X138.611 Y98.428 E28.84037
G1 F2733.5 X138.611 Y102.293 E28.98145
G1 F2758.6 X138.611 Y106.158 E29.12125
G1 F2784.2 X138.611 Y110.023 E29.25976
G1 F2810.3 X138.611 Y113.888 E29.39699
G1 F2843.6 X138.611 Y117.753 E29.53261
G1 F2870.8 X138.611 Y121.618 E29.66694
G1 F2898.6 X138.611 Y125.483 E29.79999
G1 F2926.8 X138.611 Y129.348 E29.93176
G1 F2955.7 X138.611 Y133.213 E30.06224
G1 F2985.1 X138.611 Y137.078 E30.19143
G10
G0 F9000 X138.611 Y90.493
G0 X138.501 Y89.42
G0 X138.501 Y85.026
G0 X138.611 Y83.748
G11
G1 F2696.6 X138.611 Y79.773 E30.33851
G1 F2758.6 X138.611 Y75.798 E30.48229
G1 F2823.5 X138.611 Y71.823 E30.62276
G1 F2891.6 X138.611 Y67.848 E30.75993
G1 F2963 X138.611 Y63.873 E30.89379
G10
G0 F9000 X138.797 Y83.959
G0 X139.954 Y90.273
;TYPE:WALL-OUTER
G11
G1 F2666.7 X139.754 Y90.223 E30.9015
G1 F2464.1 X139.754 Y87.198 E31.024
G1 F2597.4 X139.754 Y84.173 E31.14021
G1 F2746 X142.883 Y84.174 E31.2539
G1 F2912.6 X146.012 Y84.173 E31.3611
G1 F2666.7 X146.211 Y84.223 E31.36877
G1 F2464.1 X146.211 Y87.248 E31.49127
G1 F2597.4 X146.211 Y90.273 E31.60748
G1 F2746 X143.082 Y90.272 E31.72117
G1 F2912.6 X139.953 Y90.273 E31.82837
G0 F9000 X139.954 Y90.273
G0 X139.76 Y90.225
G10
G0 X138.501 Y89.42
G0 X133.75 Y89.42
G0 X132.897 Y90.223
G11
G1 F2464.1 X132.897 Y87.198 E31.95086
G1 F2591.8 X132.897 Y84.173 E32.06732
G1 X139.354 Y84.174 E32.31591
G1 F2597.4 X139.354 Y90.272 E32.55016
G1 F2746 X136.225 Y90.272 E32.66386
G1 F2912.6 X133.096 Y90.273 E32.77105
G1 F2666.7 X132.897 Y90.223 E32.77873
G0 F9000 X132.897 Y90.023
G10
G0 X131.644 Y89.42
G0 X126.893 Y89.42
G0 X126.24 Y90.273
G11
G1 F2666.7 X126.04 Y90.223 E32.78644
G1 F2464.1 X126.04 Y87.198 E32.90894
G1 F2597.4 X126.04 Y84.173 E33.02515
G1 F2746 X129.169 Y84.174 E33.13884
G1 F2912.6 X132.298 Y84.173 E33.24604
G1 F2666.7 X132.497 Y84.223 E33.25371
G1 F2464.1 X132.497 Y87.248 E33.37621
G1 F2597.4 X132.497 Y90.273 E33.49242
G1 F2746 X129.368 Y90.272 E33.60611
G1 F2912.6 X126.239 Y90.273 E33.71331
G0 F9000 X126.24 Y90.273
G0 X126.046 Y90.225
G10
G0 X124.787 Y89.42
G0 X120.035 Y89.42
G0 X119.382 Y90.273
G11
G1 F2666.7 X119.182 Y90.223 E33.72102
G1 F2464.1 X119.182 Y87.198 E33.84352
G1 F2597.4 X119.182 Y84.173 E33.95972
G1 F2746 X122.311 Y84.174 E34.07342
G1 F2912.6 X125.44 Y84.173 E34.18061
G1 F2666.7 X125.64 Y84.223 E34.18833
G1 F2464.1 X125.64 Y87.248 E34.31082
G1 F2597.4 X125.64 Y90.273 E34.42703
G1 F2746 X122.511 Y90.272 E34.54073
G1 F2912.6 X119.382 Y90.273 E34.64792
G0 F9000 X119.188 Y90.225
G10
G0 X118.582 Y84.173
G11
G1 F2666.7 X118.782 Y84.223 E34.65563
G1 F2464.1 X118.782 Y87.248 E34.77813
G1 F2597.4 X118.782 Y90.273 E34.89434
G1 F2746 X115.653 Y90.272 E35.00803
G1 F2912.6 X112.524 Y90.273 E35.11523
G1 F2666.7 X112.325 Y90.223 E35.1229
G1 F2464.1 X112.325 Y87.198 E35.2454
G1 F2597.4 X112.325 Y84.173 E35.36161
G1 F2746 X115.454 Y84.174 E35.4753
