;FLAVOR:Marlin
;TIME:2424
;Filament used: 0.91132m
;Layer height: 0.1
;MINX:89.038
;MINY:88.761
;MINZ:0.24
;MAXX:132.011
;MAXY:131.937
;MAXZ:11.065
;TARGET_MACHINE.NAME:Creality Ender-3 S1
;POSTPROCESSED
;  [CreateThumbnail]
;  [CreateThumbnail]
;  [KlipperPreprocessor]
;Generated with Cura_SteamEngine 5.6.0
;
;

;
;

M82 ;absolute extrusion mode
;Nozzle diameter = 0.4
;Filament type = PLA
;Filament name = PLA
;Filament weight = [2.7180585058593754]
; M190 S50
; M109 S200
M140 S0
M104 S0
START_PRINT EXTRUDER_TEMP=200 BED_TEMP=50
G92 E0
G92 E0
G10
;LAYER_COUNT:103
;LAYER:-6
M107
G0 F15000 X96.982 Y89.382 Z0.24
;TYPE:SUPPORT-INTERFACE
G11
G1 F4500 X97.21 Y89.146 E0.02619
G1 X97.471 Y88.967 E0.05146
G1 X97.751 Y88.846 E0.07581
G1 X98.168 Y88.771 E0.10963
G1 X98.377 Y88.761 E0.12633
G1 X102.893 Y88.761 E0.48682
G1 X103.351 Y88.792 E0.52346
G1 X103.764 Y88.936 E0.55837
G1 X104.394 Y89.343 E0.61824
G1 X105.042 Y89.676 E0.6764
G1 X105.677 Y89.902 E0.7302
G1 X106.325 Y90.047 E0.78321
G1 X107.172 Y90.113 E0.85102
G1 X109.194 Y90.112 E1.01243
G1 X109.442 Y90.125 E1.03225
G1 X109.706 Y90.162 E1.05353
G1 X110.018 Y90.271 E1.07991
G1 X110.348 Y90.467 E1.11055
G1 X110.917 Y90.78 E1.16239
G1 X111.544 Y91.028 E1.21621
G1 X112.218 Y91.202 E1.27178
G1 X112.935 Y91.29 E1.32944
G1 X113.621 Y91.282 E1.38421
G1 X114.272 Y91.195 E1.43663
G1 X114.94 Y91.018 E1.4918
G1 X115.464 Y90.818 E1.53657
G1 X115.917 Y90.667 E1.57468
G1 X116.417 Y90.529 E1.61609
G1 X117.187 Y90.394 E1.67849
G1 X117.96 Y90.335 E1.74037
G1 X118.687 Y90.34 E1.79841
G1 X119.192 Y90.393 E1.83894
G1 X119.511 Y90.441 E1.86469
G1 X119.974 Y90.529 E1.90231
G1 X120.472 Y90.667 E1.94356
G1 X121.006 Y90.849 E1.9886
G1 X121.545 Y91.077 E2.03531
G1 X121.939 Y91.275 E2.07051
G1 X122.346 Y91.51 E2.10803
G1 X122.631 Y91.694 E2.1351
G1 X123.045 Y91.979 E2.17523
G1 X123.563 Y92.435 E2.23031
G1 X123.93 Y92.798 E2.27152
G1 X124.202 Y93.101 E2.30402
G1 X124.701 Y93.596 E2.36013
G1 X125.212 Y93.985 E2.41139
G1 X125.817 Y94.342 E2.46747
G1 X126.623 Y94.669 E2.5369
G1 X126.79 Y94.72 E2.55084
G1 X127.008 Y94.802 E2.56943
G1 X127.272 Y94.968 E2.59432
G1 X127.587 Y95.268 E2.62905
G1 X127.901 Y95.591 E2.665
G1 X128.395 Y95.987 E2.71554
G1 X128.972 Y96.343 E2.76966
G1 X129.6 Y96.629 E2.82475
G1 X130.077 Y96.771 E2.86447
G1 X130.085 Y96.786 E2.86583
G1 X130.469 Y96.884 E2.89747
G1 X130.478 Y96.9 E2.89893
G1 X130.678 Y96.974 E2.91595
G1 X130.956 Y97.139 E2.94176
G1 X131.219 Y97.38 E2.97024
G1 X131.403 Y97.647 E2.99612
G1 X131.521 Y97.921 E3.01993
G1 X131.606 Y98.398 E3.05861
G1 X131.606 Y109.008 E3.90554
G1 X131.65 Y109.698 E3.96074
G1 X131.847 Y110.592 E4.03381
G1 X131.929 Y110.864 E4.05649
G1 X131.996 Y111.241 E4.08705
G1 X132.007 Y111.488 E4.10679
G1 X132.011 Y116.114 E4.47606
G1 X131.98 Y116.489 E4.50609
G1 X131.911 Y116.966 E4.54457
G1 X131.843 Y117.204 E4.56432
G1 X131.678 Y117.676 E4.60424
G1 X131.504 Y118.052 E4.63731
G1 X131.289 Y118.419 E4.67126
G1 X131.055 Y118.751 E4.70368
G1 X130.779 Y119.062 E4.73688
G1 X130.563 Y119.273 E4.76098
G1 X129.844 Y119.899 E4.83708
G1 X129.379 Y120.43 E4.89342
G1 X129.01 Y120.979 E4.94622
G1 X128.688 Y121.62 E5.00348
G1 X128.461 Y122.27 E5.05844
G1 X128.298 Y123.134 E5.12863
G1 X128.244 Y123.501 E5.15824
G1 X128.13 Y123.805 E5.18415
G1 X127.952 Y124.084 E5.21057
G1 X127.736 Y124.306 E5.2353
G1 X127.483 Y124.482 E5.2599
G1 X127.266 Y124.577 E5.27881
G1 X126.668 Y124.884 E5.33247
G1 X126.109 Y125.264 E5.38642
G1 X125.598 Y125.716 E5.44088
G1 X125.145 Y126.231 E5.49563
G1 X124.599 Y127.031 E5.57294
G1 X124.233 Y127.493 E5.61999
G1 X123.944 Y127.816 E5.65459
G1 X123.627 Y128.131 E5.69026
G1 X123.246 Y128.469 E5.73092
G1 X122.592 Y128.976 E5.79697
G1 X121.812 Y129.418 E5.86854
G1 X121.475 Y129.58 E5.89839
G1 X121.032 Y129.768 E5.9368
G1 X120.735 Y129.874 E5.96197
G1 X120.347 Y129.993 E5.99437
G1 X119.843 Y130.127 E6.036
G1 X119.605 Y130.17 E6.0553
G1 X119.052 Y130.249 E6.0999
G1 X118.709 Y130.281 E6.12739
G1 X117.972 Y130.286 E6.18623
G1 X117.195 Y130.228 E6.24842
G1 X116.546 Y130.114 E6.30102
G1 X115.893 Y130.027 E6.35361
G1 X115.203 Y130.024 E6.40869
G1 X114.523 Y130.108 E6.46338
G1 X113.874 Y130.271 E6.51679
G1 X113.221 Y130.526 E6.57275
G1 X112.604 Y130.866 E6.62899
G1 X112.002 Y131.29 E6.68776
G1 X111.711 Y131.417 E6.71311
G1 X111.316 Y131.489 E6.74516
G1 X110.857 Y131.509 E6.78183
G1 X110.175 Y131.571 E6.8365
G1 X109.27 Y131.795 E6.91092
G1 X108.886 Y131.906 E6.94283
G1 X108.503 Y131.92 E6.97342
G1 X108.081 Y131.828 E7.0079
G1 X107.536 Y131.659 E7.05344
G1 X106.903 Y131.545 E7.10479
G1 X106.188 Y131.508 E7.16194
G1 X105.528 Y131.556 E7.21476
G1 X104.869 Y131.69 E7.26844
G1 X104.655 Y131.768 E7.28662
G1 X104.64 Y131.761 E7.28794
G1 X104.212 Y131.89 E7.32363
G1 X103.994 Y131.936 E7.34141
G1 X103.687 Y131.937 E7.36592
G1 X103.273 Y131.847 E7.39974
G1 X102.53 Y131.636 E7.46139
G1 X101.652 Y131.525 E7.53204
G1 X101.083 Y131.493 E7.57753
G1 X100.751 Y131.431 E7.60449
G1 X100.458 Y131.308 E7.62985
G1 X100.238 Y131.157 E7.65115
G1 X99.972 Y130.898 E7.68079
G1 X99.797 Y130.623 E7.70681
G1 X99.688 Y130.348 E7.73042
G1 X99.537 Y129.253 E7.81866
G1 X99.357 Y128.566 E7.87535
G1 X99.099 Y127.929 E7.93021
G1 X98.758 Y127.327 E7.98544
G1 X98.366 Y126.798 E8.03799
G1 X97.894 Y126.305 E8.09247
G1 X97.378 Y125.887 E8.14548
G1 X96.778 Y125.514 E8.20188
G1 X96.175 Y125.237 E8.25485
G1 X95.496 Y125.029 E8.31153
G1 X94.545 Y124.89 E8.38825
G1 X94.161 Y124.858 E8.41901
G1 X93.784 Y124.724 E8.45095
G1 X93.426 Y124.483 E8.4854
G1 X92.661 Y123.789 E8.56785
G1 X92.662 Y123.769 E8.56945
G1 X92.488 Y123.574 E8.59031
G1 X92.34 Y123.375 E8.61011
G1 X92.105 Y122.896 E8.6527
G1 X92.003 Y122.648 E8.6741
G1 X91.922 Y122.416 E8.69372
G1 X91.798 Y121.954 E8.7319
G1 X91.805 Y121.945 E8.73281
G1 X91.683 Y121.12 E8.79938
G1 X91.591 Y120.651 E8.83753
G1 X91.457 Y119.817 E8.90496
G1 X91.237 Y119.098 E8.96498
G1 X91.122 Y118.759 E8.99356
G1 X91.013 Y118.274 E9.03324
G1 X90.923 Y117.339 E9.10822
G1 X90.768 Y116.667 E9.16327
G1 X90.532 Y116.029 E9.21757
G1 X90.225 Y115.44 E9.27059
G1 X89.824 Y114.86 E9.32687
G1 X89.296 Y114.24 E9.39188
G1 X89.122 Y113.863 E9.42502
G1 X89.048 Y113.446 E9.45883
G1 X89.039 Y112.525 E9.53235
G1 X89.06 Y112.187 E9.55939
G1 X89.123 Y111.799 E9.59076
G1 X89.189 Y111.148 E9.643
G1 X89.172 Y110.472 E9.69697
G1 X89.109 Y109.988 E9.73593
G1 X89.038 Y109.592 E9.76805
G1 X89.038 Y108.729 E9.83694
G1 X89.061 Y108.384 E9.86454
G1 X89.096 Y108.165 E9.88224
G1 X89.201 Y107.894 E9.90544
G1 X89.559 Y107.221 E9.96629
G1 X89.787 Y106.638 E10.01626
G1 X89.962 Y105.961 E10.07208
G1 X90.046 Y105.269 E10.12772
G1 X90.041 Y104.572 E10.18336
G1 X89.972 Y104.023 E10.22753
G1 X89.924 Y103.762 E10.24871
G1 X89.771 Y103.136 E10.30015
G1 X89.53 Y102.499 E10.35452
G1 X89.456 Y102.083 E10.38825
G1 X89.446 Y101.88 E10.40447
G1 X89.446 Y100.758 E10.49403
G1 X89.469 Y100.413 E10.52163
G1 X89.505 Y100.189 E10.53974
G1 X89.605 Y99.933 E10.56168
G1 X89.784 Y99.628 E10.58991
G1 X90.015 Y99.388 E10.6165
G1 X90.234 Y99.239 E10.63765
G1 X91.053 Y98.83 E10.71072
G1 X91.613 Y98.454 E10.76456
G1 X92.14 Y97.993 E10.82046
G1 X92.607 Y97.462 E10.8769
G1 X93.125 Y96.706 E10.95006
G1 X93.517 Y96.203 E11.00096
G1 X93.822 Y95.864 E11.03736
G1 X94.197 Y95.496 E11.0793
G1 X95.032 Y94.766 E11.16784
G1 X95.492 Y94.253 E11.22284
G1 X95.876 Y93.693 E11.27704
G1 X96.199 Y93.068 E11.3332
G1 X96.423 Y92.45 E11.38567
G1 X96.575 Y91.783 E11.44028
G1 X96.643 Y90.948 E11.50715
G1 X96.644 Y90.512 E11.54196
G1 X96.667 Y90.168 E11.56948
G1 X96.705 Y89.939 E11.58801
G1 X96.803 Y89.687 E11.60959
G1 X96.982 Y89.382 E11.63782
G0 F15000 X97.06 Y90.272
G1 F4500 X128.301 Y121.513 E15.16457
G0 F15000 X129.142 Y120.091
G1 F4500 X98.219 Y89.168 E18.65543
G0 F15000 X100.474 Y89.161
G1 F4500 X130.292 Y118.978 E22.02149
G0 F15000 X131.242 Y117.666
G1 F4500 X102.737 Y89.161 E25.23938
G0 F15000 X106.285 Y90.446
G1 F4500 X131.61 Y115.771 E28.09828
G0 F15000 X131.608 Y113.506
G1 F4500 X108.614 Y90.512 E30.69404
G0 F15000 X111.898 Y91.533
G1 F4500 X131.585 Y111.22 E32.91648
G0 F15000 X131.205 Y108.577
G1 F4500 X114.23 Y91.603 E34.83271
G0 F15000 X115.963 Y91.073
G1 F4500 X131.205 Y106.314 E36.5533
G0 F15000 X131.205 Y104.052
G1 F4500 X117.894 Y90.741 E38.05596
G0 F15000 X120.522 Y91.107
G1 F4500 X131.205 Y101.789 E39.2619
G0 F15000 X131.205 Y99.526
G1 F4500 X126.862 Y95.183 E39.75217
G0 F15000 X127.863 Y123.337
G1 F4500 X96.856 Y92.331 E43.25245
G0 F15000 X96.194 Y93.931
G1 F4500 X126.687 Y124.424 E46.69477
G0 F15000 X125.379 Y125.379
G1 F4500 X95.173 Y95.173 E50.10468
G0 F15000 X93.999 Y96.262
G1 F4500 X124.38 Y126.643 E53.53435
G0 F15000 X123.331 Y127.856
G1 F4500 X93.028 Y97.553 E56.95521
G0 F15000 X91.926 Y98.714
G1 F4500 X122.039 Y128.827 E60.35463
G0 F15000 X120.481 Y129.532
G1 F4500 X90.501 Y99.552 E63.73903
G0 F15000 X89.845 Y101.159
G1 F4500 X118.566 Y129.88 E66.98131
G0 F15000 X116.07 Y129.647
G1 F4500 X90.363 Y103.939 E69.88339
G0 F15000 X90.32 Y106.159
G1 F4500 X113.989 Y129.828 E72.55535
G0 F15000 X112.413 Y130.515
G1 F4500 X89.7 Y107.802 E75.11939
G0 F15000 X89.49 Y109.855
G1 F4500 X110.75 Y131.115 E77.5194
G0 F15000 X108.866 Y131.493
G1 F4500 X89.477 Y112.105 E79.70815
G0 F15000 X90.811 Y115.701
G1 F4500 X106.219 Y131.109 E81.44753
G0 F15000 X104.294 Y131.446
G1 F4500 X91.513 Y118.666 E82.89031
G0 F15000 X92.149 Y121.565
G1 F4500 X95.159 Y124.575 E83.2301
G0 F15000 X97.581 Y126.645
G0 X99.957 Y129.372
G1 F4500 X101.713 Y131.128 E83.42834
M104 S200
G0 F600 X101.713 Y131.128 Z0.39
G0 F15000 X128.055 Y122.26
;TIME_ELAPSED:26.636661
;LAYER:-5
;TYPE:SUPPORT
G1 F4500 X120.948 Y129.367 E83.92977
G1 X121.306 Y129.216 E83.94916
G1 X121.625 Y129.061 E83.96685
G1 X122.137 Y128.775 E83.99611
G1 X122.521 Y128.521 E84.01908
G1 X122.951 Y128.193 E84.04606
G1 X123.361 Y127.832 E84.07331
G1 X123.634 Y127.561 E84.09251
G1 X123.919 Y127.243 E84.11381
G1 X124.276 Y126.789 E84.14262
G1 X124.835 Y125.978 E84.19177
G1 X125.314 Y125.43 E84.22808
G1 X125.864 Y124.946 E84.26463
G1 X126.473 Y124.532 E84.30137
G1 X127.299 Y124.122 E84.34737
G1 X127.492 Y123.981 E84.3593
G1 X127.661 Y123.798 E84.37173
G1 X127.776 Y123.604 E84.38298
G1 X127.854 Y123.388 E84.39444
G1 X127.9 Y123.084 E84.40977
G1 X128.076 Y122.154 E84.457
G1 X128.321 Y121.454 E84.494
G1 X128.65 Y120.797 E84.53065
G1 X129.058 Y120.188 E84.56723
G1 X129.539 Y119.635 E84.60379
G1 X130.065 Y119.165 E84.63898
G1 X130.237 Y119.025 E84.65005
G1 X130.493 Y118.781 E84.66769
G1 X130.748 Y118.485 E84.68718
G1 X130.903 Y118.274 E84.70025
G1 X131.033 Y118.073 E84.71219
G1 X131.176 Y117.814 E84.72695
G1 X131.246 Y117.654 E84.73566
G1 X119.052 Y129.849 E85.59605
G1 X118.492 Y129.884 E85.62404
G1 X117.871 Y129.882 E85.65502
G1 X117.624 Y129.862 E85.66739
G1 X131.603 Y115.883 E86.65368
G1 X131.603 Y114.469 E86.72423
G1 X116.384 Y129.689 E87.79804
G1 X115.906 Y129.625 E87.8221
G1 X115.035 Y129.623 E87.86556
G1 X131.604 Y113.054 E89.03459
G1 X131.604 Y111.64 E89.10514
G1 X113.12 Y130.124 E90.40928
G1 X112.414 Y130.512 E90.44947
G1 X111.828 Y130.923 E90.48518
G1 X111.61 Y131.023 E90.49715
G1 X111.254 Y131.091 E90.51523
G1 X110.708 Y131.121 E90.54251
G1 X131.4 Y110.429 E92.00244
G1 X131.251 Y109.74 E92.03761
G1 X131.216 Y109.199 E92.06466
G1 X108.943 Y131.472 E93.63614
G1 X108.74 Y131.51 E93.64644
G1 X108.494 Y131.509 E93.65872
G1 X108.252 Y131.458 E93.67106
G1 X107.723 Y131.278 E93.69893
G1 X131.205 Y107.797 E95.35568
G1 X131.205 Y106.382 E95.42628
G1 X106.469 Y131.118 E97.17153
G1 X106.199 Y131.103 E97.18502
G1 X105.467 Y131.159 E97.22165
G1 X105.234 Y131.206 E97.23351
G1 X105.218 Y131.159 E97.23599
G1 X104.922 Y131.251 E97.25145
G1 X131.205 Y104.968 E99.10586
G1 X131.205 Y103.554 E99.1764
G1 X103.316 Y131.442 E101.14409
G1 X102.582 Y131.234 E101.18215
G1 X102.16 Y131.184 E101.20335
G1 X131.205 Y102.14 E103.2526
G1 X131.205 Y100.725 E103.32319
G1 X100.882 Y131.048 E105.46264
G1 X100.679 Y130.966 E105.47357
G1 X100.479 Y130.835 E105.48549
G1 X100.309 Y130.671 E105.49728
G1 X100.121 Y130.395 E105.51394
G1 X131.205 Y99.311 E107.70708
G1 X131.205 Y98.437 E107.75069
G1 X131.123 Y97.978 E107.77395
G1 X99.929 Y129.173 E109.97489
G1 X99.738 Y128.442 E110.01258
G1 X99.596 Y128.091 E110.03147
G1 X130.397 Y97.29 E112.20465
G1 X129.596 Y97.07 E112.24609
G1 X129.327 Y96.947 E112.26085
G1 X99.12 Y127.153 E114.39208
G1 X98.667 Y126.533 E114.43039
G1 X98.5 Y126.359 E114.44242
G1 X128.399 Y96.459 E116.55199
G1 X128.186 Y96.329 E116.56444
G1 X127.593 Y95.851 E116.60244
G1 X97.761 Y125.683 E118.70725
G1 X97.589 Y125.543 E118.71832
G1 X96.908 Y125.123 E118.75823
G1 X126.858 Y95.173 E120.87137
G1 X126.483 Y95.042 E120.89118
G1 X125.836 Y94.781 E120.92599
G1 X95.887 Y124.729 E123.03902
G1 X95.583 Y124.636 E123.05488
G1 X94.697 Y124.505 E123.09956
G1 X124.93 Y94.272 E125.23266
G1 X124.421 Y93.883 E125.26463
G1 X124.162 Y93.626 E125.28283
G1 X93.645 Y124.143 E127.43597
G1 X92.915 Y123.458 E127.48591
G1 X123.47 Y92.904 E129.6417
G1 X123.29 Y92.729 E129.65422
G1 X122.91 Y92.399 E129.67933
G1 X122.712 Y92.248 E129.69175
G1 X92.401 Y122.559 E131.83036
G1 X92.298 Y122.284 E131.84501
G1 X92.227 Y122.031 E131.85812
G1 X92.133 Y121.412 E131.88935
G1 X121.857 Y91.689 E133.98651
G1 X121.668 Y91.582 E133.99734
G1 X121.227 Y91.37 E134.02175
G1 X120.896 Y91.235 E134.03959
G1 X91.929 Y120.202 E136.08337
G1 X91.875 Y119.846 E136.10133
G1 X91.909 Y119.836 E136.1031
G1 X91.649 Y119.068 E136.14355
G1 X119.811 Y90.906 E138.13053
G1 X119.482 Y90.842 E138.14725
G1 X119.019 Y90.776 E138.17059
G1 X118.562 Y90.741 E138.19345
G1 X91.386 Y117.917 E140.11087
G1 X91.33 Y117.321 E140.14073
G1 X91.187 Y116.702 E140.17243
G1 X117.08 Y90.808 E141.99935
G1 X116.413 Y90.944 E142.03332
G1 X116.032 Y91.049 E142.05303
G1 X115.512 Y91.227 E142.08045
G1 X115.085 Y91.39 E142.10326
G1 X90.799 Y115.675 E143.81673
G1 X90.555 Y115.209 E143.84297
G1 X90.266 Y114.794 E143.8682
G1 X113.374 Y91.686 E145.4986
G1 X112.888 Y91.689 E145.52284
G1 X112.058 Y91.588 E145.56456
G1 X89.632 Y114.014 E147.14683
G1 X89.514 Y113.76 E147.16081
G1 X89.437 Y113.353 E147.18147
G1 X89.437 Y112.794 E147.20936
G1 X110.991 Y91.24 E148.73011
G1 X110.765 Y91.151 E148.74223
G1 X110.058 Y90.759 E148.78256
G1 X89.593 Y111.224 E150.22648
G1 X89.569 Y110.416 E150.26681
G1 X89.499 Y109.904 E150.29259
G1 X108.891 Y90.512 E151.6608
G1 X107.477 Y90.512 E151.73134
G1 X89.449 Y108.54 E153.00332
G1 X89.463 Y108.327 E153.01396
G1 X89.564 Y108.058 E153.0283
G1 X90.09 Y107.103 E153.08269
G1 X90.04 Y107.079 E153.08546
G1 X90.179 Y106.734 E153.10402
G1 X90.292 Y106.283 E153.12721
G1 X106.156 Y90.419 E154.2465
G1 X105.548 Y90.281 E154.27761
G1 X105.056 Y90.104 E154.3037
G1 X90.459 Y104.701 E155.33359
G1 X90.364 Y103.948 E155.37146
G1 X90.315 Y103.676 E155.38525
G1 X90.267 Y103.48 E155.39531
G1 X104.115 Y89.632 E156.37236
G1 X103.583 Y89.295 E156.40378
G1 X103.18 Y89.152 E156.42512
G1 X89.924 Y102.408 E157.3604
G1 X89.846 Y101.99 E157.38161
G1 X89.846 Y101.072 E157.42741
G1 X101.758 Y89.16 E158.26787
G1 X100.344 Y89.16 E158.33841
G1 X96.729 Y92.775 E158.59347
G1 X96.815 Y92.536 E158.60614
G1 X96.976 Y91.812 E158.64315
G1 X97.043 Y90.949 E158.68633
G1 X97.043 Y90.499 E158.70878
G1 X97.066 Y90.129 E158.72728
G1 X97.164 Y89.858 E158.74165
G1 X97.287 Y89.651 E158.75367
G1 X97.449 Y89.474 E158.76564
G1 X97.638 Y89.335 E158.77734
G1 X97.855 Y89.236 E158.78924
G1 X98.258 Y89.161 E158.80969
G1 X98.929 Y89.16 E158.84317
G1 X97.035 Y91.054 E158.9768
G0 F600 X97.035 Y91.054 Z0.49
G0 F15000 X123.804 Y93.257
;TIME_ELAPSED:55.308528
;LAYER:-4
;TYPE:SUPPORT-INTERFACE
