;FLAVOR:Marlin
;TIME:238
;Filament used: 0.199246m
;Layer height: 0.2
;MINX:48.922
;MINY:79.059
;MINZ:0.2
;MAXX:171.078
;MAXY:141.659
;MAXZ:2.6
;TARGET_MACHINE.NAME:Creality Ender-3 S1
;POSTPROCESSED
;  [CreateThumbnail]
;  [CreateThumbnail]
;  [KlipperPreprocessor]
;Generated with Cura_SteamEngine 5.6.0
;
;

;
;

M82 ;absolute extrusion mode
;Nozzle diameter = 0.4
;Filament type = PLA
;Filament name = PLA
;Filament weight = [0.5942601611328125]
; M190 S50
; M109 S200
M140 S0
M104 S0
START_PRINT EXTRUDER_TEMP=200 BED_TEMP=50
G92 E0
G92 E0
G10
;LAYER_COUNT:13
;LAYER:0
M107
G0 F9000 X64.105 Y81.693 Z0.2
;TYPE:SKIRT
G11
G1 F3000 X64.404 Y81.46 E0.01261
G1 X65.141 Y80.937 E0.04267
G1 X65.92 Y80.482 E0.07267
G1 X66.583 Y80.162 E0.09716
G1 X66.985 Y79.986 E0.11175
G1 X67.828 Y79.661 E0.1418
G1 X68.696 Y79.412 E0.17184
G1 X69.65 Y79.23 E0.20414
G1 X70.089 Y79.168 E0.21888
G1 X71.187 Y79.073 E0.25554
G1 X71.764 Y79.06 E0.27474
G1 X147.793 Y79.059 E2.80347
G1 X148.637 Y79.07 E2.83155
G1 X149.826 Y79.157 E2.8712
G1 X150.235 Y79.211 E2.88492
G1 X151.124 Y79.368 E2.91494
G1 X151.996 Y79.604 E2.94499
G1 X152.656 Y79.84 E2.9683
G1 X153.012 Y79.981 E2.98104
G1 X153.836 Y80.35 E3.01107
G1 X154.624 Y80.791 E3.0411
G1 X155.333 Y81.272 E3.0696
G1 X155.697 Y81.542 E3.08467
G1 X156.398 Y82.111 E3.1147
G1 X157.045 Y82.741 E3.14474
G1 X157.663 Y83.461 E3.1763
G1 X157.897 Y83.761 E3.18895
G1 X158.42 Y84.497 E3.21898
G1 X158.876 Y85.276 E3.249
G1 X159.201 Y85.952 E3.27395
G1 X159.384 Y86.371 E3.28916
G1 X159.807 Y87.523 E3.32998
G1 X160.082 Y88.441 E3.36185
G1 X160.868 Y90.93 E3.44866
G1 X161.707 Y93.344 E3.53366
G1 X162.6 Y95.698 E3.6174
G1 X163.577 Y98.07 E3.70273
G1 X164.605 Y100.378 E3.78676
G1 X165.7 Y102.662 E3.87101
G1 X166.878 Y104.947 E3.95651
G1 X168.097 Y107.159 E4.04051
G1 X169.305 Y109.214 E4.1198
G1 X169.602 Y109.704 E4.13886
G1 X170.035 Y110.496 E4.16888
G1 X170.397 Y111.324 E4.19893
G1 X170.684 Y112.18 E4.22896
G1 X170.894 Y113.058 E4.25899
G1 X171.026 Y113.952 E4.28904
G1 X171.078 Y114.853 E4.31906
G1 X171.05 Y115.756 E4.34911
G1 X170.943 Y116.653 E4.37916
G1 X170.756 Y117.536 E4.40918
G1 X170.492 Y118.4 E4.43922
G1 X170.153 Y119.237 E4.46926
G1 X169.741 Y120.041 E4.49931
G1 X169.26 Y120.805 E4.52933
G1 X168.679 Y121.564 E4.56113
G1 X168.168 Y122.17 E4.58749
G1 X166.53 Y124.172 E4.67353
G1 X165.003 Y126.148 E4.75658
G1 X163.477 Y128.245 E4.84284
G1 X162.047 Y130.331 E4.92696
G1 X160.701 Y132.418 E5.00956
G1 X158.675 Y135.813 E5.14106
G1 X158.113 Y136.656 E5.17475
G1 X157.822 Y137.049 E5.19102
G1 X157.253 Y137.75 E5.22105
G1 X156.625 Y138.398 E5.25106
G1 X155.895 Y139.025 E5.28307
G1 X155.596 Y139.258 E5.29568
G1 X154.859 Y139.781 E5.32573
G1 X154.08 Y140.236 E5.35574
G1 X153.417 Y140.556 E5.38022
G1 X153.015 Y140.732 E5.39482
G1 X152.172 Y141.057 E5.42487
G1 X151.304 Y141.306 E5.4549
G1 X150.35 Y141.488 E5.48721
G1 X149.911 Y141.55 E5.50195
G1 X148.813 Y141.645 E5.53861
G1 X148.236 Y141.658 E5.5578
G1 X72.207 Y141.659 E8.08654
G1 X71.363 Y141.648 E8.11461
G1 X70.174 Y141.561 E8.15427
G1 X69.765 Y141.507 E8.16799
G1 X68.876 Y141.35 E8.19801
G1 X68.004 Y141.114 E8.22806
G1 X67.344 Y140.878 E8.25137
G1 X66.988 Y140.737 E8.26411
G1 X66.164 Y140.368 E8.29414
G1 X65.376 Y139.927 E8.32417
G1 X64.667 Y139.446 E8.35267
G1 X64.303 Y139.176 E8.36774
G1 X63.602 Y138.607 E8.39777
G1 X62.955 Y137.977 E8.42781
G1 X62.337 Y137.257 E8.45936
G1 X62.103 Y136.957 E8.47202
G1 X61.58 Y136.221 E8.50205
G1 X61.124 Y135.442 E8.53207
G1 X60.8 Y134.769 E8.55691
G1 X60.616 Y134.348 E8.5722
G1 X60.191 Y133.189 E8.61325
G1 X59.918 Y132.277 E8.64492
G1 X59.124 Y129.765 E8.73254
G1 X58.305 Y127.407 E8.81556
G1 X57.395 Y125.009 E8.90087
G1 X56.423 Y122.648 E8.98579
G1 X55.395 Y120.34 E9.06983
G1 X54.3 Y118.056 E9.15407
G1 X53.131 Y115.787 E9.23897
G1 X51.9 Y113.554 E9.32378
G1 X50.398 Y111.014 E9.42192
G1 X49.965 Y110.222 E9.45194
G1 X49.603 Y109.394 E9.482
G1 X49.316 Y108.538 E9.51203
G1 X49.106 Y107.66 E9.54205
G1 X48.974 Y106.766 E9.57211
G1 X48.922 Y105.865 E9.60213
G1 X48.95 Y104.962 E9.63218
G1 X49.057 Y104.065 E9.66222
G1 X49.244 Y103.182 E9.69224
G1 X49.508 Y102.318 E9.72229
G1 X49.847 Y101.481 E9.75233
G1 X50.259 Y100.677 E9.78237
G1 X50.74 Y99.913 E9.8124
G1 X51.321 Y99.154 E9.84419
G1 X51.832 Y98.548 E9.87056
G1 X53.47 Y96.546 E9.95659
G1 X54.997 Y94.57 E10.03965
G1 X56.523 Y92.473 E10.12591
G1 X57.953 Y90.387 E10.21003
G1 X59.299 Y88.3 E10.29263
G1 X61.325 Y84.905 E10.42412
G1 X61.887 Y84.062 E10.45782
G1 X62.178 Y83.669 E10.47409
G1 X62.747 Y82.968 E10.50411
G1 X63.375 Y82.32 E10.53413
G1 X64.105 Y81.693 E10.56613
G10
;MESH:Covered Hopper Air Lines, Steps, Step Boards, Brake Wheel, Hatchs.3mf(13)
G0 F9000 X76.995 Y105.785
;TYPE:WALL-OUTER
G11
G1 F3030.3 X76.763 Y105.494 E10.57839
G1 F3022.7 X76.766 Y102.06 E10.69175
G1 X76.894 Y101.693 E10.70458
G1 F3007.5 X77.273 Y101.514 E10.71848
G1 F3000 X82.762 Y101.514 E10.90105
G1 X82.762 Y101.914 E10.91435
G1 X77.34 Y101.914 E11.09469
G1 F3022.7 X77.167 Y102.081 E11.10263
G1 X77.163 Y105.34 E11.21021
G1 F2992.5 X77.317 Y105.511 E11.21788
G1 X82.762 Y105.514 E11.39944
G1 F3000 X82.762 Y105.914 E11.41274
G1 F2992.5 X77.221 Y105.908 E11.5975
G1 F3015.1 X76.995 Y105.785 E11.60601
G0 F9000 X77.17 Y105.88
G10
;MESH:Covered Hopper Air Lines, Steps, Step Boards, Brake Wheel, Hatchs.3mf(3)
G0 X77.17 Y106.775
G0 X83.615 Y106.768
G0 X96.028 Y105.549
G0 X96.028 Y103.442
G0 X95.175 Y101.56
G0 X95.175 Y100.695
G11
G1 F3007.5 X89.76 Y100.696 E11.78566
G1 F3015.1 X89.576 Y100.873 E11.79411
G1 F3007.5 X89.577 Y104.123 E11.90194
G1 X89.753 Y104.294 E11.91008
G1 X95.175 Y104.295 E12.08997
G1 F3000 X95.175 Y104.695 E12.10327
G1 F3007.5 X89.716 Y104.691 E12.28438
G1 F3022.7 X89.52 Y104.635 E12.29111
G1 F3038 X89.308 Y104.467 E12.3
G1 F3030.3 X89.179 Y104.195 E12.30991
G1 F3015.1 X89.179 Y100.836 E12.42107
G1 F3022.7 X89.238 Y100.632 E12.42808
G1 X89.41 Y100.387 E12.43796
G1 X89.717 Y100.299 E12.44851
G1 F3007.5 X95.175 Y100.295 E12.62959
G1 F3000 X95.175 Y100.695 E12.64289
G0 F9000 X95.175 Y100.495
G10
;MESH:Covered Hopper Air Lines, Steps, Step Boards, Brake Wheel, Hatchs.3mf
G0 X96.04 Y100.495
G0 X104.746 Y112.39
G0 X105.611 Y112.39
G11
G1 F3007.5 X105.611 Y98.221 E13.11297
G1 X105.747 Y97.853 E13.12599
G1 F2992.5 X105.918 Y97.609 E13.13592
G1 F2963 X106.187 Y97.374 E13.14795
G1 F2955.7 X106.601 Y97.207 E13.16302
G1 F2985.1 X113.611 Y97.207 E13.39734
G1 F3000 X113.611 Y97.607 E13.41065
G1 F3015.1 X106.647 Y97.607 E13.64111
G1 F3030.3 X106.322 Y97.763 E13.65298
G1 F3015.1 X106.109 Y98.022 E13.66408
G1 F3000 X106.011 Y98.296 E13.67376
G1 X106.011 Y112.39 E14.14253
G1 X105.611 Y112.39 E14.15583
G0 F9000 X105.811 Y112.39
G10
;MESH:Covered Hopper Air Lines, Steps, Step Boards, Brake Wheel, Hatchs.3mf(7)
G0 X104.746 Y112.39
G0 X71.765 Y112.39
G0 X70.5 Y106.992
;TYPE:WALL-INNER
G11
G1 F3000 X70.5 Y129.812 E14.91483
G1 F3038 X70.532 Y130.107 E14.92457
G1 F3007.5 X70.644 Y130.354 E14.93357
G1 F3000 X70.795 Y130.564 E14.94217
G1 F3007.5 X71.004 Y130.716 E14.95075
G1 X71.271 Y130.839 E14.9605
G1 F3030.3 X71.547 Y130.859 E14.96961
G1 F3007.5 X148.452 Y130.859 E17.52109
G1 F3053.4 X148.798 Y130.81 E17.53251
G1 F3007.5 X148.992 Y130.718 E17.53963
G1 F3000 X149.205 Y130.564 E17.54837
G1 F3015.1 X149.357 Y130.355 E17.55693
G1 F3007.5 X149.48 Y130.088 E17.56668
G1 F3030.3 X149.5 Y129.812 E17.57579
G1 F3000 X149.5 Y114.992 E18.06871
G1 F2484.5 X149.583 Y114.676 E18.08183
G1 F1849 X149.667 Y114.359 E18.09953
G0 F9000 X159.362 Y114.359
G1 F2575.1 X150.1 Y114.359 E18.45841
G1 F2003.3 X149.667 Y114.359 E18.47998
G1 F2101.6 X149.504 Y113.83 E18.50626
G1 F2948.4 X149.502 Y102.368 E18.89416
G1 F2985.1 X149.5 Y90.906 E19.27729
G1 F3030.3 X149.464 Y90.601 E19.2874
G1 F3000 X149.356 Y90.364 E19.29607
G1 X149.205 Y90.154 E19.30467
G1 F3007.5 X148.996 Y90.002 E19.31324
G1 X148.729 Y89.879 E19.323
G1 F3038 X148.453 Y89.859 E19.33208
G1 F3007.5 X71.548 Y89.859 E21.88356
G1 F3030.3 X71.202 Y89.908 E21.89507
G1 F2992.5 X71.008 Y90 E21.90223
G1 X70.795 Y90.154 E21.91099
G1 F3007.5 X70.643 Y90.363 E21.91956
G1 X70.52 Y90.63 E21.92932
G1 F3030.3 X70.5 Y90.906 E21.93843
G1 F2970.3 X70.496 Y105.83 E22.43977
G1 F2912.6 X70.185 Y106.272 E22.45828
G1 F2721.1 X69.9 Y106.359 E22.46921
G1 X70.196 Y106.449 E22.48055
G1 F2941.2 X70.5 Y106.992 E22.50167
G1 F3133.2 X70.517 Y106.359 E22.52183
G1 F3100.8 X70.496 Y105.83 E22.53887
G0 F9000 X69.9 Y106.359
G1 F2575.1 X60.638 Y106.359 E22.89775
G0 F9000 X70.328 Y106.564
G0 X70.4 Y106.992
G0 X70.1 Y106.992
;TYPE:WALL-OUTER
G1 F3000 X70.1 Y129.838 E23.65761
G1 X70.152 Y130.22 E23.67044
G1 X70.291 Y130.558 E23.68259
G1 X70.513 Y130.846 E23.69469
G1 X70.801 Y131.068 E23.70678
G1 X71.139 Y131.208 E23.71895
G1 X71.521 Y131.259 E23.73177
G1 X148.477 Y131.258 E26.29133
G1 X148.864 Y131.208 E26.30431
G1 X149.196 Y131.071 E26.31626
G1 X149.487 Y130.846 E26.32849
G1 X149.709 Y130.558 E26.34059
G1 X149.849 Y130.22 E26.35275
G1 X149.9 Y129.838 E26.36557
G1 X149.9 Y114.992 E26.85935
G1 X150.004 Y114.792 E26.86685
G1 X160.403 Y114.791 E27.21272
G1 X159.541 Y113.926 E27.25334
G1 X150.008 Y113.926 E27.57041
G1 X149.902 Y113.761 E27.57693
G1 X149.9 Y90.88 E28.33796
G1 X149.849 Y90.498 E28.35077
G1 X149.709 Y90.16 E28.36294
G1 X149.487 Y89.872 E28.37504
G1 X149.199 Y89.65 E28.38713
G1 X148.861 Y89.51 E28.3993
G1 X148.479 Y89.46 E28.41211
G1 X71.522 Y89.459 E30.97171
G1 X71.136 Y89.51 E30.98466
G1 X70.804 Y89.647 E30.99661
G1 X70.513 Y89.872 E31.00884
G1 X70.291 Y90.16 E31.02094
G1 X70.151 Y90.498 E31.03311
G1 X70.1 Y90.88 E31.04592
G1 X70.098 Y105.761 E31.54087
G1 X69.991 Y105.926 E31.54741
G1 X59.595 Y105.926 E31.89318
G1 X60.459 Y106.792 E31.93387
G1 X69.945 Y106.792 E32.24937
G1 X70.1 Y106.992 E32.25779
G0 F9000 X70.1 Y107.192
G0 X70.4 Y107.192
G0 X70.662 Y90.662
G0 X70.811 Y90.281
G0 X71.071 Y90.431
G1 F3000 X71.383 Y90.26 E32.26962
G1 X148.635 Y90.26 E34.83903
G1 X148.93 Y90.431 E34.85038
G1 X149.1 Y90.737 E34.86202
G1 X149.1 Y129.993 E36.16768
G1 X148.928 Y130.289 E36.17906
G1 X148.624 Y130.458 E36.19063
G1 X71.364 Y130.458 E38.76031
G1 X71.071 Y130.287 E38.77159
G1 X70.901 Y129.985 E38.78312
G1 X70.901 Y90.723 E40.08898
G1 X71.071 Y90.431 E40.10022
G0 F9000 X71.246 Y90.335
G10
;MESH:Air Line Main.stl
G0 X71.101 Y90.07
G0 X118.046 Y90.059
G0 X118.046 Y91.124
G0 X119.299 Y102.525
G0 X119.308 Y118.749
G0 X118.046 Y118.92
G11
G1 F3015.1 X118.046 Y104.178 E40.58809
G1 F2591.8 X117.974 Y103.928 E40.5981
G1 F2303.3 X117.318 Y103.929 E40.62652
G1 F2620.1 X117.246 Y104.178 E40.63639
G1 F3030.3 X117.251 Y123.803 E41.2826
G1 F3038 X117.471 Y124.15 E41.29609
G1 F3022.7 X117.827 Y124.389 E41.31025
G1 F3007.5 X122.246 Y124.389 E41.45685
G1 F3000 X122.246 Y124.789 E41.47016
G1 X117.931 Y124.789 E41.61368
G1 F3015.1 X117.627 Y124.725 E41.62396
G1 F3000 X117.403 Y124.599 E41.63251
G1 F2985.1 X117.142 Y124.375 E41.644
G1 F3022.7 X116.937 Y124.056 E41.65652
G1 F3030.3 X116.846 Y123.719 E41.66801
G1 F3015.1 X116.846 Y104.178 E42.3147
G1 F2569.6 X116.913 Y103.713 E42.33294
G1 F2243 X116.913 Y103.445 E42.34487
G1 X117.181 Y103.445 E42.35679
G1 F2312.1 X117.359 Y103.43 E42.3645
G1 F2390.4 X117.846 Y103.428 E42.38482
G1 F2321.1 X118.111 Y103.445 E42.39624
G1 F2243 X118.379 Y103.445 E42.40816
G1 X118.379 Y103.713 E42.42008
G1 F2569.6 X118.446 Y104.178 E42.43833
G1 F3022.7 X118.449 Y119.011 E42.92797
G1 F3038 X118.672 Y119.351 E42.94133
G1 F3022.7 X119.027 Y119.589 E42.95544
G1 F3007.5 X122.246 Y119.589 E43.06223
G1 F3000 X122.246 Y119.989 E43.07554
G1 X119.131 Y119.989 E43.17914
G1 F3015.1 X118.827 Y119.925 E43.18943
G1 F3000 X118.603 Y119.799 E43.19797
G1 F2985.1 X118.342 Y119.575 E43.20947
G1 F3022.7 X118.137 Y119.257 E43.22196
G1 F3030.3 X118.046 Y118.92 E43.23345
G0 F9000 X118.098 Y119.113
G10
;MESH:Covered Hopper Air Lines, Steps, Step Boards, Brake Wheel, Hatchs.3mf(1)
G0 X118.743 Y119.649
G0 X119.293 Y118.73
G0 X130.112 Y100.416
G0 X130.112 Y98.31
G0 X128.512 Y97.616
G0 X127.259 Y97.062
G11
G1 F3038 X127.314 Y96.864 E43.2402
G1 X127.496 Y96.601 E43.25071
G1 F3007.5 X127.763 Y96.422 E43.26137
G1 X127.957 Y96.364 E43.26809
G1 X138.145 Y96.363 E43.6061
G1 F3045.7 X138.341 Y96.419 E43.61278
G1 F3038 X138.605 Y96.601 E43.62331
G1 F3000 X138.784 Y96.866 E43.63394
G1 X138.843 Y97.062 E43.64075
G1 X138.843 Y123.963 E44.53548
G1 X138.443 Y123.963 E44.54879
G1 F3015.1 X138.443 Y97.067 E45.43888
G1 F3045.7 X138.278 Y96.835 E45.44821
G1 F3038 X138.122 Y96.763 E45.45385
G1 F3015.1 X127.964 Y96.763 E45.79002
G1 F3022.7 X127.66 Y96.978 E45.80231
G1 F3030.3 X127.659 Y98.885 E45.8651
G1 F3015.1 X127.935 Y99.162 E45.87804
G1 F3007.5 X129.259 Y99.163 E45.92197
G1 F3000 X129.259 Y99.563 E45.93527
G1 X127.957 Y99.562 E45.97858
G1 F3007.5 X127.762 Y99.504 E45.98533
G1 F2963 X127.5 Y99.321 E45.99609
G1 X127.318 Y99.06 E46.0068
G1 F3007.5 X127.26 Y98.864 E46.01358
G1 F3000 X127.259 Y97.062 E46.07352
G0 F9000 X127.259 Y97.262
G10
;MESH:Covered Hopper Air Lines, Steps, Step Boards, Brake Wheel, Hatchs.3mf(5)
G0 X128.512 Y97.616
G0 X130.112 Y98.31
G0 X130.112 Y100.416
G0 X126.949 Y120.697
G0 X127.717 Y121.485
G0 X129.863 Y122.512
G0 X129.743 Y122.237
;TYPE:WALL-INNER
G11
G1 F3000 X129.458 Y122.37 E46.08398
G1 X128.99 Y122.66 E46.10229
G1 X128.806 Y122.607 E46.10866
G1 X128.842 Y122.776 E46.11441
G1 X128.504 Y123.399 E46.13798
G1 X128.421 Y123.6 E46.14521
G1 X128.276 Y124.165 E46.16461
G1 X128.073 Y124.291 E46.17256
G1 X128.293 Y124.419 E46.18103
G1 X128.371 Y124.826 E46.19481
G1 X128.45 Y125.066 E46.20321
G1 X128.58 Y125.349 E46.21357
G1 X128.831 Y125.74 E46.22903
G1 X128.769 Y126.038 E46.23915
G1 X129.068 Y125.976 E46.24931
G1 X129.459 Y126.229 E46.2648
G1 X129.742 Y126.358 E46.27514
G1 X129.982 Y126.437 E46.28354
G1 X130.39 Y126.515 E46.29736
G1 X130.517 Y126.734 E46.30578
G1 X130.642 Y126.532 E46.31368
G1 X131.112 Y126.411 E46.32982
G1 X131.5 Y126.267 E46.34359
G1 X131.952 Y125.976 E46.36147
G1 X132.252 Y126.039 E46.37166
G1 X132.19 Y125.741 E46.38179
G1 X132.44 Y125.35 E46.39722
G1 X132.57 Y125.066 E46.40761
G1 X132.649 Y124.826 E46.41602
G1 X132.727 Y124.418 E46.42983
G1 X132.946 Y124.291 E46.43825
G1 X132.744 Y124.166 E46.44615
G1 X132.623 Y123.696 E46.46229
G1 X132.479 Y123.307 E46.47609
G1 X132.189 Y122.857 E46.4939
G1 X132.236 Y122.572 E46.5035
G1 X131.954 Y122.619 E46.51301
G1 X131.507 Y122.333 E46.53066
G1 X131.204 Y122.208 E46.54156
G1 X130.642 Y122.064 E46.56086
G1 X130.516 Y121.875 E46.56841
G1 X130.387 Y122.082 E46.57653
G1 X129.982 Y122.159 E46.59024
G1 X129.743 Y122.237 E46.5986
G0 F9000 X129.863 Y122.512
G0 X129.641 Y122.087
G0 X128.988 Y120.655
G0 X128.73 Y120.941
;TYPE:WALL-OUTER
G1 F3000 X128.96 Y120.828 E46.60712
G1 X129.401 Y120.662 E46.6228
G1 X129.841 Y120.556 E46.63785
G1 F2963 X130.15 Y120.512 E46.64836
G1 F2614.4 X130.31 Y120.563 E46.65477
G1 F2637.4 X130.31 Y121.54 E46.69173
G1 F2992.5 X130.203 Y121.711 E46.69846
G1 F3000 X129.884 Y121.77 E46.70925
G1 X129.596 Y121.865 E46.71934
G1 X129.267 Y122.017 E46.73139
G1 X128.885 Y122.257 E46.74639
G1 X128.698 Y122.204 E46.75286
G1 F2649 X128.01 Y121.515 E46.78953
G1 X128.134 Y121.33 E46.79792
G1 F3007.5 X128.522 Y121.058 E46.81364
G1 X128.73 Y120.941 E46.82156
G0 F9000 X128.909 Y120.853
G10
G0 X130.991 Y120.327
G0 X130.894 Y120.518
G11
G1 F2985.1 X131.179 Y120.556 E46.83117
G1 F3007.5 X131.635 Y120.668 E46.84675
G1 X132.07 Y120.833 E46.86219
G1 X132.301 Y120.947 E46.87073
G1 X132.503 Y121.063 E46.87846
G1 F3015.1 X132.912 Y121.352 E46.89503
G1 F2654.9 X133.01 Y121.515 E46.90218
G1 F2649 X132.317 Y122.209 E46.93912
G1 F3000 X132.115 Y122.243 E46.94594
