;FLAVOR:Marlin
;TIME:1157
;Filament used: 0.462519m
;Layer height: 0.1
;MINX:79.299
;MINY:74.899
;MINZ:0.2
;MAXX:140.65
;MAXY:145.05
;MAXZ:2.9
;TARGET_MACHINE.NAME:Creality Ender-3 S1
;POSTPROCESSED
;  [CreateThumbnail]
;  [CreateThumbnail]
;  [KlipperPreprocessor]
;Generated with Cura_SteamEngine 5.6.0
;
;

;
;

M82 ;absolute extrusion mode
;Nozzle diameter = 0.4
;Filament type = PLA
;Filament name = PLA
;Filament weight = [1.37948486328125]
; M190 S50
; M109 S200
M140 S0
M104 S0
START_PRINT EXTRUDER_TEMP=200 BED_TEMP=50
G92 E0
G92 E0
G10
;LAYER_COUNT:28
;LAYER:0
M107
G0 F9000 X82.486 Y88.958 Z0.2
;TYPE:SKIRT
G11
G1 F3000 X83.168 Y88.366 E0.03004
G1 X83.556 Y88.072 E0.04623
G1 X84.399 Y87.466 E0.08076
G1 X86.497 Y85.912 E0.1676
G1 X88.488 Y84.348 E0.25181
G1 X90.428 Y82.732 E0.33578
G1 X92.356 Y81.032 E0.42128
G1 X94.195 Y79.318 E0.50489
G1 X95.519 Y78.015 E0.56667
G1 X95.837 Y77.713 E0.58126
G1 X96.519 Y77.121 E0.6113
G1 X97.25 Y76.591 E0.64133
G1 X98.026 Y76.128 E0.67138
G1 X98.839 Y75.735 E0.70142
G1 X99.684 Y75.416 E0.73146
G1 X100.554 Y75.173 E0.7615
G1 X101.442 Y75.008 E0.79154
G1 X102.598 Y74.912 E0.83012
G1 X103.166 Y74.901 E0.84902
G1 X106.983 Y74.899 E0.97597
G1 X108.098 Y74.919 E1.01307
G1 X109.789 Y74.997 E1.06937
G1 X112.431 Y75.066 E1.15727
G1 X114.934 Y75.061 E1.24052
G1 X118.324 Y74.939 E1.35335
G1 X120.077 Y74.902 E1.41166
G1 X123.385 Y74.899 E1.52169
G1 X124.199 Y74.91 E1.54876
G1 X125.101 Y74.964 E1.57882
G1 X125.994 Y75.097 E1.60885
G1 X126.872 Y75.309 E1.63889
G1 X127.728 Y75.597 E1.66893
G1 X128.555 Y75.961 E1.69898
G1 X129.346 Y76.395 E1.72899
G1 X130.096 Y76.899 E1.75904
G1 X130.799 Y77.466 E1.78908
G1 X131.448 Y78.094 E1.81912
G1 X132.04 Y78.776 E1.84916
G1 X132.569 Y79.508 E1.8792
G1 X133.031 Y80.284 E1.90923
G1 X133.422 Y81.098 E1.93927
G1 X133.74 Y81.943 E1.9693
G1 X134.071 Y83.239 E2.01379
G1 X134.626 Y86.215 E2.11448
G1 X135.161 Y88.678 E2.19831
G1 X135.735 Y91.008 E2.27812
G1 X135.912 Y91.894 E2.30817
G1 X136.029 Y93.24 E2.35311
G1 X136.053 Y94.528 E2.39595
G1 X136.054 Y97.215 E2.48532
G1 X136.032 Y98.805 E2.53821
G1 X135.992 Y100.222 E2.58536
G1 X135.992 Y102.756 E2.66964
G1 X136.064 Y105.317 E2.75485
G1 X136.208 Y107.835 E2.83874
G1 X136.423 Y110.365 E2.92319
G1 X136.708 Y112.873 E3.00714
G1 X137.068 Y115.4 E3.09204
G1 X137.5 Y117.914 E3.17688
G1 X137.994 Y120.374 E3.26034
G1 X138.563 Y122.855 E3.345
G1 X139.208 Y125.328 E3.43
G1 X139.929 Y127.812 E3.51603
G1 X140.181 Y128.622 E3.54424
G1 X140.41 Y129.496 E3.57429
G1 X140.562 Y130.386 E3.60432
G1 X140.635 Y131.341 E3.63618
G1 X140.65 Y131.98 E3.65744
G1 X140.649 Y134.239 E3.73257
G1 X140.64 Y134.966 E3.75676
G1 X140.589 Y135.868 E3.7868
G1 X140.458 Y136.762 E3.81686
G1 X140.249 Y137.64 E3.84688
G1 X139.963 Y138.497 E3.87692
G1 X139.602 Y139.325 E3.90697
G1 X139.17 Y140.117 E3.93697
G1 X138.669 Y140.869 E3.96703
G1 X138.103 Y141.573 E3.99707
G1 X137.478 Y142.224 E4.02709
G1 X136.797 Y142.818 E4.05714
G1 X136.066 Y143.349 E4.08719
G1 X135.292 Y143.813 E4.11721
G1 X134.479 Y144.207 E4.14726
G1 X133.635 Y144.527 E4.17728
G1 X132.765 Y144.772 E4.20734
G1 X131.878 Y144.938 E4.23735
G1 X130.727 Y145.036 E4.27578
G1 X130.12 Y145.049 E4.29597
G1 X122.21 Y145.048 E4.55906
G1 X121.517 Y145.038 E4.58211
G1 X120.944 Y145.014 E4.60118
G1 X119.849 Y144.936 E4.6377
G1 X117.242 Y144.789 E4.72454
G1 X114.703 Y144.716 E4.80902
G1 X112.169 Y144.716 E4.89331
G1 X109.634 Y144.787 E4.97765
G1 X107.037 Y144.933 E5.06417
G1 X106.019 Y145.011 E5.09812
G1 X105.527 Y145.037 E5.11451
G1 X104.92 Y145.05 E5.1347
G1 X96.984 Y145.049 E5.39866
G1 X96.278 Y145.037 E5.42214
G1 X95.376 Y144.981 E5.4522
G1 X94.483 Y144.846 E5.48224
G1 X93.606 Y144.633 E5.51226
G1 X92.75 Y144.343 E5.54232
G1 X91.924 Y143.978 E5.57235
G1 X91.133 Y143.542 E5.60239
G1 X90.626 Y143.211 E5.62253
G1 X90.087 Y142.836 E5.64437
G1 X87.881 Y141.346 E5.73291
G1 X85.758 Y139.997 E5.81657
G1 X85.086 Y139.597 E5.84258
G1 X84.159 Y139.027 E5.87878
G1 X83.412 Y138.52 E5.9088
G1 X82.712 Y137.949 E5.93885
G1 X82.066 Y137.318 E5.96888
G1 X81.479 Y136.632 E5.99891
G1 X80.954 Y135.897 E6.02896
G1 X80.496 Y135.119 E6.05898
G1 X80.109 Y134.303 E6.08902
G1 X79.796 Y133.456 E6.11905
G1 X79.558 Y132.584 E6.14912
G1 X79.399 Y131.695 E6.17916
G1 X79.313 Y130.627 E6.21479
G1 X79.3 Y130.02 E6.23499
G1 X79.301 Y122.11 E6.49807
G1 X79.311 Y121.417 E6.52113
G1 X79.335 Y120.844 E6.5402
G1 X79.413 Y119.749 E6.57671
G1 X79.56 Y117.142 E6.66356
G1 X79.633 Y114.603 E6.74804
G1 X79.633 Y112.069 E6.83232
G1 X79.562 Y109.535 E6.91664
G1 X79.416 Y106.934 E7.00328
G1 X79.338 Y105.919 E7.03714
G1 X79.312 Y105.428 E7.0535
G1 X79.299 Y104.821 E7.07369
G1 X79.3 Y96.912 E7.33674
G1 X79.31 Y96.21 E7.36009
G1 X79.363 Y95.308 E7.39015
G1 X79.495 Y94.415 E7.42017
G1 X79.706 Y93.537 E7.4502
G1 X79.994 Y92.681 E7.48024
G1 X80.356 Y91.853 E7.5103
G1 X80.79 Y91.061 E7.54034
G1 X81.293 Y90.311 E7.57037
G1 X81.859 Y89.608 E7.60039
G1 X82.486 Y88.958 E7.63043
G10
G0 F9000 X89.699 Y96.55
G11
G1 F3000 X92.498 Y96.55 E7.72352
G1 X92.498 Y104.95 E8.00291
G1 X89.699 Y104.95 E8.096
G1 X89.699 Y96.55 E8.37539
G0 F9000 X90.099 Y96.95
G1 F3000 X92.098 Y96.95 E8.44188
G1 X92.098 Y104.55 E8.69465
G1 X90.099 Y104.55 E8.76114
G1 X90.099 Y96.95 E9.01392
G0 F9000 X90.499 Y97.35
G1 F3000 X91.698 Y97.35 E9.0538
G1 X91.698 Y104.15 E9.27997
G1 X90.499 Y104.15 E9.31984
G1 X90.499 Y97.35 E9.54601
G0 F9000 X90.899 Y97.75
G1 F3000 X91.298 Y97.75 E9.55928
G1 X91.298 Y103.75 E9.75885
G1 X90.899 Y103.75 E9.77212
G1 X90.899 Y97.75 E9.97168
G10
G0 F9000 X101.255 Y97.859
G11
G1 F3000 X101.254 Y93.548 E10.11506
G1 X101.349 Y93.359 E10.1221
G1 X101.619 Y93.241 E10.1319
G1 X101.642 Y93.23 E10.13275
G1 X102.044 Y92.99 E10.14832
G1 X102.083 Y92.959 E10.14997
G1 X102.529 Y92.511 E10.171
G1 X102.56 Y92.47 E10.17271
G1 X102.821 Y92.018 E10.19007
G1 X102.838 Y91.98 E10.19145
G1 X102.98 Y91.546 E10.20664
G1 X102.988 Y91.514 E10.20774
G1 X103.035 Y91.207 E10.21807
G1 X103.037 Y91.187 E10.21874
G1 X103.05 Y90.921 E10.2276
G1 X103.05 Y90.911 E10.22793
G1 X103.054 Y85.3 E10.41455
G1 X107.453 Y85.299 E10.56086
G1 X107.457 Y91.164 E10.75593
G1 X107.457 Y91.174 E10.75627
G1 X107.472 Y91.483 E10.76655
G1 X107.473 Y91.496 E10.76699
G1 X107.499 Y91.718 E10.77442
G1 X107.504 Y91.743 E10.77527
G1 X107.6 Y92.128 E10.78847
G1 X107.612 Y92.162 E10.78967
G1 X107.776 Y92.527 E10.80298
G1 X107.795 Y92.561 E10.80427
G1 X108.028 Y92.887 E10.8176
G1 X108.055 Y92.918 E10.81897
G1 X108.349 Y93.191 E10.83231
G1 X108.381 Y93.215 E10.83364
G1 X108.714 Y93.419 E10.84663
G1 X108.747 Y93.435 E10.84785
G1 X109.171 Y93.595 E10.86292
G1 X109.208 Y93.605 E10.8642
G1 X109.621 Y93.676 E10.87813
G1 X109.643 Y93.679 E10.87887
G1 X109.908 Y93.695 E10.8877
G1 X109.921 Y93.695 E10.88814
G1 X117.111 Y93.675 E11.12728
G1 X117.134 Y93.674 E11.12804
G1 X117.55 Y93.623 E11.14198
G1 X117.574 Y93.618 E11.1428
G1 X117.819 Y93.557 E11.1512
G1 X117.848 Y93.548 E11.15221
G1 X118.233 Y93.387 E11.16609
G1 X118.268 Y93.368 E11.16741
G1 X118.597 Y93.147 E11.18059
G1 X118.627 Y93.122 E11.18189
G1 X118.907 Y92.84 E11.19511
G1 X118.933 Y92.807 E11.19651
G1 X119.17 Y92.44 E11.21104
G1 X119.188 Y92.406 E11.21232
G1 X119.342 Y92.018 E11.2262
G1 X119.353 Y91.977 E11.22761
G1 X119.445 Y91.435 E11.2459
G1 X119.448 Y91.402 E11.247
G1 X119.454 Y85.3 E11.44995
G1 X123.853 Y85.299 E11.59626
G1 X123.856 Y90.911 E11.78292
G1 X123.856 Y90.921 E11.78325
G1 X123.872 Y91.239 E11.79384
G1 X123.873 Y91.253 E11.79431
G1 X123.9 Y91.475 E11.80175
G1 X123.905 Y91.501 E11.80263
G1 X124.017 Y91.939 E11.81766
G1 X124.04 Y91.994 E11.81965
G1 X124.39 Y92.565 E11.84192
G1 X124.423 Y92.605 E11.84365
G1 X124.803 Y92.965 E11.86106
G1 X124.834 Y92.989 E11.86236
G1 X125.088 Y93.149 E11.87235
G1 X125.105 Y93.159 E11.873
G1 X125.339 Y93.277 E11.88172
G1 X125.386 Y93.289 E11.88333
G1 X125.594 Y93.393 E11.89107
G1 X125.653 Y93.539 E11.8963
G1 X125.654 Y97.85 E12.03969
G1 X125.56 Y98.039 E12.04671
G1 X125.414 Y98.098 E12.05195
G1 X123.82 Y98.099 E12.10496
G1 X123.587 Y97.996 E12.11344
G1 X123.573 Y97.991 E12.11393
G1 X123.246 Y97.875 E12.12547
G1 X123.216 Y97.867 E12.1265
G1 X122.758 Y97.78 E12.14201
G1 X122.718 Y97.776 E12.14335
G1 X122.31 Y97.783 E12.15692
G1 X122.28 Y97.786 E12.15792
G1 X122.054 Y97.823 E12.16554
G1 X122.054 Y97.499 E12.17631
G1 X123.454 Y97.499 E12.22288
G1 X123.573 Y97.46 E12.22704
G1 X123.654 Y97.299 E12.23304
G1 X123.654 Y85.699 E12.61886
G1 X123.615 Y85.58 E12.62302
G1 X123.454 Y85.499 E12.62901
G1 X119.854 Y85.499 E12.74875
G1 X119.735 Y85.538 E12.75292
G1 X119.654 Y85.699 E12.75891
G1 X119.654 Y93.899 E13.03164
G1 X107.254 Y93.899 E13.44407
G1 X107.254 Y85.699 E13.7168
G1 X107.215 Y85.58 E13.72097
G1 X107.054 Y85.499 E13.72696
G1 X103.454 Y85.499 E13.8467
G1 X103.335 Y85.538 E13.85086
G1 X103.254 Y85.699 E13.85686
G1 X103.254 Y97.299 E14.24268
G1 X103.293 Y97.418 E14.24684
G1 X103.454 Y97.499 E14.25284
G1 X104.854 Y97.499 E14.2994
G1 X104.854 Y97.969 E14.31503
G1 X104.478 Y97.897 E14.32776
G1 X104.454 Y97.893 E14.32857
G1 X104.109 Y97.87 E14.34007
G1 X104.077 Y97.871 E14.34114
G1 X103.678 Y97.909 E14.35447
G1 X103.651 Y97.913 E14.35538
G1 X103.355 Y97.983 E14.36549
G1 X103.341 Y97.987 E14.36598
G1 X102.985 Y98.099 E14.37839
G1 X101.503 Y98.099 E14.42768
G1 X101.314 Y98.005 E14.4347
G1 X101.255 Y97.859 E14.43994
G0 F9000 X101.655 Y97.699
G1 F3000 X101.654 Y93.663 E14.57418
G1 X101.779 Y93.608 E14.57872
G1 X101.847 Y93.573 E14.58126
G1 X102.249 Y93.333 E14.59684
G1 X102.366 Y93.241 E14.60179
G1 X102.812 Y92.793 E14.62281
G1 X102.854 Y92.739 E14.62509
G1 X102.854 Y97.299 E14.77675
G1 X102.894 Y97.514 E14.78403
G1 X102.993 Y97.678 E14.7904
G1 X102.925 Y97.699 E14.79277
G1 X101.655 Y97.699 E14.83501
G0 F9000 X102.055 Y97.299
G1 F3000 X102.054 Y93.916 E14.94753
G1 X102.454 Y93.677 E14.96302
G1 X102.454 Y97.299 E15.08349
G1 X102.055 Y97.299 E15.09676
G10
G0 F9000 X103.05 Y103.685
G0 X103.05 Y103.951
G11
G1 F3000 X107.449 Y103.95 E15.24307
G1 X107.453 Y109.815 E15.43814
G1 X107.453 Y109.825 E15.43848
G1 X107.468 Y110.134 E15.44877
G1 X107.469 Y110.147 E15.4492
G1 X107.495 Y110.369 E15.45663
G1 X107.5 Y110.394 E15.45748
G1 X107.596 Y110.779 E15.47068
G1 X107.608 Y110.813 E15.47188
G1 X107.772 Y111.178 E15.48519
G1 X107.791 Y111.212 E15.48648
G1 X108.024 Y111.538 E15.49981
G1 X108.051 Y111.569 E15.50118
G1 X108.345 Y111.842 E15.51452
G1 X108.377 Y111.866 E15.51585
G1 X108.71 Y112.07 E15.52884
G1 X108.743 Y112.086 E15.53006
G1 X109.167 Y112.246 E15.54513
G1 X109.204 Y112.256 E15.54641
G1 X109.617 Y112.327 E15.56035
G1 X109.639 Y112.33 E15.56109
G1 X109.904 Y112.346 E15.56992
G1 X109.917 Y112.346 E15.57035
G1 X117.107 Y112.326 E15.80949
G1 X117.13 Y112.325 E15.81026
G1 X117.546 Y112.274 E15.8242
G1 X117.57 Y112.269 E15.82501
G1 X117.815 Y112.208 E15.83341
G1 X117.844 Y112.199 E15.83442
G1 X118.229 Y112.038 E15.8483
G1 X118.264 Y112.019 E15.84962
G1 X118.593 Y111.798 E15.8628
G1 X118.623 Y111.773 E15.8641
G1 X118.903 Y111.491 E15.87732
G1 X118.929 Y111.458 E15.87872
G1 X119.166 Y111.091 E15.89325
G1 X119.184 Y111.057 E15.89453
G1 X119.338 Y110.669 E15.90841
G1 X119.349 Y110.628 E15.90982
G1 X119.441 Y110.086 E15.92811
G1 X119.444 Y110.053 E15.92921
G1 X119.45 Y103.951 E16.13216
G1 X123.849 Y103.95 E16.27848
G1 X123.852 Y109.562 E16.46513
G1 X123.852 Y109.572 E16.46546
G1 X123.868 Y109.89 E16.47605
G1 X123.869 Y109.904 E16.47652
G1 X123.896 Y110.126 E16.48396
G1 X123.901 Y110.152 E16.48484
G1 X124.013 Y110.59 E16.49988
G1 X124.036 Y110.645 E16.50186
G1 X124.386 Y111.216 E16.52413
G1 X124.419 Y111.256 E16.52586
G1 X124.799 Y111.616 E16.54327
G1 X124.83 Y111.64 E16.54457
G1 X125.084 Y111.8 E16.55456
G1 X125.101 Y111.81 E16.55521
G1 X125.335 Y111.928 E16.56393
G1 X125.382 Y111.94 E16.56554
G1 X125.59 Y112.044 E16.57328
G1 X125.649 Y112.19 E16.57852
G1 X125.65 Y116.501 E16.7219
G1 X125.556 Y116.69 E16.72892
G1 X125.41 Y116.749 E16.73416
G1 X123.816 Y116.75 E16.78718
G1 X123.583 Y116.647 E16.79565
G1 X123.569 Y116.642 E16.79614
G1 X123.242 Y116.526 E16.80768
G1 X123.212 Y116.518 E16.80872
G1 X122.754 Y116.431 E16.82422
G1 X122.714 Y116.427 E16.82556
G1 X122.306 Y116.434 E16.83913
G1 X122.276 Y116.437 E16.84013
G1 X122.05 Y116.474 E16.84775
G1 X122.05 Y116.15 E16.85853
G1 X123.45 Y116.15 E16.90509
G1 X123.569 Y116.111 E16.90926
G1 X123.65 Y115.95 E16.91525
G1 X123.65 Y104.35 E17.30107
G1 X123.611 Y104.231 E17.30523
G1 X123.45 Y104.15 E17.31123
G1 X119.85 Y104.15 E17.43096
G1 X119.731 Y104.189 E17.43513
G1 X119.65 Y104.35 E17.44112
G1 X119.65 Y112.55 E17.71386
G1 X107.25 Y112.55 E18.12628
G1 X107.25 Y104.35 E18.39901
G1 X107.211 Y104.231 E18.40318
G1 X107.05 Y104.15 E18.40917
G1 X103.45 Y104.15 E18.52891
G1 X103.331 Y104.189 E18.53308
G1 X103.25 Y104.35 E18.53907
G1 X103.25 Y115.95 E18.92489
G1 X103.289 Y116.069 E18.92905
G1 X103.45 Y116.15 E18.93505
G1 X104.85 Y116.15 E18.98161
G1 X104.85 Y116.62 E18.99724
G1 X104.474 Y116.548 E19.00998
G1 X104.45 Y116.544 E19.01079
G1 X104.105 Y116.521 E19.02229
G1 X104.073 Y116.522 E19.02335
G1 X103.674 Y116.56 E19.03668
G1 X103.647 Y116.564 E19.03759
G1 X103.351 Y116.634 E19.04771
G1 X103.337 Y116.638 E19.04819
G1 X102.981 Y116.75 E19.0606
G1 X101.899 Y116.75 E19.09659
G1 X101.899 Y111.724 E19.26376
G1 X102.041 Y111.639 E19.26926
G1 X102.081 Y111.608 E19.27094
G1 X102.525 Y111.162 E19.29188
G1 X102.556 Y111.121 E19.29359
G1 X102.817 Y110.669 E19.31094
G1 X102.834 Y110.631 E19.31233
G1 X102.976 Y110.197 E19.32752
G1 X102.984 Y110.165 E19.32861
G1 X103.031 Y109.858 E19.33894
G1 X103.033 Y109.838 E19.33961
G1 X103.046 Y109.572 E19.34847
G1 X103.046 Y109.562 E19.3488
G1 X103.05 Y103.951 E19.53543
G10
G0 F9000 X102.785 Y103.951
G0 X102.785 Y111.39
G0 X102.85 Y111.39
G11
G1 F3000 X102.85 Y115.95 E19.68709
G1 X102.89 Y116.165 E19.69437
G1 X102.989 Y116.329 E19.70074
G1 X102.921 Y116.35 E19.7031
G1 X102.299 Y116.35 E19.72379
G1 X102.299 Y111.941 E19.87044
G1 X102.364 Y111.89 E19.87318
G1 X102.808 Y111.444 E19.89412
G1 X102.85 Y111.39 E19.89639
G10
G0 F9000 X102.785 Y111.39
G0 X102.797 Y103.697
G0 X107.703 Y103.697
G0 X107.715 Y111.702
G0 X107.65 Y111.702
G11
G1 F3000 X107.699 Y111.771 E19.89921
G1 X107.779 Y111.862 E19.90324
G1 X108.073 Y112.135 E19.91658
G1 X108.093 Y112.15 E19.91741
G1 X107.65 Y112.15 E19.93215
G1 X107.65 Y111.702 E19.94705
G10
G0 F9000 X107.715 Y111.702
G0 X118.786 Y112.085
G0 X118.786 Y112.15
G11
G1 F3000 X118.816 Y112.13 E19.94825
G1 X118.907 Y112.055 E19.95217
G1 X119.187 Y111.773 E19.96538
G1 X119.25 Y111.694 E19.96875
G1 X119.25 Y112.15 E19.98391
G1 X118.786 Y112.15 E19.99934
G10
G0 F9000 X119.197 Y112.097
G0 X119.197 Y103.697
G0 X124.103 Y103.697
G0 X124.115 Y111.431
G0 X124.05 Y111.431
G11
G1 F3000 X124.144 Y111.547 E20.00431
G1 X124.524 Y111.907 E20.02172
G1 X124.617 Y111.979 E20.02563
G1 X124.871 Y112.139 E20.03562
G1 X124.921 Y112.167 E20.03752
G1 X125.155 Y112.285 E20.04624
G1 X125.2 Y112.297 E20.04779
G1 X125.249 Y112.321 E20.0496
G1 X125.25 Y116.349 E20.18358
G1 X123.901 Y116.35 E20.22844
G1 X123.891 Y116.345 E20.22881
G1 X123.984 Y116.224 E20.23389
G1 X124.05 Y115.95 E20.24326
G1 X124.05 Y111.431 E20.39357
G0 F9000 X124.45 Y112.346
G1 F3000 X124.658 Y112.477 E20.40174
G1 X124.741 Y112.524 E20.40492
G1 X124.849 Y112.579 E20.40895
G1 X124.85 Y115.949 E20.52103
G1 X124.45 Y115.95 E20.53434
G1 X124.45 Y112.346 E20.65421
G10
G0 F9000 X123.905 Y97.964
G0 X123.905 Y97.699
G11
G1 F3000 X123.895 Y97.694 E20.65458
G1 X123.988 Y97.573 E20.65965
G1 X124.054 Y97.299 E20.66903
G1 X124.054 Y92.78 E20.81933
G1 X124.148 Y92.896 E20.8243
