;FLAVOR:Marlin
;TIME:591
;Filament used: 0.436495m
;Layer height: 0.2
;MINX:85.1
;MINY:87.8
;MINZ:0.2
;MAXX:134.95
;MAXY:132.2
;MAXZ:2.2
;TARGET_MACHINE.NAME:Creality Ender-3 S1
;POSTPROCESSED
;  [CreateThumbnail]
;  [CreateThumbnail]
;  [KlipperPreprocessor]
;Generated with Cura_SteamEngine 5.6.0
;
;

;
;

M82 ;absolute extrusion mode
;Nozzle diameter = 0.4
;Filament type = PLA
;Filament name = PLA
;Filament weight = [1.3018670996093749]
; M190 S50
; M109 S200
M140 S0
M104 S0
START_PRINT EXTRUDER_TEMP=200 BED_TEMP=50
G92 E0
G92 E0
G10
;LAYER_COUNT:11
;LAYER:0
M107
G0 F9000 X91.727 Y91.149 Z0.2
;TYPE:SKIRT
G11
G1 F3000 X92.214 Y90.678 E0.02253
G1 X92.89 Y90.08 E0.05255
G1 X93.617 Y89.543 E0.08261
G1 X94.388 Y89.073 E0.11265
G1 X95.198 Y88.673 E0.14269
G1 X96.04 Y88.347 E0.17272
G1 X96.907 Y88.096 E0.20274
G1 X97.794 Y87.923 E0.2328
G1 X99.122 Y87.812 E0.27713
G1 X99.862 Y87.8 E0.30174
G1 X104.593 Y87.8 E0.4591
G1 X105.441 Y87.811 E0.4873
G1 X108.668 Y87.908 E0.59468
G1 X111.222 Y87.908 E0.67963
G1 X113.275 Y87.857 E0.74793
G1 X114.92 Y87.804 E0.80267
G1 X120.035 Y87.8 E0.9728
G1 X120.889 Y87.811 E1.0012
G1 X121.791 Y87.864 E1.03126
G1 X122.684 Y87.996 E1.06128
G1 X123.563 Y88.207 E1.09135
G1 X124.419 Y88.495 E1.12139
G1 X125.246 Y88.857 E1.15141
G1 X126.038 Y89.291 E1.18145
G1 X126.788 Y89.794 E1.21149
G1 X127.656 Y90.509 E1.24889
G1 X128.105 Y90.934 E1.26945
G1 X131.601 Y94.428 E1.43385
G1 X132.072 Y94.915 E1.45638
G1 X132.67 Y95.591 E1.4864
G1 X133.207 Y96.318 E1.51646
G1 X133.677 Y97.089 E1.54649
G1 X134.077 Y97.899 E1.57654
G1 X134.403 Y98.741 E1.60657
G1 X134.654 Y99.608 E1.63659
G1 X134.827 Y100.495 E1.66665
G1 X134.938 Y101.823 E1.71097
G1 X134.95 Y102.563 E1.73559
G1 X134.949 Y117.438 E2.23033
G1 X134.939 Y118.14 E2.25368
G1 X134.886 Y119.042 E2.28374
G1 X134.754 Y119.935 E2.31376
G1 X134.543 Y120.813 E2.34379
G1 X134.255 Y121.669 E2.37383
G1 X133.893 Y122.497 E2.40389
G1 X133.459 Y123.289 E2.43393
G1 X132.956 Y124.039 E2.46396
G1 X132.218 Y124.932 E2.50249
G1 X131.816 Y125.355 E2.5219
G1 X128.456 Y128.719 E2.68004
G1 X127.845 Y129.313 E2.70838
G1 X127.17 Y129.912 E2.7384
G1 X126.444 Y130.449 E2.76843
G1 X125.673 Y130.92 E2.79848
G1 X124.864 Y131.321 E2.82851
G1 X124.023 Y131.649 E2.85854
G1 X123.155 Y131.901 E2.8886
G1 X122.269 Y132.075 E2.91863
G1 X120.928 Y132.188 E2.96339
G1 X120.188 Y132.2 E2.98801
G1 X115.312 Y132.199 E3.15018
G1 X114.609 Y132.189 E3.17357
G1 X111.382 Y132.092 E3.28095
G1 X108.828 Y132.092 E3.36589
G1 X106.775 Y132.143 E3.4342
G1 X105.13 Y132.196 E3.48894
G1 X100.015 Y132.2 E3.65906
G1 X99.161 Y132.189 E3.68747
G1 X98.259 Y132.136 E3.71752
G1 X97.366 Y132.004 E3.74755
G1 X96.487 Y131.793 E3.77761
G1 X95.631 Y131.505 E3.80765
G1 X94.804 Y131.143 E3.83768
G1 X94.012 Y130.709 E3.86772
G1 X93.262 Y130.206 E3.89775
G1 X92.394 Y129.491 E3.93516
G1 X91.945 Y129.066 E3.95572
G1 X88.456 Y125.58 E4.11976
G1 X87.985 Y125.094 E4.14227
G1 X87.386 Y124.418 E4.17231
G1 X86.849 Y123.692 E4.20234
G1 X86.378 Y122.921 E4.23239
G1 X85.978 Y122.112 E4.26241
G1 X85.65 Y121.27 E4.29247
G1 X85.398 Y120.403 E4.3225
G1 X85.224 Y119.517 E4.35253
G1 X85.112 Y118.178 E4.39722
G1 X85.1 Y117.438 E4.42183
G1 X85.101 Y102.562 E4.91661
G1 X85.111 Y101.86 E4.93996
G1 X85.164 Y100.958 E4.97002
G1 X85.296 Y100.065 E5.00004
G1 X85.507 Y99.187 E5.03007
G1 X85.795 Y98.331 E5.06011
G1 X86.157 Y97.503 E5.09017
G1 X86.591 Y96.711 E5.12021
G1 X87.094 Y95.961 E5.15024
G1 X87.832 Y95.068 E5.18877
G1 X88.233 Y94.646 E5.20814
G1 X91.727 Y91.149 E5.37255
G10
;MESH:Chassis (X2).stl(1)
G0 F9000 X98.469 Y97.891
G0 X99.236 Y98.658
G0 X99.173 Y100.675
;TYPE:WALL-INNER
G11
G1 F3000 X97.1 Y102.747 E5.47004
G1 X97.1 Y117.253 E5.95251
G1 X99.173 Y119.325 E6.04999
G1 F2864 X99.401 Y119.526 E6.06058
G1 F2173.9 X99.721 Y119.685 E6.07698
G1 X99.656 Y119.347 E6.09278
G1 F2864 X99.545 Y119.064 E6.10337
G1 F3000 X99.381 Y118.455 E6.12435
G1 X99.355 Y118.157 E6.1343
G1 X99.355 Y117.844 E6.14471
G1 X99.381 Y117.545 E6.15469
G1 X99.466 Y117.133 E6.16868
G1 X99.544 Y116.936 E6.17573
G1 X99.674 Y116.661 E6.18585
G1 X99.83 Y116.392 E6.19619
G1 X100.004 Y116.144 E6.20627
G1 X100.206 Y115.902 E6.21675
G1 X100.43 Y115.713 E6.2265
G1 X100.816 Y115.45 E6.24203
G1 X101.236 Y115.245 E6.25758
G1 X101.518 Y115.14 E6.26759
G1 X101.844 Y115.081 E6.27861
G1 X102.3 Y115.049 E6.29381
G1 X102.755 Y115.081 E6.30898
G1 X103.082 Y115.14 E6.32003
G1 X103.364 Y115.245 E6.33004
G1 X103.784 Y115.45 E6.34558
G1 X104.17 Y115.713 E6.36112
G1 X104.394 Y115.902 E6.37087
G1 X104.596 Y116.144 E6.38135
G1 X104.77 Y116.392 E6.39143
G1 X104.926 Y116.661 E6.40177
G1 X105.056 Y116.936 E6.41189
G1 X105.134 Y117.133 E6.41894
G1 X105.219 Y117.545 E6.43293
G1 X105.245 Y117.844 E6.44291
G1 X105.245 Y118.157 E6.45332
G1 X105.218 Y118.455 E6.46327
G1 X105.055 Y119.064 E6.48424
G1 F2864 X104.944 Y119.347 E6.49483
G1 F2173.9 X104.879 Y119.685 E6.51063
G1 X105.199 Y119.526 E6.52703
G1 F2864 X105.427 Y119.325 E6.53762
G1 F3000 X107.5 Y117.253 E6.6351
G1 X107.5 Y102.747 E7.11758
G1 X105.427 Y100.675 E7.21506
G1 F2864 X105.199 Y100.474 E7.22565
G1 F2173.9 X104.879 Y100.315 E7.24205
G1 X104.944 Y100.653 E7.25785
G1 F2864 X105.055 Y100.936 E7.26844
G1 F3000 X105.218 Y101.545 E7.28941
G1 X105.245 Y101.843 E7.29936
G1 X105.245 Y102.156 E7.30977
G1 X105.219 Y102.455 E7.31975
G1 X105.134 Y102.867 E7.33374
G1 X105.056 Y103.064 E7.34079
G1 X104.926 Y103.339 E7.35091
G1 X104.77 Y103.608 E7.36125
G1 X104.596 Y103.856 E7.37133
G1 X104.394 Y104.097 E7.38179
G1 X104.17 Y104.287 E7.39156
G1 X103.784 Y104.55 E7.40709
G1 X103.364 Y104.755 E7.42264
G1 X103.082 Y104.86 E7.43264
G1 X102.755 Y104.919 E7.4437
G1 X102.3 Y104.951 E7.45887
G1 X101.844 Y104.919 E7.47407
G1 X101.518 Y104.86 E7.48509
G1 X101.236 Y104.755 E7.4951
G1 X100.816 Y104.55 E7.51064
G1 X100.43 Y104.287 E7.52618
G1 X100.206 Y104.097 E7.53595
G1 X100.004 Y103.856 E7.54641
G1 X99.83 Y103.608 E7.55648
G1 X99.674 Y103.339 E7.56682
G1 X99.545 Y103.064 E7.57693
G1 X99.466 Y102.867 E7.58399
G1 X99.381 Y102.455 E7.59798
G1 X99.355 Y102.156 E7.60796
G1 X99.355 Y101.843 E7.61837
G1 X99.381 Y101.545 E7.62832
G1 X99.545 Y100.936 E7.6493
G1 F2864 X99.656 Y100.653 E7.65989
G1 F2173.9 X99.721 Y100.315 E7.67569
G1 X99.401 Y100.474 E7.69209
G1 F2864 X99.173 Y100.675 E7.70268
G0 F9000 X100.157 Y103.379
G1 F3000 X100.036 Y103.169 E7.71074
G1 X99.855 Y102.782 E7.72495
G1 X99.779 Y102.421 E7.73722
G1 X99.754 Y102.122 E7.7472
G1 X99.753 Y101.878 E7.75531
G1 X99.78 Y101.579 E7.7653
G1 X99.907 Y101.106 E7.78159
G1 X100.037 Y100.831 E7.7917
G1 X100.157 Y100.621 E7.79975
G1 X100.408 Y100.263 E7.81429
G1 X100.673 Y100.031 E7.82601
G1 X100.921 Y99.857 E7.83608
G1 X101.13 Y99.736 E7.84411
G1 F2672.6 X101.751 Y99.447 E7.86969
G1 X101.36 Y99.401 E7.88439
G1 F3000 X99.882 Y99.401 E7.93354
G1 X96.7 Y102.582 E8.08319
G1 X96.7 Y117.418 E8.57664
G1 X99.882 Y120.599 E8.72629
G1 X101.36 Y120.599 E8.77545
G1 F2727.3 X101.876 Y120.56 E8.79438
G1 X101.405 Y120.394 E8.81265
G1 F3000 X101.13 Y120.264 E8.82277
G1 X100.921 Y120.143 E8.8308
G1 X100.673 Y119.969 E8.84087
G1 X100.408 Y119.737 E8.85259
G1 X100.157 Y119.379 E8.86713
G1 X100.037 Y119.169 E8.87518
G1 X99.907 Y118.894 E8.88529
G1 X99.78 Y118.421 E8.90158
G1 X99.753 Y118.122 E8.91157
G1 X99.754 Y117.878 E8.91968
G1 X99.779 Y117.579 E8.92966
G1 X99.855 Y117.218 E8.94193
G1 X100.036 Y116.831 E8.95614
G1 X100.157 Y116.621 E8.9642
G1 X100.331 Y116.373 E8.97428
G1 X100.489 Y116.186 E8.98242
G1 X100.663 Y116.038 E8.99002
G1 X101.018 Y115.795 E9.00433
G1 X101.406 Y115.607 E9.01867
G1 X101.626 Y115.525 E9.02648
G1 X101.879 Y115.479 E9.03503
G1 X102.3 Y115.449 E9.04907
G1 X102.721 Y115.479 E9.06311
G1 X102.975 Y115.526 E9.0717
G1 X103.194 Y115.607 E9.07946
G1 X103.582 Y115.795 E9.0938
G1 X103.937 Y116.038 E9.10811
G1 X104.111 Y116.186 E9.11571
G1 X104.269 Y116.373 E9.12385
G1 X104.443 Y116.621 E9.13393
G1 X104.564 Y116.831 E9.14199
G1 X104.746 Y117.218 E9.15621
G1 X104.82 Y117.579 E9.16847
G1 X104.846 Y117.878 E9.17845
G1 X104.847 Y118.122 E9.18657
G1 X104.82 Y118.421 E9.19655
G1 X104.693 Y118.894 E9.21284
G1 X104.563 Y119.169 E9.22296
G1 X104.443 Y119.379 E9.231
G1 X104.193 Y119.735 E9.24547
G1 X103.927 Y119.969 E9.25726
G1 X103.679 Y120.143 E9.26733
G1 X103.47 Y120.264 E9.27536
G1 F2672.6 X102.849 Y120.553 E9.30094
G1 X103.24 Y120.599 E9.31564
G1 F3000 X104.718 Y120.6 E9.36479
G1 X107.9 Y117.418 E9.51447
G1 X107.9 Y102.582 E10.00791
G1 X104.718 Y99.4 E10.15758
G1 X103.24 Y99.401 E10.20674
G1 F2727.3 X102.724 Y99.44 E10.22568
G1 X103.195 Y99.606 E10.24395
G1 F3000 X103.47 Y99.736 E10.25406
G1 X103.679 Y99.857 E10.2621
G1 X103.927 Y100.031 E10.27217
G1 X104.193 Y100.265 E10.28395
G1 X104.443 Y100.621 E10.29842
G1 X104.563 Y100.831 E10.30647
G1 X104.693 Y101.106 E10.31659
G1 X104.82 Y101.579 E10.33287
G1 X104.847 Y101.878 E10.34286
G1 X104.846 Y102.122 E10.35098
G1 X104.82 Y102.421 E10.36096
G1 X104.746 Y102.782 E10.37321
G1 X104.564 Y103.169 E10.38744
G1 X104.443 Y103.379 E10.3955
G1 X104.269 Y103.627 E10.40558
G1 X104.111 Y103.814 E10.41372
G1 X103.937 Y103.962 E10.42132
G1 X103.582 Y104.205 E10.43562
G1 X103.194 Y104.393 E10.44996
G1 X102.975 Y104.474 E10.45773
G1 X102.721 Y104.521 E10.46632
G1 X102.3 Y104.551 E10.48036
G1 X101.879 Y104.521 E10.4944
G1 X101.626 Y104.475 E10.50295
G1 X101.406 Y104.393 E10.51076
G1 X101.018 Y104.205 E10.5251
G1 X100.663 Y103.962 E10.53941
G1 X100.489 Y103.814 E10.54701
G1 X100.331 Y103.627 E10.55515
G1 X100.157 Y103.379 E10.56522
G0 F9000 X101.78 Y103.948
G0 X102.3 Y103.993
G0 X102.721 Y103.957
G0 X108.3 Y102.416
G1 F3000 X104.884 Y99 E10.7259
G1 X99.716 Y99.001 E10.89779
G1 X96.3 Y102.416 E11.05845
G1 X96.3 Y117.584 E11.56294
G1 X99.716 Y120.999 E11.72359
G1 X104.884 Y121 E11.89548
G1 X108.3 Y117.584 E12.05616
G1 X108.3 Y102.416 E12.56065
G0 F9000 X108.408 Y117.63
G0 X108.7 Y117.75
G1 F3000 X108.7 Y102.25 E13.07618
G1 X105.05 Y98.6 E13.24786
G1 X99.55 Y98.601 E13.43079
G1 X95.9 Y102.25 E13.60246
G1 X95.9 Y117.75 E14.11799
G1 X99.55 Y121.399 E14.28965
G1 X105.05 Y121.4 E14.47258
G1 X108.7 Y117.75 E14.64426
G0 F9000 X108.408 Y117.63
G0 X104.879 Y119.685
G1 F1913.9 X104.514 Y120.106 E14.67331
G0 F9000 X103.697 Y119.641
G1 F3000 X103.375 Y119.867 E14.6864
G1 X103.025 Y120.031 E14.69925
G1 X102.772 Y120.111 E14.70808
G1 X102.3 Y120.151 E14.72383
G1 X101.914 Y120.122 E14.73671
G1 X101.575 Y120.031 E14.74838
G1 X101.225 Y119.867 E14.76124
G1 X100.903 Y119.641 E14.77432
G1 X100.742 Y119.501 E14.78142
G1 X100.438 Y119.085 E14.79856
G1 X100.269 Y118.724 E14.81181
G1 X100.178 Y118.386 E14.82346
G1 X100.144 Y118 E14.83634
G1 X100.178 Y117.614 E14.84923
G1 X100.225 Y117.385 E14.85701
G1 X100.431 Y116.928 E14.87368
G1 X100.728 Y116.505 E14.89087
G1 X100.903 Y116.359 E14.89845
G1 X101.22 Y116.14 E14.91127
G1 X101.674 Y115.922 E14.92802
G1 X101.913 Y115.878 E14.9361
G1 X102.3 Y115.849 E14.94901
G1 X102.686 Y115.878 E14.96188
G1 X102.926 Y115.921 E14.96999
G1 X103.38 Y116.141 E14.98677
G1 X103.704 Y116.364 E14.99985
G1 X103.873 Y116.506 E15.00719
G1 X104.169 Y116.928 E15.02434
G1 X104.375 Y117.385 E15.04101
G1 X104.422 Y117.614 E15.04879
G1 X104.456 Y118.002 E15.06174
G1 X104.421 Y118.386 E15.07457
G1 X104.331 Y118.724 E15.0862
G1 X104.166 Y119.076 E15.09913
G1 X103.891 Y119.47 E15.11511
G1 X103.697 Y119.641 E15.12371
G0 F9000 X104.248 Y118.52
G0 X104.293 Y118
G0 X104.248 Y117.48
G0 X103.826 Y116.72
G0 X103.298 Y116.275
G0 X102.82 Y116.052
G0 X102.3 Y116.007
G0 X101.879 Y116.043
G0 X101.249 Y116.239
G0 X101.422 Y116.486
G1 F3000 X101.842 Y116.285 E15.1392
G1 X102.3 Y116.249 E15.15448
G1 X102.759 Y116.286 E15.16979
G1 X103.178 Y116.486 E15.18524
G1 X103.553 Y116.745 E15.2004
G1 X103.819 Y117.126 E15.21585
G1 X104.015 Y117.554 E15.23151
G1 X104.054 Y118.001 E15.24643
G1 X104.023 Y118.351 E15.25812
G1 X103.969 Y118.554 E15.2651
G1 X103.788 Y118.919 E15.27865
G1 X103.537 Y119.265 E15.29287
G1 X103.175 Y119.519 E15.30758
G1 X102.763 Y119.712 E15.32271
G1 X102.3 Y119.751 E15.33817
G1 X101.948 Y119.723 E15.34991
G1 X101.745 Y119.669 E15.3569
G1 X101.425 Y119.519 E15.36865
G1 X101.061 Y119.263 E15.38345
G1 X100.812 Y118.919 E15.39758
G1 X100.631 Y118.554 E15.41113
G1 X100.577 Y118.351 E15.41811
G1 X100.546 Y118.001 E15.4298
G1 X100.585 Y117.554 E15.44473
G1 X100.781 Y117.126 E15.46038
G1 X101.048 Y116.745 E15.47586
G1 X101.422 Y116.486 E15.49099
G0 F9000 X101.249 Y116.239
G0 X100.575 Y117.002
G0 X100.448 Y117.273
G0 X99.721 Y119.685
G1 F1916.9 X100.086 Y120.106 E15.51999
G0 F9000 X101.876 Y120.56
G1 F2580.6 X102.3 Y120.576 E15.5364
G1 F2531.6 X102.849 Y120.553 E15.55805
G0 F9000 X104.025 Y118.998
G0 X104.248 Y118.52
G0 X104.284 Y118.099
G0 X103.784 Y112.55
G1 F3000 X103.364 Y112.755 E15.5736
G1 X103.082 Y112.86 E15.58361
G1 X102.755 Y112.919 E15.59466
G1 X102.3 Y112.951 E15.60983
G1 X101.844 Y112.919 E15.62503
G1 X101.518 Y112.86 E15.63605
G1 X101.236 Y112.755 E15.64606
G1 X100.816 Y112.55 E15.6616
G1 X100.43 Y112.287 E15.67714
G1 X100.206 Y112.097 E15.68691
G1 X100.004 Y111.856 E15.69737
G1 X99.83 Y111.608 E15.70744
G1 X99.674 Y111.339 E15.71779
G1 X99.545 Y111.064 E15.72789
G1 X99.401 Y110.61 E15.74373
G1 X99.345 Y110.058 E15.76218
G1 X99.381 Y109.545 E15.77929
G1 X99.544 Y108.936 E15.80026
G1 X99.674 Y108.661 E15.81037
G1 X99.83 Y108.392 E15.82072
G1 X100.004 Y108.144 E15.83079
G1 X100.206 Y107.902 E15.84128
G1 X100.43 Y107.713 E15.85103
G1 X100.816 Y107.45 E15.86656
G1 X101.236 Y107.245 E15.88211
G1 X101.518 Y107.14 E15.89211
G1 X101.844 Y107.081 E15.90313
G1 X102.3 Y107.049 E15.91834
G1 X102.755 Y107.081 E15.93351
G1 X103.082 Y107.14 E15.94456
G1 X103.364 Y107.245 E15.95457
G1 X103.784 Y107.45 E15.97011
G1 X104.17 Y107.713 E15.98565
G1 X104.394 Y107.902 E15.99539
G1 X104.596 Y108.144 E16.00588
G1 X104.77 Y108.392 E16.01596
G1 X104.926 Y108.661 E16.0263
G1 X105.056 Y108.936 E16.03642
G1 X105.219 Y109.545 E16.05738
G1 X105.252 Y110 E16.07256
G1 X105.21 Y110.574 E16.0917
G1 X105.056 Y111.064 E16.10878
G1 X104.926 Y111.339 E16.1189
G1 X104.77 Y111.608 E16.12924
G1 X104.596 Y111.856 E16.13932
G1 X104.394 Y112.097 E16.14978
G1 X104.17 Y112.287 E16.15955
G1 X103.784 Y112.55 E16.17508
G0 F9000 X104.269 Y111.627
G1 F3000 X104.111 Y111.814 E16.18322
G1 X103.937 Y111.962 E16.19082
G1 X103.582 Y112.205 E16.20513
G1 X103.194 Y112.393 E16.21947
G1 X102.975 Y112.474 E16.22724
G1 X102.721 Y112.521 E16.23583
G1 X102.3 Y112.551 E16.24987
G1 X101.879 Y112.521 E16.2639
G1 X101.626 Y112.475 E16.27246
G1 X101.406 Y112.393 E16.28027
G1 X101.018 Y112.205 E16.29461
G1 X100.663 Y111.962 E16.30891
G1 X100.489 Y111.814 E16.31651
G1 X100.331 Y111.627 E16.32465
G1 X100.157 Y111.379 E16.33473
G1 X100.036 Y111.169 E16.34279
G1 X99.907 Y110.894 E16.35289
G1 X99.795 Y110.541 E16.36521
G1 X99.749 Y110 E16.38327
G1 X99.78 Y109.579 E16.39731
G1 X99.907 Y109.106 E16.4136
G1 X100.036 Y108.831 E16.4237
G1 X100.157 Y108.621 E16.43176
G1 X100.331 Y108.373 E16.44184
G1 X100.489 Y108.186 E16.44998
G1 X100.663 Y108.038 E16.45758
G1 X101.018 Y107.795 E16.47189
G1 X101.406 Y107.607 E16.48623
G1 X101.626 Y107.525 E16.49404
G1 X101.879 Y107.479 E16.50259
G1 X102.3 Y107.449 E16.51663
G1 X102.721 Y107.479 E16.53067
G1 X102.975 Y107.526 E16.53926
G1 X103.194 Y107.607 E16.54703
G1 X103.582 Y107.795 E16.56137
G1 X103.937 Y108.038 E16.57567
G1 X104.111 Y108.186 E16.58327
G1 X104.269 Y108.373 E16.59141
G1 X104.443 Y108.621 E16.60149
G1 X104.564 Y108.831 E16.60955
G1 X104.693 Y109.106 E16.61965
G1 X104.82 Y109.579 E16.63594
G1 X104.852 Y110 E16.64999
G1 X104.805 Y110.541 E16.66805
G1 X104.693 Y110.894 E16.68037
