;FLAVOR:Marlin
;TIME:2233
;Filament used: 0.797048m
;Layer height: 0.2
;MINX:30.2
;MINY:73.5
;MINZ:0.2
;MAXX:189.8
;MAXY:146.5
;MAXZ:5.6
;TARGET_MACHINE.NAME:Creality Ender-3 S1
;POSTPROCESSED
;  [CreateThumbnail]
;  [CreateThumbnail]
;  [KlipperPreprocessor]
;Generated with Cura_SteamEngine 5.6.0
;
;

;
;

M82 ;absolute extrusion mode
;Nozzle diameter = 0.4
;Filament type = PLA
;Filament name = PLA
;Filament weight = [2.3772354541015623]
; M190 S50
; M109 S200
M140 S0
M104 S0
START_PRINT EXTRUDER_TEMP=200 BED_TEMP=50
G92 E0
G92 E0
G10
;LAYER_COUNT:28
;LAYER:0
M107
G0 F9000 X36.382 Y89.638 Z0.2
;TYPE:SKIRT
G11
G1 F3000 X37.227 Y89.318 E0.03005
G1 X38.096 Y89.075 E0.06006
G1 X38.984 Y88.909 E0.09011
G1 X40.123 Y88.813 E0.12813
G1 X40.73 Y88.8 E0.14832
G1 X42.75 Y88.8 E0.21551
G1 X45.356 Y88.763 E0.30219
G1 X47.921 Y88.654 E0.38758
G1 X50.428 Y88.476 E0.47117
G1 X52.969 Y88.225 E0.5561
G1 X55.477 Y87.904 E0.6402
G1 X57.982 Y87.51 E0.72454
G1 X60.469 Y87.048 E0.80867
G1 X62.983 Y86.507 E0.8942
G1 X65.429 Y85.908 E0.97796
G1 X67.873 Y85.235 E1.06227
G1 X70.308 Y84.49 E1.14697
G1 X72.71 Y83.679 E1.23129
G1 X75.123 Y82.789 E1.31683
G1 X77.43 Y81.863 E1.39951
G1 X79.801 Y80.831 E1.48552
G1 X82.107 Y79.75 E1.57022
G1 X84.355 Y78.618 E1.65394
G1 X85.152 Y78.187 E1.68407
G1 X86.133 Y77.673 E1.72091
G1 X86.951 Y77.29 E1.75095
G1 X87.799 Y76.981 E1.78097
G1 X88.672 Y76.748 E1.81102
G1 X89.701 Y76.576 E1.84572
G1 X90.336 Y76.503 E1.86698
G1 X92.957 Y76.166 E1.95487
G1 X95.444 Y75.773 E2.03862
G1 X97.932 Y75.308 E2.1228
G1 X100.395 Y74.777 E2.2066
G1 X102.967 Y74.143 E2.29471
G1 X104.117 Y73.842 E2.33425
G1 X105 Y73.653 E2.36428
G1 X105.897 Y73.542 E2.39434
G1 X106.391 Y73.515 E2.4108
G1 X107.03 Y73.5 E2.43206
G1 X112.593 Y73.5 E2.61708
G1 X113.44 Y73.511 E2.64526
G1 X114.342 Y73.564 E2.67531
G1 X115.235 Y73.696 E2.70533
G1 X115.858 Y73.837 E2.72658
G1 X118.367 Y74.488 E2.81279
G1 X120.854 Y75.061 E2.89768
G1 X123.338 Y75.559 E2.98194
G1 X125.814 Y75.983 E3.06549
G1 X128.355 Y76.345 E3.15086
G1 X129.779 Y76.508 E3.19853
G1 X130.507 Y76.606 E3.22296
G1 X131.396 Y76.766 E3.253
G1 X132.267 Y77.004 E3.28304
G1 X133.114 Y77.318 E3.31308
G1 X133.989 Y77.738 E3.34536
G1 X136.762 Y79.193 E3.44952
G1 X139.028 Y80.295 E3.53332
G1 X141.378 Y81.357 E3.6191
G1 X143.736 Y82.342 E3.70409
G1 X146.052 Y83.234 E3.78664
G1 X148.473 Y84.089 E3.87203
G1 X150.895 Y84.868 E3.95666
G1 X153.315 Y85.572 E4.04048
G1 X155.796 Y86.217 E4.12574
G1 X158.279 Y86.789 E4.21049
G1 X160.763 Y87.287 E4.29475
G1 X163.239 Y87.711 E4.3783
G1 X165.752 Y88.069 E4.46273
G1 X168.316 Y88.361 E4.54856
G1 X170.804 Y88.573 E4.63161
G1 X173.366 Y88.718 E4.71696
G1 X175.913 Y88.79 E4.80171
G1 X179.054 Y88.801 E4.90618
G1 X179.752 Y88.812 E4.9294
G1 X180.653 Y88.866 E4.95942
G1 X181.546 Y89 E4.98945
G1 X182.424 Y89.212 E5.01949
G1 X183.28 Y89.501 E5.04954
G1 X184.106 Y89.865 E5.07957
G1 X184.898 Y90.3 E5.10962
G1 X185.647 Y90.804 E5.13965
G1 X186.35 Y91.372 E5.16971
G1 X186.999 Y91.999 E5.19972
G1 X187.59 Y92.682 E5.22976
G1 X188.119 Y93.414 E5.2598
G1 X188.58 Y94.191 E5.28985
G1 X188.971 Y95.005 E5.31988
G1 X189.289 Y95.85 E5.34991
G1 X189.53 Y96.72 E5.37994
G1 X189.694 Y97.608 E5.40997
G1 X189.787 Y98.723 E5.44719
G1 X189.8 Y99.33 E5.46738
G1 X189.799 Y120.34 E6.16618
G1 X189.79 Y121.067 E6.19036
G1 X189.739 Y121.969 E6.22041
G1 X189.608 Y122.863 E6.25046
G1 X189.399 Y123.741 E6.28048
G1 X189.113 Y124.598 E6.31053
G1 X188.752 Y125.426 E6.34057
G1 X188.32 Y126.218 E6.37058
G1 X187.819 Y126.97 E6.40063
G1 X187.253 Y127.674 E6.43067
G1 X186.628 Y128.325 E6.46069
G1 X185.947 Y128.919 E6.49075
G1 X185.216 Y129.45 E6.5208
G1 X184.442 Y129.914 E6.55081
G1 X183.629 Y130.308 E6.58086
G1 X182.785 Y130.628 E6.61088
G1 X181.915 Y130.873 E6.64094
G1 X181.028 Y131.039 E6.67096
G1 X180.029 Y131.132 E6.70433
G1 X177.257 Y131.251 E6.79661
G1 X174.744 Y131.431 E6.88041
G1 X172.2 Y131.687 E6.96545
G1 X169.694 Y132.01 E7.04949
G1 X167.184 Y132.407 E7.13401
G1 X164.704 Y132.87 E7.21792
G1 X162.227 Y133.405 E7.3022
G1 X159.74 Y134.018 E7.3874
G1 X157.27 Y134.701 E7.47263
G1 X154.874 Y135.436 E7.55599
G1 X152.469 Y136.251 E7.64045
G1 X150.055 Y137.144 E7.72605
G1 X147.723 Y138.084 E7.80968
G1 X145.41 Y139.092 E7.8936
G1 X143.083 Y140.185 E7.97911
G1 X140.806 Y141.336 E8.06397
G1 X138.594 Y142.532 E8.1476
G1 X136.416 Y143.792 E8.23129
G1 X134.476 Y144.983 E8.30701
G1 X133.686 Y145.42 E8.33704
G1 X132.86 Y145.787 E8.3671
G1 X132.006 Y146.079 E8.39712
G1 X131.129 Y146.294 E8.42715
G1 X130.236 Y146.431 E8.4572
G1 X129.449 Y146.485 E8.48344
G1 X128.81 Y146.5 E8.50469
G1 X91.408 Y146.499 E9.74869
G1 X90.703 Y146.488 E9.77214
G1 X89.801 Y146.434 E9.8022
G1 X88.908 Y146.3 E9.83223
G1 X88.03 Y146.088 E9.86227
G1 X87.175 Y145.799 E9.89229
G1 X86.348 Y145.436 E9.92233
G1 X85.523 Y144.98 E9.95368
G1 X84.695 Y144.471 E9.98601
G1 X82.423 Y143.119 E10.07394
G1 X80.195 Y141.875 E10.15881
G1 X77.944 Y140.701 E10.24325
G1 X75.695 Y139.608 E10.32642
G1 X73.342 Y138.546 E10.41228
G1 X71.019 Y137.575 E10.49603
G1 X68.61 Y136.648 E10.58188
G1 X66.282 Y135.827 E10.66398
G1 X63.814 Y135.034 E10.7502
G1 X61.398 Y134.331 E10.83389
G1 X58.913 Y133.685 E10.91929
G1 X56.455 Y133.12 E11.00317
G1 X53.962 Y132.62 E11.08774
G1 X51.444 Y132.19 E11.1727
G1 X48.974 Y131.839 E11.25568
G1 X46.439 Y131.551 E11.34054
G1 X43.892 Y131.335 E11.42556
G1 X41.297 Y131.187 E11.51201
G1 X39.975 Y131.131 E11.55602
G1 X39.075 Y131.052 E11.58606
G1 X38.186 Y130.895 E11.61609
G1 X37.314 Y130.659 E11.64614
G1 X36.467 Y130.347 E11.67616
G1 X35.65 Y129.962 E11.7062
G1 X34.871 Y129.505 E11.73624
G1 X34.135 Y128.982 E11.76627
G1 X33.448 Y128.396 E11.7963
G1 X32.816 Y127.751 E11.82634
G1 X32.243 Y127.052 E11.8564
G1 X31.735 Y126.306 E11.88642
G1 X31.294 Y125.518 E11.91645
G1 X30.925 Y124.693 E11.94651
G1 X30.63 Y123.84 E11.97653
G1 X30.412 Y122.964 E12.00655
G1 X30.272 Y122.071 E12.03662
G1 X30.213 Y121.216 E12.06512
G1 X30.2 Y120.608 E12.08535
G1 X30.201 Y99.536 E12.78621
G1 X30.21 Y98.871 E12.80833
G1 X30.262 Y97.969 E12.83838
G1 X30.394 Y97.076 E12.8684
G1 X30.604 Y96.198 E12.89843
G1 X30.891 Y95.341 E12.92849
G1 X31.253 Y94.514 E12.95851
G1 X31.686 Y93.722 E12.98854
G1 X32.188 Y92.971 E13.01858
G1 X32.755 Y92.267 E13.04865
G1 X33.381 Y91.617 E13.07866
G1 X34.062 Y91.024 E13.10869
G1 X34.794 Y90.494 E13.13875
G1 X35.569 Y90.031 E13.16878
G1 X36.382 Y89.638 E13.19881
G10
;MESH:Covered Hopper Step Boards.3mf(3)
G0 F9000 X90.195 Y90.394
G0 X91.46 Y90.86
;TYPE:WALL-OUTER
G11
G1 F2608.7 X91.52 Y90.64 E13.20753
G1 F2154.4 X93.46 Y90.64 E13.29738
G1 F2105.3 X93.46 Y91.858 E13.35511
G1 F2357.6 X92.56 Y91.859 E13.3932
G1 F2752.3 X91.66 Y91.86 E13.42583
G1 F2992.5 X91.461 Y91.695 E13.43445
G1 X91.46 Y90.86 E13.46229
G0 F9000 X91.512 Y90.668
G0 X91.512 Y90.43
G0 X100.888 Y90.408
G0 X100.888 Y88.752
G0 X91.52 Y88.73
G0 X91.52 Y88.52
G1 F2597.4 X91.461 Y88.335 E13.46975
G1 F2926.8 X91.46 Y87.301 E13.505
G1 F2941.2 X93.26 Y87.3 E13.56607
G1 F2666.7 X93.46 Y87.35 E13.57378
G1 F2193.8 X93.46 Y88.52 E13.627
G1 F2154.4 X91.52 Y88.52 E13.71685
G0 F9000 X91.461 Y88.335
G0 X91.461 Y88.329
G0 X91.461 Y88.73
G0 X93.46 Y88.75
G0 X93.46 Y88.96
G1 F2020.2 X93.46 Y90.2 E13.77809
G1 F2154.4 X91.52 Y90.2 E13.86795
G1 F2597.4 X91.461 Y90.015 E13.8754
G1 F2992.5 X91.46 Y89.18 E13.90325
G1 F2608.7 X91.52 Y88.96 E13.91197
G1 F2154.4 X93.46 Y88.96 E14.00182
G0 F9000 X93.46 Y89.16
G0 X93.46 Y88.75
G0 X95.86 Y88.75
G0 X95.86 Y88.96
G1 F2020.2 X95.86 Y90.2 E14.06306
G1 X93.86 Y90.2 E14.16185
G1 X93.86 Y88.96 E14.22309
G1 X95.86 Y88.96 E14.32187
G0 F9000 X95.86 Y89.16
G0 X95.86 Y88.75
G0 X95.86 Y87.35
G1 F2193.8 X95.86 Y88.52 E14.37509
G1 F2020.2 X93.86 Y88.52 E14.47387
G1 F2298.9 X93.86 Y87.301 E14.52678
G1 F2823.5 X95.66 Y87.3 E14.59039
G1 F2666.7 X95.86 Y87.35 E14.59811
G0 F9000 X95.86 Y87.55
G0 X96.26 Y87.301
G1 F2823.5 X98.06 Y87.3 E14.66172
G1 F2666.7 X98.26 Y87.35 E14.66943
G1 F2193.8 X98.26 Y88.52 E14.72265
G1 F2020.2 X96.26 Y88.52 E14.82143
G1 F2298.9 X96.26 Y87.301 E14.87434
G0 F9000 X96.46 Y87.301
G10
G0 X96.46 Y88.72
G0 X95.86 Y90.64
G11
G1 F2020.2 X95.86 Y91.88 E14.93558
G1 X93.86 Y91.88 E15.03437
G1 X93.86 Y90.64 E15.09561
G1 X95.86 Y90.64 E15.19439
G0 F9000 X95.86 Y90.84
G0 X95.86 Y90.43
G0 X100.888 Y90.432
G0 X100.888 Y92.088
G0 X96.244 Y92.098
G0 X96.26 Y91.88
G1 F2020.2 X96.26 Y90.64 E15.25564
G1 X98.26 Y90.64 E15.35442
G1 F2201.8 X98.26 Y91.185 E15.37912
G1 F2678.6 X98.26 Y91.73 E15.39942
G1 F2649 X98.121 Y91.88 E15.40712
G1 F2181.8 X96.26 Y91.88 E15.49223
G0 F9000 X96.26 Y91.68
G0 X96.26 Y92.16
G0 X96.26 Y93.72
G0 X96.26 Y94
G1 F2162.2 X97.16 Y94 E15.53377
G1 F2510.5 X98.06 Y94 E15.56954
G1 F2857.1 X98.254 Y94.137 E15.57783
G1 F3000 X98.26 Y95.081 E15.60923
G1 F2649 X98.123 Y95.24 E15.61714
G1 F2181.8 X96.26 Y95.24 E15.70234
G1 F2020.2 X96.26 Y94 E15.76358
G0 F9000 X96.46 Y94
G0 X96.46 Y93.72
G0 X98.06 Y93.84
G0 X98.06 Y93.56
G1 F2510.5 X97.16 Y93.56 E15.79935
G1 F2162.2 X96.26 Y93.56 E15.84089
G1 F2020.2 X96.26 Y92.32 E15.90213
G1 F2181.8 X98.123 Y92.32 E15.98733
G1 F2649 X98.26 Y92.479 E15.99524
G1 F3000 X98.258 Y93.42 E16.02653
G1 F2857.1 X98.06 Y93.56 E16.035
G0 F9000 X97.86 Y93.56
G0 X97.86 Y93.84
G0 X99.488 Y93.768
G0 X100.888 Y92.088
G0 X100.888 Y90.432
G0 X98.26 Y90.41
G0 X98.26 Y90.2
G1 F2020.2 X96.26 Y90.2 E16.13379
G1 X96.26 Y88.96 E16.19503
G1 X98.26 Y88.96 E16.29381
G1 X98.26 Y90.2 E16.35506
G0 F9000 X98.06 Y90.2
G0 X98.66 Y90.2
G1 F2020.2 X98.66 Y88.96 E16.4163
G1 F2061.9 X100.641 Y88.96 E16.51217
G1 F2316.6 X100.693 Y89.18 E16.52191
G1 F2439 X100.692 Y90.2 E16.56364
G1 F2158.3 X98.66 Y90.2 E16.65758
G0 F9000 X98.66 Y90
G0 X98.66 Y90.41
G0 X100.641 Y90.43
G0 X100.641 Y90.64
G1 F2316.6 X100.693 Y90.86 E16.66732
G1 F2569.6 X100.692 Y91.701 E16.69997
G1 F2765 X100.46 Y91.86 E16.71012
G1 F3000 X98.815 Y91.86 E16.76484
G1 X98.66 Y91.737 E16.77142
G1 F2678.6 X98.66 Y91.188 E16.79187
G1 F2201.8 X98.66 Y90.639 E16.81675
G1 F2061.9 X100.641 Y90.64 E16.91261
G0 F9000 X100.687 Y90.834
G0 X100.96 Y90.834
G0 X100.96 Y88.52
G0 X100.692 Y88.52
G1 F2135.2 X98.66 Y88.52 E17.00757
G1 F2298.9 X98.66 Y87.301 E17.06048
G1 F2823.5 X100.46 Y87.3 E17.12409
G1 F2696.6 X100.693 Y87.361 E17.133
G1 F2352.9 X100.692 Y88.52 E17.18215
G0 F9000 X100.492 Y88.52
G0 X100.492 Y88.73
G0 X100.888 Y88.752
G0 X100.892 Y96.781
G0 X101.158 Y96.781
G1 F2569.6 X101.159 Y95.9 E17.21636
G1 F2771.4 X101.192 Y94.968 E17.24994
G1 F3000 X101.192 Y92.592 E17.32897
G1 F2765 X101.158 Y91.741 E17.3597
G1 F2569.6 X101.159 Y90.86 E17.39391
G1 F2316.6 X101.107 Y90.42 E17.41299
G1 F2312.1 X101.158 Y90.061 E17.42864
G1 F2569.6 X101.159 Y89.18 E17.46285
G1 F2316.6 X101.107 Y88.74 E17.48194
G1 F2312.1 X101.158 Y88.381 E17.49758
G1 F2569.6 X101.159 Y87.5 E17.5318
G1 F2459 X101.137 Y87.211 E17.54356
G1 F2348.3 X101.137 Y86.955 E17.55443
G1 X100.881 Y86.955 E17.56531
G1 F2637.4 X100.46 Y86.9 E17.58137
G1 F2992.5 X98.791 Y86.901 E17.63702
G1 F2660.8 X98.46 Y86.95 E17.64957
G1 F2666.7 X98.06 Y86.9 E17.66466
G1 F2992.5 X96.391 Y86.901 E17.72031
G1 F2660.8 X96.06 Y86.95 E17.73285
G1 F2666.7 X95.66 Y86.9 E17.74794
G1 F2992.5 X93.991 Y86.901 E17.80359
G1 F2660.8 X93.66 Y86.95 E17.81613
G1 F2666.7 X93.26 Y86.9 E17.83122
G1 F2992.5 X91.591 Y86.901 E17.88687
G1 F2758.6 X91.329 Y86.935 E17.89642
G1 F2564.1 X91.095 Y86.935 E17.90553
G1 X91.095 Y87.169 E17.91464
G1 F2765 X91.06 Y87.5 E17.92665
G1 F2992.5 X91.061 Y88.369 E17.95562
G1 F2597.4 X91.12 Y88.74 E17.97005
G1 F2608.7 X91.06 Y89.18 E17.98704
G1 F2992.5 X91.061 Y90.049 E18.01602
G1 F2597.4 X91.12 Y90.42 E18.03045
G1 F2608.7 X91.06 Y90.86 E18.04743
G1 F2992.5 X91.061 Y96.769 E18.24446
G1 F2758.6 X91.095 Y97.031 E18.25401
G1 F2564.1 X91.095 Y97.265 E18.26312
G1 X91.329 Y97.265 E18.27223
G1 F2765 X91.66 Y97.3 E18.28424
G1 F2992.5 X93.329 Y97.299 E18.33989
G1 F2660.8 X93.66 Y97.25 E18.35243
G1 F2666.7 X94.06 Y97.3 E18.36752
G1 F2992.5 X95.729 Y97.299 E18.42317
G1 F2660.8 X96.06 Y97.25 E18.43572
G1 F2666.7 X96.46 Y97.3 E18.4508
G1 F2992.5 X98.129 Y97.299 E18.50645
G1 F2660.8 X98.46 Y97.25 E18.519
G1 F2666.7 X98.86 Y97.3 E18.53408
G1 F2992.5 X100.529 Y97.299 E18.58973
G1 F2625.8 X100.881 Y97.245 E18.60326
G1 F2348.3 X101.137 Y97.245 E18.61414
G1 X101.137 Y96.989 E18.62502
G1 F2449 X101.158 Y96.781 E18.63354
G0 F9000 X101.158 Y96.581
G0 X100.495 Y96.899
G1 F2992.5 X98.86 Y96.9 E18.68805
G1 F2666.7 X98.66 Y96.85 E18.69577
G1 F2526.3 X98.66 Y95.822 E18.73637
G1 F2823.5 X98.814 Y95.7 E18.74331
G1 F3000 X100.46 Y95.7 E18.79806
G1 F2771.4 X100.693 Y95.9 E18.80911
G1 F2515.7 X100.692 Y96.839 E18.84636
G1 F2696.6 X100.495 Y96.899 E18.85398
G0 F9000 X100.295 Y96.899
G10
G0 X100.96 Y96.899
G0 X100.88 Y98.165
G0 X96.46 Y98.165
G0 X96.46 Y96.9
G11
G1 F2666.7 X96.26 Y96.85 E18.86169
G1 F2193.8 X96.26 Y95.68 E18.91491
G1 F2181.8 X98.121 Y95.68 E19.00001
G1 F2510.5 X98.26 Y95.829 E19.00811
G1 F2666.7 X98.26 Y96.899 E19.04815
G1 F2823.5 X96.46 Y96.9 E19.11176
G0 F9000 X96.266 Y96.852
G10
G0 X96.266 Y95.48
G0 X93.86 Y95.829
G11
G1 F2696.6 X94.041 Y95.68 E19.12044
G1 F2505.2 X94.951 Y95.68 E19.15668
G1 F2162.2 X95.861 Y95.68 E19.19867
G1 F2298.9 X95.86 Y96.899 E19.25158
G1 F2823.5 X94.06 Y96.9 E19.31519
G1 F2666.7 X93.86 Y96.85 E19.32291
G1 F2526.3 X93.86 Y95.829 E19.36323
G0 F9000 X94.014 Y95.702
G0 X93.995 Y95.24
G1 F2884.6 X93.86 Y95.081 E19.37045
G1 F3000 X93.86 Y94.142 E19.40168
G1 F2857.1 X94.041 Y94 E19.40971
G1 F2505.2 X94.951 Y94 E19.44596
G1 F2162.2 X95.861 Y94 E19.48795
G1 F2020.2 X95.86 Y95.24 E19.5492
G1 F2170 X94.927 Y95.24 E19.5921
G1 F2542.4 X93.994 Y95.24 E19.62872
G0 F9000 X93.866 Y95.088
G0 X93.866 Y95.52
G0 X93.862 Y93.84
G0 X93.862 Y93.42
G1 F2702.7 X93.86 Y92.32 E19.66933
G1 F2439 X94.86 Y92.32 E19.71024
G1 F2142.9 X95.86 Y92.32 E19.7568
G1 F2020.2 X95.86 Y93.56 E19.81805
G1 F2162.2 X94.95 Y93.56 E19.86004
G1 F2505.2 X94.04 Y93.56 E19.89629
G1 F2721.1 X94.041 Y93.56 E19.89632
G1 F2758.6 X93.862 Y93.42 E19.90454
G0 F9000 X93.862 Y93.22
G10
G0 X93.862 Y93.84
G0 X91.461 Y95.48
G0 X91.461 Y96.859
G11
G1 F2877.7 X91.46 Y95.9 E19.9378
G1 F3000 X91.66 Y95.7 E19.9472
G1 X93.305 Y95.699 E20.00192
G1 F2823.5 X93.46 Y95.822 E20.00891
G1 F2666.7 X93.46 Y96.899 E20.04921
G1 F2823.5 X91.66 Y96.9 E20.11282
G1 F2877.7 X91.461 Y96.859 E20.11986
G0 F9000 X91.461 Y96.659
G10
G0 X91.461 Y95.48
G0 X91.73 Y92.53
G0 X91.46 Y92.092
;TYPE:WALL-INNER
G11
G1 F3000 X91.46 Y95.5 E20.23321
G1 X91.66 Y95.3 E20.24262
G1 X93.394 Y95.299 E20.30029
G1 X93.639 Y95.441 E20.30971
G1 X93.462 Y95.194 E20.31982
G1 X93.46 Y94.112 E20.35581
G1 X93.536 Y93.926 E20.36249
G1 X93.762 Y93.78 E20.37144
G1 X93.536 Y93.634 E20.38039
G1 X93.46 Y93.421 E20.38791
G1 F2977.7 X93.462 Y92.331 E20.42443
G1 F2919.7 X93.546 Y92.203 E20.42967
G1 X93.438 Y92.261 E20.43386
G1 F2977.7 X91.66 Y92.26 E20.49344
G1 F3000 X91.46 Y92.092 E20.50212
G0 F9000 X91.73 Y92.53
G0 X92.632 Y93.768
G0 X99.488 Y93.792
G0 X99.488 Y95.448
G0 X98.526 Y95.434
G0 X98.724 Y95.52
G0 X98.724 Y95.3
G1 F3000 X100.46 Y95.3 E20.55986
G1 X100.792 Y95.632 E20.57548
G1 X100.792 Y91.982 E20.69688
G1 X100.46 Y92.26 E20.71128
G1 F3007.5 X98.732 Y92.26 E20.76861
G1 F3038 X98.498 Y92.134 E20.77734
G1 F3045.7 X98.658 Y92.375 E20.78682
G1 F3015.1 X98.66 Y93.445 E20.82223
G1 F3000 X98.589 Y93.625 E20.82866
G1 X98.328 Y93.78 E20.83876
G1 X98.589 Y93.935 E20.84886
G1 X98.66 Y94.115 E20.85529
G1 X98.658 Y95.194 E20.89118
G1 X98.481 Y95.441 E20.90129
G1 X98.724 Y95.3 E20.91063
G0 F9000 X98.724 Y95.52
G0 X99.488 Y95.448
G0 X100.432 Y92.62
;TYPE:SKIN
G1 F3000 X99.26 Y92.624 E20.94961
G1 X99.258 Y93.375 E20.97459
