;FLAVOR:Marlin
;TIME:153
;Filament used: 0.138096m
;Layer height: 0.2
;MINX:105.593
;MINY:98.479
;MINZ:0.24
;MAXX:117.129
;MAXY:122.298
;MAXZ:2.64
;TARGET_MACHINE.NAME:Creality Ender-3 S1
;POSTPROCESSED
;  [CreateThumbnail]
;  [CreateThumbnail]
;  [KlipperPreprocessor]
;Generated with Cura_SteamEngine 5.6.0
;
;

;
;

M82 ;absolute extrusion mode
;Nozzle diameter = 0.4
;Filament type = PLA
;Filament name = PLA
;Filament weight = [0.41187923706054685]
; M190 S50
; M109 S200
M140 S0
M104 S0
START_PRINT EXTRUDER_TEMP=200 BED_TEMP=50
G92 E0
G92 E0
G10
;LAYER_COUNT:8
;LAYER:-5
M106 S255
G0 F15000 X106.776 Y100.107 Z0.24
;TYPE:SUPPORT-INTERFACE
G11
G1 F2899.8 X107.004 Y99.881 E0.02563
G1 X107.349 Y99.59 E0.06165
G1 X107.782 Y99.296 E0.10343
G1 X108.217 Y99.073 E0.14245
G1 X108.755 Y98.869 E0.18838
G1 X109.091 Y98.789 E0.21595
G1 X109.108 Y98.802 E0.21766
G1 X109.361 Y98.748 E0.23831
G1 X109.82 Y98.703 E0.27513
G1 X110.167 Y98.705 E0.30283
G1 X110.966 Y98.735 E0.36665
G1 X111.664 Y98.673 E0.42259
G1 X112.27 Y98.543 E0.47206
G1 X112.681 Y98.479 E0.50526
G1 X114.979 Y98.479 E0.6887
G1 X115.438 Y98.51 E0.72542
G1 X115.806 Y98.638 E0.75653
G1 X116.108 Y98.817 E0.78455
G1 X116.343 Y99.042 E0.81052
G1 X116.526 Y99.307 E0.83623
G1 X116.64 Y99.572 E0.85925
G1 X116.73 Y100.059 E0.89879
G1 X116.73 Y110.696 E1.74788
G1 X116.774 Y111.361 E1.80108
G1 X116.971 Y112.254 E1.87407
G1 X117.053 Y112.526 E1.89675
G1 X117.128 Y112.948 E1.93097
G1 X117.129 Y117.717 E2.31165
G1 X117.111 Y118.054 E2.33859
G1 X117.037 Y118.599 E2.38249
G1 X116.879 Y119.13 E2.42671
G1 X116.893 Y119.146 E2.42841
G1 X116.647 Y119.677 E2.47512
G1 X116.458 Y120.018 E2.50625
G1 X116.177 Y120.409 E2.54468
G1 X115.954 Y120.669 E2.57202
G1 X115.723 Y120.9 E2.5981
G1 X115.489 Y121.103 E2.62283
G1 X115.23 Y121.299 E2.64876
G1 X114.989 Y121.46 E2.67189
G1 X114.51 Y121.705 E2.71484
G1 X114.143 Y121.842 E2.74611
G1 X113.849 Y121.935 E2.77072
G1 X113.643 Y121.987 E2.78768
G1 X113.628 Y121.975 E2.78922
G1 X113.369 Y122.029 E2.81034
G1 X112.91 Y122.074 E2.84715
G1 X112.563 Y122.073 E2.87485
G1 X111.764 Y122.042 E2.93868
G1 X111.066 Y122.104 E2.99461
G1 X110.46 Y122.234 E3.04409
G1 X110.049 Y122.298 E3.07729
G1 X107.751 Y122.298 E3.26073
G1 X107.408 Y122.275 E3.28817
G1 X107.196 Y122.242 E3.3053
G1 X106.932 Y122.142 E3.32783
G1 X106.619 Y121.958 E3.35681
G1 X106.387 Y121.735 E3.3825
G1 X106.206 Y121.474 E3.40785
G1 X106.083 Y121.187 E3.43278
G1 X106.01 Y120.773 E3.46634
G1 X106 Y120.568 E3.48272
G1 X106 Y110.081 E4.31984
G1 X105.961 Y109.46 E4.36951
G1 X105.759 Y108.523 E4.44602
G1 X105.677 Y108.251 E4.4687
G1 X105.61 Y107.874 E4.49926
G1 X105.6 Y107.671 E4.51549
G1 X105.593 Y102.885 E4.89753
G1 X105.61 Y102.871 E4.89928
G1 X105.661 Y102.385 E4.93829
G1 X105.709 Y102.138 E4.95838
G1 X105.805 Y101.776 E4.98827
G1 X105.98 Y101.316 E5.02756
G1 X106.08 Y101.106 E5.04613
G1 X106.314 Y100.695 E5.08388
G1 X106.553 Y100.369 E5.11615
G1 X106.776 Y100.107 E5.14361
G0 F15000 X107.118 Y100.33
G1 F2899.8 X116.33 Y109.542 E6.18354
G0 F15000 X116.33 Y107.279
G1 F2899.8 X108.46 Y99.409 E7.07197
G0 F15000 X110.428 Y99.115
G1 F2899.8 X116.329 Y105.015 E7.73807
G0 F15000 X116.329 Y102.753
G1 F2899.8 X112.49 Y98.913 E8.17151
G0 F15000 X114.718 Y98.878
G1 F2899.8 X116.329 Y100.49 E8.35343
G0 F15000 X106.251 Y101.725
G1 F2899.8 X116.499 Y111.973 E9.51031
G0 F15000 X116.724 Y114.461
G1 F2899.8 X105.993 Y103.73 E10.72172
G0 F15000 X105.996 Y105.996
G1 F2899.8 X116.727 Y116.727 E11.93313
G0 F15000 X116.555 Y118.818
G1 F2899.8 X106.138 Y108.401 E13.10909
G0 F15000 X106.399 Y110.924
G1 F2899.8 X115.757 Y120.283 E14.16556
G0 F15000 X114.48 Y121.268
G1 F2899.8 X106.399 Y113.187 E15.07781
G0 F15000 X106.399 Y115.45
G1 F2899.8 X112.621 Y121.672 E15.7802
G0 F15000 X110.501 Y121.815
G1 F2899.8 X106.399 Y117.712 E16.24333
G0 F15000 X106.399 Y119.975
G1 F2899.8 X108.32 Y121.897 E16.46024
M104 S200
G0 F600 X108.32 Y121.897 Z0.54
G0 F15000 X113.191 Y121.648
;TIME_ELAPSED:11.754110
;LAYER:-4
;TYPE:SUPPORT
G1 F3139.3 X113.431 Y121.613 E16.48444
G1 X113.657 Y121.567 E16.50746
G1 X114.016 Y121.463 E16.54475
G1 X114.284 Y121.361 E16.57336
G1 X114.505 Y121.259 E16.59765
G1 X114.829 Y121.077 E16.63473
G1 X115.059 Y120.926 E16.66218
G1 X115.244 Y120.785 E16.68539
G1 X115.438 Y120.617 E16.711
G1 X115.611 Y120.448 E16.73513
G1 X115.787 Y120.253 E16.76134
G1 X115.937 Y120.061 E16.78565
G1 X116.161 Y119.729 E16.82562
G1 X116.279 Y119.515 E16.85
G1 X116.45 Y119.136 E16.89149
G1 X116.577 Y118.767 E16.93043
G1 X116.674 Y118.325 E16.97558
G1 X116.709 Y118.05 E17.00324
G1 X113.103 Y121.655 E17.51201
G1 X112.886 Y121.672 E17.53373
G1 X112.565 Y121.672 E17.56576
G1 X111.726 Y121.618 E17.64965
G1 X116.729 Y116.616 E18.35556
G1 X116.729 Y115.201 E18.49675
G1 X110.038 Y121.892 E19.44092
G1 X108.621 Y121.895 E19.58231
G1 X116.729 Y113.787 E20.72644
G1 X116.729 Y112.999 E20.80506
G1 X116.632 Y112.47 E20.85873
G1 X107.239 Y121.862 E22.18411
G1 X106.894 Y121.657 E22.22415
G1 X106.709 Y121.485 E22.24936
G1 X106.493 Y121.195 E22.28544
G1 X116.369 Y111.318 E23.67912
G1 X116.328 Y110.686 E23.74231
G1 X116.328 Y109.945 E23.81625
G1 X106.4 Y119.873 E25.2172
G1 X106.4 Y118.459 E25.35829
G1 X116.328 Y108.53 E26.75931
G1 X116.328 Y107.116 E26.9004
G1 X106.4 Y117.045 E28.30141
G1 X106.4 Y115.631 E28.4425
G1 X116.328 Y105.702 E29.84352
G1 X116.328 Y104.288 E29.98461
G1 X106.4 Y114.216 E31.38556
G1 X106.4 Y112.802 E31.52665
G1 X116.328 Y102.874 E32.9276
G1 X116.328 Y101.459 E33.06879
G1 X106.4 Y111.388 E34.46981
G1 X106.4 Y109.974 E34.61089
G1 X116.321 Y100.053 E36.01086
G1 X116.252 Y99.685 E36.04821
G1 X116.154 Y99.473 E36.07152
G1 X116.016 Y99.286 E36.09471
G1 X115.838 Y99.121 E36.11893
G1 X106.216 Y108.743 E37.47669
G1 X106.14 Y108.4 E37.51175
G1 X106.073 Y108.181 E37.5346
G1 X106 Y107.776 E37.57566
G1 X106 Y107.545 E37.59871
G1 X114.666 Y98.879 E38.82158
G1 X113.249 Y98.882 E38.96297
G1 X106 Y106.131 E39.98588
G1 X106 Y104.717 E40.12697
G1 X111.64 Y99.077 E40.92283
G1 X110.85 Y99.147 E41.00197
G1 X110.197 Y99.105 E41.06726
G1 X106 Y103.303 E41.65957
G1 X106 Y103.058 E41.68402
G1 X106.017 Y102.743 E41.7155
G1 X106.053 Y102.454 E41.74456
G1 X106.1 Y102.212 E41.76915
G1 X106.165 Y101.964 E41.79473
G1 X106.275 Y101.646 E41.82831
G1 X106.445 Y101.269 E41.86957
G1 X106.613 Y100.974 E41.90345
G1 X106.837 Y100.654 E41.94242
G1 X107.028 Y100.425 E41.97218
G1 X107.344 Y100.103 E42.01719
G1 X107.693 Y99.832 E42.06128
G1 X107.956 Y99.661 E42.09258
G1 X108.215 Y99.521 E42.12196
G1 X108.494 Y99.395 E42.15251
G1 X106.302 Y101.587 E42.46182
G0 F600 X106.302 Y101.587 Z0.74
G0 F15000 X115.305 Y98.9
;TIME_ELAPSED:19.570700
;LAYER:-3
M106 S198.4
;TYPE:SUPPORT-INTERFACE
G1 F6000 X114.989 Y98.878 E42.47236
G1 X114.718 Y98.879 E42.48137
G1 X116.329 Y100.49 E42.55715
G1 X116.329 Y101.056 E42.57597
G1 X114.154 Y98.881 E42.67828
G1 X113.59 Y98.882 E42.69704
G1 X116.329 Y101.621 E42.82587
G1 X116.329 Y102.187 E42.8447
G1 X113.026 Y98.883 E43.00008
G1 X112.461 Y98.885 E43.01888
G1 X116.329 Y102.753 E43.20081
G1 X116.329 Y103.318 E43.21961
G1 X112.015 Y99.004 E43.42252
G1 X111.549 Y99.104 E43.43838
G1 X116.329 Y103.884 E43.66321
G1 X116.329 Y104.45 E43.68204
G1 X111.038 Y99.159 E43.93091
G1 X110.435 Y99.121 E43.95101
G1 X116.329 Y105.015 E44.22824
G1 X116.329 Y105.581 E44.24707
G1 X109.851 Y99.103 E44.55177
G1 X109.328 Y99.145 E44.56922
G1 X116.329 Y106.147 E44.89855
G1 X116.329 Y106.713 E44.91738
G1 X108.882 Y99.265 E45.26769
G1 X108.675 Y99.325 E45.27485
G1 X108.459 Y99.408 E45.28255
G1 X116.329 Y107.278 E45.65273
G1 X116.329 Y107.844 E45.67156
G1 X108.071 Y99.586 E46.05999
G1 X107.729 Y99.809 E46.07357
G1 X116.329 Y108.41 E46.47811
G1 X116.329 Y108.975 E46.4969
G1 X107.4 Y100.046 E46.91689
G1 X107.119 Y100.331 E46.9302
G1 X116.329 Y109.541 E47.36341
G1 X116.329 Y110.107 E47.38224
G1 X106.855 Y100.632 E47.82789
G1 X106.62 Y100.963 E47.84139
G1 X116.329 Y110.672 E48.29807
G1 X116.367 Y111.276 E48.3182
G1 X106.418 Y101.326 E48.7862
G1 X106.248 Y101.722 E48.80053
G1 X116.5 Y111.975 E49.28278
G1 X116.587 Y112.374 E49.29636
G1 X116.7 Y112.74 E49.3091
G1 X106.115 Y102.155 E49.80698
G1 X106.018 Y102.624 E49.82291
G1 X116.729 Y113.335 E50.32673
G1 X116.729 Y113.9 E50.34552
G1 X106 Y103.171 E50.85018
G1 X106 Y103.737 E50.869
G1 X116.729 Y114.466 E51.37366
G1 X116.729 Y115.032 E51.39249
G1 X106 Y104.303 E51.89715
G1 X106 Y104.868 E51.91594
G1 X116.729 Y115.597 E52.4206
G1 X116.729 Y116.163 E52.43942
G1 X106 Y105.434 E52.94408
G1 X106 Y106 E52.96291
G1 X116.729 Y116.729 E53.46757
G1 X116.729 Y117.294 E53.48636
G1 X106 Y106.565 E53.99102
G1 X106 Y107.131 E54.00984
G1 X116.734 Y117.866 E54.51476
G1 X116.666 Y118.364 E54.53148
G1 X105.983 Y107.68 E55.034
G1 X106.073 Y108.181 E55.05093
G1 X106.141 Y108.404 E55.05868
G1 X116.558 Y118.821 E55.54867
G1 X116.413 Y119.242 E55.56348
G1 X106.3 Y109.128 E56.03918
G1 X106.353 Y109.373 E56.04752
G1 X106.379 Y109.773 E56.06085
G1 X116.231 Y119.625 E56.52426
G1 X116.004 Y119.964 E56.53783
G1 X106.399 Y110.359 E56.98962
G1 X106.399 Y110.925 E57.00845
G1 X115.759 Y120.285 E57.44871
G1 X115.49 Y120.581 E57.46201
G1 X106.399 Y111.49 E57.88963
G1 X106.399 Y112.056 E57.90845
G1 X115.186 Y120.843 E58.32177
G1 X114.844 Y121.067 E58.33536
G1 X106.399 Y112.622 E58.73259
G1 X106.399 Y113.187 E58.75138
G1 X114.482 Y121.27 E59.13158
G1 X114.284 Y121.361 E59.13883
G1 X114.083 Y121.437 E59.14598
G1 X106.399 Y113.753 E59.50741
G1 X106.399 Y114.319 E59.52623
G1 X113.649 Y121.568 E59.86723
G1 X113.431 Y121.613 E59.87463
G1 X113.164 Y121.649 E59.88359
G1 X106.399 Y114.885 E60.20177
G1 X106.399 Y115.45 E60.22057
G1 X112.621 Y121.672 E60.51323
G1 X112.02 Y121.637 E60.53325
G1 X106.399 Y116.016 E60.79765
G1 X106.399 Y116.582 E60.81647
G1 X111.481 Y121.663 E61.05549
G1 X110.961 Y121.709 E61.07285
G1 X106.399 Y117.147 E61.28744
G1 X106.399 Y117.713 E61.30626
G1 X110.502 Y121.816 E61.49925
G1 X110.02 Y121.899 E61.51552
G1 X106.399 Y118.279 E61.68582
G1 X106.399 Y118.844 E61.70461
G1 X109.448 Y121.893 E61.84803
G1 X108.883 Y121.894 E61.86682
G1 X106.399 Y119.41 E61.98366
G1 X106.399 Y119.976 E62.00248
G1 X108.319 Y121.896 E62.09279
G1 X107.754 Y121.896 E62.11159
G1 X106.367 Y120.509 E62.17683
G1 X106.5 Y121.208 E62.20049
G1 X107.03 Y121.738 E62.22542
G1 X106.894 Y121.657 E62.23069
G1 X106.709 Y121.485 E62.23909
G1 X106.571 Y121.299 E62.24679
G0 F15000 X116.29 Y99.885
G1 F6000 X115.305 Y98.9 E62.29312
G1 X115.357 Y98.903 E62.29486
G1 X115.642 Y99.004 E62.30491
G1 X115.835 Y99.119 E62.31238
G1 X116.016 Y99.286 E62.32058
G1 X116.154 Y99.473 E62.32831
G1 X116.252 Y99.685 E62.33607
G1 X116.29 Y99.885 E62.34284
G0 F600 X116.29 Y99.885 Z0.94
G0 F15000 X106.589 Y101.017
;TIME_ELAPSED:36.255096
;LAYER:-2
M106 S202.6
;TYPE:SUPPORT-INTERFACE
G1 F6000 X107.925 Y99.681 E62.40569
G1 X107.693 Y99.832 E62.41489
G1 X107.344 Y100.103 E62.42959
G1 X107.028 Y100.425 E62.44459
G1 X106.837 Y100.654 E62.45451
G1 X106.613 Y100.974 E62.4675
G1 X106.445 Y101.269 E62.4788
G1 X106.275 Y101.646 E62.49255
G1 X106.15 Y102.021 E62.5057
G1 X108.935 Y99.236 E62.6367
G1 X109.298 Y99.162 E62.64902
G1 X109.615 Y99.122 E62.65964
G1 X106.02 Y102.717 E62.82874
G1 X106 Y103.058 E62.8401
G1 X106 Y103.303 E62.84825
G1 X110.197 Y99.105 E63.04569
G1 X110.729 Y99.139 E63.06342
G1 X106 Y103.869 E63.28588
G1 X106 Y104.434 E63.30467
G1 X111.329 Y99.105 E63.55533
G1 X111.697 Y99.072 E63.56762
G1 X111.99 Y99.009 E63.57759
G1 X106 Y105 E63.85936
G1 X106 Y105.566 E63.87819
G1 X112.682 Y98.883 E64.19251
G1 X113.249 Y98.882 E64.21137
G1 X106 Y106.131 E64.55234
G1 X106 Y106.697 E64.57117
G1 X113.815 Y98.881 E64.93879
G1 X114.383 Y98.88 E64.95768
G1 X106 Y107.263 E65.35199
G1 X106 Y107.828 E65.37078
G1 X114.95 Y98.878 E65.79176
G1 X115.483 Y98.911 E65.80952
G1 X106.114 Y108.28 E66.25021
G1 X106.216 Y108.743 E66.26598
G1 X115.838 Y99.121 E66.71857
G1 X116.132 Y99.393 E66.73189
G1 X106.34 Y109.185 E67.19248
G1 X106.376 Y109.715 E67.21015
G1 X116.276 Y99.815 E67.67581
G1 X116.329 Y100.095 E67.68529
G1 X116.328 Y100.328 E67.69304
G1 X106.4 Y110.257 E68.16004
G1 X106.4 Y110.822 E68.17884
G1 X116.328 Y100.894 E68.64582
G1 X116.328 Y101.459 E68.66461
G1 X106.4 Y111.388 E69.13162
G1 X106.4 Y111.954 E69.15044
G1 X116.328 Y102.025 E69.61745
G1 X116.328 Y102.591 E69.63627
G1 X106.4 Y112.519 E70.10326
G1 X106.4 Y113.085 E70.12208
G1 X116.328 Y103.156 E70.58909
G1 X116.328 Y103.722 E70.60791
G1 X106.4 Y113.651 E71.07492
G1 X106.4 Y114.216 E71.09371
G1 X116.328 Y104.288 E71.56069
G1 X116.328 Y104.854 E71.57952
G1 X106.4 Y114.782 E72.0465
G1 X106.4 Y115.348 E72.06533
G1 X116.328 Y105.419 E72.53233
G1 X116.328 Y105.985 E72.55116
G1 X106.4 Y115.913 E73.01814
G1 X106.4 Y116.479 E73.03697
G1 X116.328 Y106.551 E73.50395
G1 X116.328 Y107.116 E73.52274
G1 X106.4 Y117.045 E73.98975
G1 X106.4 Y117.61 E74.00854
G1 X116.328 Y107.682 E74.47552
G1 X116.328 Y108.248 E74.49435
G1 X106.4 Y118.176 E74.96133
G1 X106.4 Y118.742 E74.98016
G1 X116.328 Y108.813 E75.44716
G1 X116.328 Y109.379 E75.46599
G1 X106.4 Y119.308 E75.93299
G1 X106.4 Y119.873 E75.95179
G1 X116.328 Y109.945 E76.41877
G1 X116.328 Y110.51 E76.43756
G1 X106.4 Y120.439 E76.90457
G1 X106.399 Y120.679 E76.91255
G1 X106.452 Y120.953 E76.92183
G1 X116.352 Y111.053 E77.3875
G1 X116.387 Y111.583 E77.40516
G1 X106.593 Y121.377 E77.86584
G1 X106.886 Y121.65 E77.87916
G1 X116.511 Y112.025 E78.33189
G1 X116.612 Y112.49 E78.34772
G1 X107.236 Y121.865 E78.78871
G1 X107.77 Y121.897 E78.80651
G1 X116.729 Y112.938 E79.22791
G1 X116.729 Y113.504 E79.24674
G1 X108.337 Y121.896 E79.64147
G1 X108.905 Y121.894 E79.66036
G1 X116.729 Y114.07 E80.02838
G1 X116.729 Y114.636 E80.0472
G1 X109.471 Y121.893 E80.38857
G1 X110.038 Y121.892 E80.40743
G1 X116.729 Y115.201 E80.72216
G1 X116.729 Y115.767 E80.74098
G1 X110.727 Y121.768 E81.02327
G1 X111.032 Y121.703 E81.03365
G1 X111.389 Y121.672 E81.04557
G1 X116.729 Y116.333 E81.29672
G1 X116.729 Y116.898 E81.31551
G1 X111.991 Y121.636 E81.53837
G1 X112.523 Y121.67 E81.5561
G1 X116.729 Y117.464 E81.75394
G1 X116.729 Y117.717 E81.76235
G1 X116.709 Y118.05 E81.77345
G1 X113.103 Y121.655 E81.94304
G1 X113.431 Y121.613 E81.95404
G1 X113.783 Y121.541 E81.96599
G1 X116.583 Y118.741 E82.09769
G1 X116.45 Y119.136 E82.11156
G1 X116.279 Y119.515 E82.12539
G1 X116.161 Y119.729 E82.13351
G1 X115.937 Y120.061 E82.14683
G1 X115.787 Y120.253 E82.15494
G1 X115.611 Y120.448 E82.16367
G1 X115.438 Y120.617 E82.17172
G1 X115.244 Y120.785 E82.18025
G1 X115.059 Y120.926 E82.18799
G1 X114.791 Y121.099 E82.1986
G1 X116.161 Y119.729 E82.26304
G0 F600 X116.161 Y119.729 Z1.14
G0 F15000 X114.83 Y111.696
;TIME_ELAPSED:52.026899
;LAYER:-1
M106 S255
;TYPE:SUPPORT
G1 F811.5 X114.83 Y100.679 E82.81268
G1 F748 X114.779 Y100.43 E82.82644
G1 X114.53 Y100.379 E82.8402
G1 F811.5 X112.876 Y100.379 E82.92272
G0 F15000 X112.6 Y111.85
G1 F760.8 X112.618 Y111.648 E82.93351
G1 F796.9 X112.629 Y111.299 E82.95125
G1 F811.5 X112.629 Y109.081 E83.0619
G1 F971.9 X112.728 Y108.832 E83.07307
G1 F1214.3 X112.729 Y108.798 E83.0742
G0 F15000 X110.101 Y111.696
G1 F811.5 X110.101 Y109.458 E83.18586
G1 F796.9 X110.112 Y109.129 E83.20258
G1 F760.8 X110.13 Y108.927 E83.21337
G0 F15000 X109.854 Y120.398
G1 F812.9 X108.2 Y120.398 E83.29575
G1 F746.8 X107.951 Y120.347 E83.30953
G1 F744.5 X107.902 Y120.15 E83.32057
G1 F808.8 X107.9 Y109.081 E83.87465
G1 F971.9 X107.999 Y108.832 E83.88581
G1 F1214.3 X108 Y108.798 E83.88694
G0 F15000 X108.801 Y109.199
;TYPE:SUPPORT-INTERFACE
G1 F1217.3 X108.802 Y111.404 E83.96028
G1 X108.829 Y111.736 E83.97136
G1 X109.033 Y111.586 E83.97978
