;FLAVOR:Marlin
;TIME:5552
;Filament used: 1.80202m
;Layer height: 0.1
;MINX:89.732
;MINY:87.57
;MINZ:0.24
;MAXX:130.266
;MAXY:132.498
;MAXZ:13.64
;TARGET_MACHINE.NAME:Creality K1 Max
;POSTPROCESSED
;  [CreateThumbnail]
;Generated with Cura_SteamEngine 5.9.0
;
;

M82 ;absolute extrusion mode
;Nozzle diameter = 0.4
;Filament type = PLA
;Filament name = PLA
;Filament weight = [5.3746044140625]; M190 S50
; M109 S200
M140 S0
M104 S0
START_PRINT EXTRUDER_TEMP=200 BED_TEMP=50
G92 E0
G92 E0
G1 F2400 E-0.5
;LAYER_COUNT:127
;LAYER:-7
M107
G0 F15000 X92.303 Y89.838 Z0.24
;TYPE:SUPPORT-INTERFACE
G1 F2400 E0
G1 F4500 X92.083 Y90.073 E0.0257
G1 X91.902 Y90.378 E0.05401
G1 X91.612 Y91.204 E0.12389
G1 X91.191 Y92.067 E0.20054
G1 X91.066 Y92.342 E0.22465
G1 X90.918 Y92.729 E0.25772
G1 X90.86 Y93.137 E0.29062
G1 X90.86 Y96.206 E0.5356
G1 X90.942 Y96.698 E0.57541
G1 X91.077 Y96.994 E0.60138
G1 X91.241 Y97.285 E0.62805
G1 X91.555 Y97.935 E0.68567
G1 X91.772 Y98.614 E0.74257
G1 X91.896 Y99.249 E0.79422
G1 X91.936 Y99.953 E0.8505
G1 X91.894 Y100.632 E0.90481
G1 X91.762 Y101.319 E0.96065
G1 X91.551 Y101.943 E1.01323
G1 X91.26 Y102.556 E1.0674
G1 X90.87 Y103.167 E1.12526
G1 X90.459 Y103.652 E1.17601
G1 X90.063 Y104.08 E1.22255
G1 X89.884 Y104.384 E1.25071
G1 X89.793 Y104.635 E1.27202
G1 X89.747 Y104.909 E1.2942
G1 X89.732 Y105.164 E1.31459
G1 X89.732 Y115.037 E2.1027
G1 X89.824 Y115.563 E2.14532
G1 X89.947 Y115.825 E2.16843
G1 X90.14 Y116.094 E2.19485
G1 X90.286 Y116.243 E2.21151
G1 X90.923 Y116.986 E2.28963
G1 X91.289 Y117.569 E2.34458
G1 X91.57 Y118.183 E2.39848
G1 X91.776 Y118.834 E2.45298
G1 X91.895 Y119.511 E2.50785
G1 X91.928 Y120.204 E2.56323
G1 X91.881 Y120.827 E2.61311
G1 X91.746 Y121.52 E2.66946
G1 X91.531 Y122.162 E2.72351
G1 X91.36 Y122.516 E2.75489
G1 X91.336 Y122.584 E2.76065
G1 X91.167 Y122.915 E2.79031
G1 X90.974 Y123.381 E2.83058
G1 X90.889 Y123.658 E2.8537
G1 X90.861 Y124.066 E2.88635
G1 X90.86 Y126.96 E3.11736
G1 X90.926 Y127.432 E3.15541
G1 X91.125 Y127.861 E3.19315
G1 X91.382 Y128.317 E3.23494
G1 X91.599 Y128.734 E3.27246
G1 X91.854 Y129.407 E3.32991
G1 X92.028 Y129.737 E3.35969
G1 X92.232 Y129.986 E3.38539
G1 X92.482 Y130.188 E3.41104
G1 X92.777 Y130.345 E3.43772
G1 X93.656 Y130.583 E3.51041
G1 X94.008 Y130.632 E3.53878
G1 X97.925 Y130.632 E3.85145
G1 X98.711 Y130.493 E3.91517
G1 X99.363 Y130.42 E3.96754
G1 X100.732 Y130.427 E4.07682
G1 X101.813 Y130.3 E4.1637
G1 X102.423 Y130.268 E4.21246
G1 X103.089 Y130.307 E4.26571
G1 X103.737 Y130.429 E4.31835
G1 X104.424 Y130.649 E4.37593
G1 X104.959 Y130.899 E4.42307
G1 X105.477 Y131.164 E4.46952
G1 X105.924 Y131.35 E4.50816
G1 X106.237 Y131.414 E4.53367
G1 X106.513 Y131.432 E4.55574
G1 X113.281 Y131.432 E5.09599
G1 X113.542 Y131.417 E5.11686
G1 X114.016 Y131.344 E5.15515
G1 X114.462 Y131.221 E5.19208
G1 X114.816 Y131.067 E5.22289
G1 X115.061 Y130.92 E5.2457
G1 X115.373 Y130.7 E5.27617
G1 X116.198 Y130.197 E5.3533
G1 X116.94 Y129.887 E5.4175
G1 X116.96 Y129.904 E5.41959
G1 X117.483 Y129.76 E5.46289
G1 X118.121 Y129.671 E5.51431
G1 X118.869 Y129.656 E5.57403
G1 X119.575 Y129.74 E5.63079
G1 X120.179 Y129.895 E5.68056
G1 X120.836 Y130.15 E5.73682
G1 X121.137 Y130.31 E5.76403
G1 X121.2 Y130.334 E5.76941
G1 X121.557 Y130.527 E5.80181
G1 X121.933 Y130.607 E5.83249
G1 X122.26 Y130.632 E5.85867
G1 X126.041 Y130.632 E6.16049
G1 X126.546 Y130.544 E6.20141
G1 X127.188 Y130.373 E6.25444
G1 X127.501 Y130.238 E6.28165
G1 X127.848 Y129.986 E6.31588
G1 X128.127 Y129.595 E6.35422
G1 X128.418 Y128.816 E6.42061
G1 X128.71 Y128.238 E6.4723
G1 X128.98 Y127.773 E6.51522
G1 X129.14 Y127.39 E6.54835
G1 X129.181 Y127.127 E6.5696
G1 X129.2 Y126.85 E6.59176
G1 X129.2 Y124.29 E6.79611
G1 X129.174 Y123.906 E6.82684
G1 X129.083 Y123.464 E6.86286
G1 X128.961 Y123.033 E6.89861
G1 X128.705 Y122.519 E6.94445
G1 X128.375 Y122.182 E6.9821
G1 X127.963 Y121.814 E7.0262
G1 X127.529 Y121.543 E7.06704
G1 X126.99 Y121.335 E7.11316
G1 X126.513 Y121.243 E7.15194
G1 X126.169 Y121.227 E7.17943
G1 X125.425 Y121.155 E7.23909
G1 X124.707 Y120.979 E7.2981
G1 X124.108 Y120.754 E7.34918
G1 X123.484 Y120.423 E7.40556
G1 X122.929 Y120.028 E7.45994
G1 X122.418 Y119.553 E7.51563
G1 X121.98 Y119.033 E7.5699
G1 X121.622 Y118.476 E7.62276
G1 X121.31 Y117.826 E7.68031
G1 X121.09 Y117.143 E7.73759
G1 X120.972 Y116.513 E7.78875
G1 X120.932 Y115.841 E7.84249
G1 X120.928 Y104.212 E8.77077
G1 X121.005 Y103.336 E8.84096
G1 X121.175 Y102.625 E8.89932
G1 X121.415 Y101.999 E8.95284
G1 X121.736 Y101.39 E9.00779
G1 X122.136 Y100.832 E9.06259
G1 X122.645 Y100.29 E9.12194
G1 X123.13 Y99.88 E9.17264
G1 X123.732 Y99.502 E9.22938
G1 X124.34 Y99.213 E9.28312
G1 X125.017 Y98.994 E9.33992
G1 X125.633 Y98.878 E9.38995
G1 X126.453 Y98.826 E9.45554
G1 X126.985 Y98.733 E9.49865
G1 X127.545 Y98.508 E9.54683
G1 X127.922 Y98.281 E9.58195
G1 X128.346 Y97.906 E9.62714
G1 X128.665 Y97.567 E9.66429
G1 X128.892 Y97.151 E9.70212
G1 X129.061 Y96.768 E9.73554
G1 X129.171 Y96.393 E9.76674
G1 X129.2 Y95.974 E9.80026
G1 X129.2 Y93.492 E9.99839
G1 X129.182 Y93.18 E10.02333
G1 X129.093 Y92.691 E10.06301
G1 X128.955 Y92.207 E10.10318
G1 X128.803 Y91.87 E10.13269
G1 X128.487 Y91.314 E10.18374
G1 X128.205 Y90.67 E10.23986
G1 X128.056 Y90.372 E10.26646
G1 X127.884 Y90.135 E10.28983
G1 X127.625 Y89.917 E10.31686
G1 X127.309 Y89.733 E10.34605
G1 X126.582 Y89.537 E10.40615
G1 X126.358 Y89.461 E10.42503
G1 X125.927 Y89.432 E10.45951
G1 X122.129 Y89.432 E10.76269
G1 X121.596 Y89.531 E10.80596
G1 X120.553 Y90.029 E10.89822
G1 X119.898 Y90.242 E10.9532
G1 X119.234 Y90.364 E11.00709
G1 X118.546 Y90.404 E11.0621
G1 X117.861 Y90.357 E11.11691
G1 X117.205 Y90.225 E11.17033
G1 X116.571 Y90.016 E11.22361
G1 X115.935 Y89.713 E11.27985
G1 X115.361 Y89.342 E11.33441
G1 X115.13 Y89.181 E11.35688
G1 X114.561 Y88.894 E11.40775
G1 X114.117 Y88.699 E11.44646
G1 X113.681 Y88.632 E11.48167
G1 X106.781 Y88.632 E12.03246
G1 X106.429 Y88.654 E12.06061
G1 X106.068 Y88.72 E12.08991
G1 X105.628 Y88.828 E12.12607
G1 X105.135 Y89.05 E12.16923
G1 X104.392 Y89.57 E12.24162
G1 X103.814 Y89.89 E12.29436
G1 X103.221 Y90.136 E12.34561
G1 X102.552 Y90.316 E12.40091
G1 X101.87 Y90.407 E12.45583
G1 X101.194 Y90.412 E12.5098
G1 X100.524 Y90.335 E12.56363
G1 X99.863 Y90.171 E12.61799
G1 X99.22 Y89.923 E12.67301
G1 X98.511 Y89.546 E12.73711
G1 X98.115 Y89.457 E12.76951
G1 X97.792 Y89.432 E12.79537
G1 X93.353 Y89.432 E13.14971
G1 X92.83 Y89.529 E13.19217
G1 X92.545 Y89.662 E13.21727
G1 X92.303 Y89.838 E13.24116
G0 F15000 X93.45 Y89.832
G1 F4500 X92.009 Y91.273 E13.40383
G1 F2400 E12.90383
G0 F15000 X91.26 Y94.285
G1 F2400 E13.40383
G1 F4500 X95.713 Y89.832 E13.90652
G1 F2400 E13.40652
G0 F15000 X97.961 Y89.846
G1 F2400 E13.90652
G1 F4500 X91.314 Y96.494 E14.65695
G1 F2400 E14.15695
G0 F15000 X92.013 Y98.057
G1 F2400 E14.65695
G1 F4500 X99.581 Y90.489 E15.51129
G1 F2400 E15.01129
G0 F15000 X101.524 Y90.809
G1 F2400 E15.51129
G1 F4500 X92.331 Y100.002 E16.54908
G1 F2400 E16.04908
G0 F15000 X91.203 Y103.392
G1 F2400 E16.54908
G1 F4500 X104.88 Y89.716 E18.093
G1 F2400 E17.593
G0 F15000 X107.827 Y89.032
G1 F2400 E18.093
G1 F4500 X90.132 Y106.726 E20.09051
G1 F2400 E19.59051
G0 F15000 X90.132 Y108.989
G1 F2400 E20.09051
G1 F4500 X110.089 Y89.032 E22.34342
G1 F2400 E21.84342
G0 F15000 X112.352 Y89.032
G1 F2400 E22.34342
G1 F4500 X90.132 Y111.252 E24.85181
G1 F2400 E24.35181
G0 F15000 X90.132 Y113.515
G1 F2400 E24.85181
G1 F4500 X114.391 Y89.256 E27.59038
G1 F2400 E27.09038
G0 F15000 X115.811 Y90.099
G1 F2400 E27.59038
G1 F4500 X90.291 Y115.618 E30.47124
G1 F2400 E29.97124
G0 F15000 X91.314 Y116.858
G1 F2400 E30.47124
G1 F4500 X117.484 Y90.688 E33.42553
G1 F2400 E32.92553
G0 F15000 X119.76 Y90.675
G1 F2400 E33.42553
G1 F4500 X92.053 Y118.382 E36.55334
G1 F2400 E36.05334
G0 F15000 X92.312 Y120.386
G1 F2400 E36.55334
G1 F4500 X122.866 Y89.832 E40.00254
G1 F2400 E39.50254
G0 F15000 X125.129 Y89.832
G1 F2400 E40.00254
G1 F4500 X91.29 Y123.67 E43.82252
G1 F2400 E43.32252
G0 F15000 X91.261 Y125.963
G1 F2400 E43.82252
G1 F4500 X127.126 Y90.097 E47.87133
G1 F2400 E47.37133
G0 F15000 X128.088 Y91.398
G1 F2400 E47.87133
G1 F4500 X91.599 Y127.887 E51.99052
G1 F2400 E51.49052
G0 F15000 X92.319 Y129.43
G1 F2400 E51.99052
G1 F4500 X128.744 Y93.005 E56.10249
G1 F2400 E55.60249
G0 F15000 X128.8 Y95.211
G1 F2400 E56.10249
G1 F4500 X125.512 Y98.499 E56.47367
G1 F2400 E55.97367
G0 F15000 X125.248 Y100.037
G0 X122.069 Y103.45
G0 X120.599 Y103.412
G1 F2400 E56.47367
G1 F4500 X93.81 Y130.201 E59.49784
G1 F2400 E58.99784
G0 F15000 X96.042 Y130.232
G1 F2400 E59.49784
G1 F4500 X120.528 Y105.746 E62.26203
G1 F2400 E61.76203
G0 F15000 X120.528 Y108.008
G1 F2400 E62.26203
G1 F4500 X98.394 Y130.143 E64.76077
G1 F2400 E64.26077
G0 F15000 X100.78 Y130.019
G1 F2400 E64.76077
G1 F4500 X120.53 Y110.27 E66.99026
G1 F2400 E66.49026
G0 F15000 X120.531 Y112.532
G1 F2400 E66.99026
G1 F4500 X103.151 Y129.912 E68.95227
G1 F2400 E68.45227
G0 F15000 X104.896 Y130.429
G1 F2400 E68.95227
G1 F4500 X120.531 Y114.794 E70.71728
G1 F2400 E70.21728
G0 F15000 X120.647 Y116.941
G1 F2400 E70.71728
G1 F4500 X106.556 Y131.032 E72.30799
G1 F2400 E71.80799
G0 F15000 X108.819 Y131.032
G1 F2400 E72.30799
G1 F4500 X121.241 Y118.61 E73.7103
G1 F2400 E73.2103
G0 F15000 X122.213 Y119.901
G1 F2400 E73.7103
G1 F4500 X111.082 Y131.032 E74.96686
G1 F2400 E74.46686
G0 F15000 X113.344 Y131.032
G1 F2400 E74.96686
G1 F4500 X123.494 Y120.882 E76.11268
G1 F2400 E75.61268
G0 F15000 X125.14 Y121.499
G1 F2400 E76.11268
G1 F4500 X117.221 Y129.418 E77.00664
G1 F2400 E76.50664
G0 F15000 X119.567 Y129.335
G1 F2400 E77.00664
G1 F4500 X127.095 Y121.806 E77.85653
G1 F2400 E77.35653
G0 F15000 X128.387 Y122.778
G1 F2400 E77.85653
G1 F4500 X121.25 Y129.915 E78.66221
G1 F2400 E78.16221
G0 F15000 X123.195 Y130.232
G1 F2400 E78.66221
G1 F4500 X128.8 Y124.627 E79.29495
G1 F2400 E78.79495
G0 F15000 X128.793 Y126.897
G1 F2400 E79.29495
G1 F4500 X125.458 Y130.232 E79.67144
M104 S200
G1 F2400 E79.17144
G0 F300 X125.458 Y130.232 Z0.39
G0 F15000 X125.458 Y131.699
G0 X126.282 Y131.677
G0 X127.62 Y131.354
G0 X128.324 Y130.966
G0 X128.877 Y130.395
G0 X130.14 Y127.75
G0 X130.265 Y126.864
G0 X130.234 Y123.821
G0 X129.939 Y122.616
G0 X129.579 Y121.925
G0 X128.746 Y121.086
G0 X127.975 Y120.607
G0 X127.168 Y120.286
G0 X126.812 Y120.241
G0 X125.91 Y120.142
G0 X125.84 Y121.597
;TIME_ELAPSED:28.534492
;LAYER:-6
;TYPE:SUPPORT
G1 F2400 E79.67144
G1 F4500 X128.802 Y124.56 E79.88046
G1 X128.802 Y124.295 E79.89368
G1 X128.775 Y123.92 E79.91244
G1 X128.695 Y123.55 E79.93132
G1 X128.571 Y123.145 E79.95245
G1 X128.38 Y122.754 E79.97416
G1 X128.12 Y122.489 E79.99269
G1 X127.733 Y122.143 E80.01858
G1 X127.347 Y121.9 E80.04134
G1 X127.085 Y121.804 E80.05526
G1 X126.429 Y121.64 E80.089
G1 X126.127 Y121.625 E80.10408
G1 X125.351 Y121.548 E80.14299
G1 X124.616 Y121.375 E80.18066
G1 X123.929 Y121.113 E80.21734
G1 X123.283 Y120.769 E80.25385
G1 X122.678 Y120.339 E80.29089
G1 X122.109 Y119.811 E80.32961
G1 X121.637 Y119.247 E80.3663
G1 X121.272 Y118.67 E80.40037
G1 X121.069 Y118.24 E80.42409
G1 X92.821 Y89.993 E82.4171
G1 X92.947 Y89.916 E82.42447
G1 X93.372 Y89.834 E82.44606
G1 X94.077 Y89.834 E82.48124
G1 X120.562 Y116.32 E84.34993
G1 X120.532 Y115.876 E84.37213
G1 X120.532 Y114.875 E84.42207
G1 X95.491 Y89.834 E86.18885
G1 X96.906 Y89.835 E86.25945
G1 X120.532 Y113.461 E87.92639
G1 X120.532 Y112.047 E87.99693
G1 X98.455 Y89.97 E89.55458
G1 X99.056 Y90.287 E89.58848
G1 X99.696 Y90.538 E89.62278
G1 X100.399 Y90.719 E89.659
G1 X100.65 Y90.751 E89.67162
G1 X120.532 Y110.633 E91.0744
G1 X120.531 Y109.218 E91.145
G1 X102.094 Y90.78 E92.44586
G1 X102.639 Y90.707 E92.4733
G1 X103.267 Y90.539 E92.50573
G1 X120.531 Y107.803 E93.7238
G1 X120.531 Y106.389 E93.79434
G1 X104.252 Y90.11 E94.94291
G1 X104.621 Y89.901 E94.96407
G1 X105.113 Y89.556 E94.99405
G1 X120.531 Y104.975 E96.08191
G1 X120.531 Y104.198 E96.12067
G1 X120.584 Y103.613 E96.14998
G1 X106.098 Y89.127 E97.17205
G1 X106.466 Y89.054 E97.19076
G1 X106.789 Y89.034 E97.20691
G1 X107.419 Y89.035 E97.23834
G1 X120.822 Y102.437 E98.18396
G1 X121.048 Y101.842 E98.21571
G1 X121.254 Y101.455 E98.23758
G1 X108.834 Y89.035 E99.11388
G1 X110.248 Y89.035 E99.18443
G1 X121.813 Y100.599 E100.00036
G1 X122.354 Y100.012 E100.04019
G1 X122.509 Y99.882 E100.05028
G1 X111.662 Y89.035 E100.8156
G1 X113.076 Y89.035 E100.88614
G1 X123.324 Y99.283 E101.60919
G1 X123.494 Y99.175 E101.61924
G1 X124.266 Y98.81 E101.66185
G1 X115.116 Y89.66 E102.30743
G1 X115.772 Y90.082 E102.34634
G1 X116.527 Y90.439 E102.38801
G1 X116.527 Y90.505 E102.3913
G1 X117.579 Y90.709 E102.44476
G1 X125.389 Y98.519 E102.9958
G1 X125.577 Y98.483 E103.00535
G1 X126.43 Y98.43 E103.04799
G1 X126.671 Y98.387 E103.0602
G1 X119.061 Y90.776 E103.59716
G1 X119.318 Y90.759 E103.61001
G1 X119.982 Y90.634 E103.64372
G1 X120.247 Y90.549 E103.65761
G1 X127.677 Y97.979 E104.18183
G1 X128.088 Y97.603 E104.20963
G1 X128.39 Y97.277 E104.2318
G1 X121.257 Y90.145 E104.73503
G1 X121.704 Y89.914 E104.76014
G1 X122.147 Y89.834 E104.78259
G1 X122.361 Y89.834 E104.79327
G1 X128.783 Y96.256 E105.24638
G1 X128.801 Y95.961 E105.26112
G1 X128.802 Y94.861 E105.316
G1 X123.776 Y89.834 E105.67065
G1 X125.19 Y89.834 E105.74119
G1 X128.8 Y93.444 E105.9959
G1 X128.781 Y93.151 E106.01055
G1 X128.706 Y92.777 E106.02958
G1 X128.579 Y92.337 E106.05242
G1 X128.45 Y92.054 E106.06794
G1 X128.028 Y91.302 E106.11096
G1 X127.999 Y91.23 E106.11483
G1 X126.771 Y90.001 E106.20151
G1 X127.14 Y90.097 E106.22053
G1 X127.483 Y90.289 E106.24015
G1 X127.761 Y90.637 E106.26237
G1 F2400 E105.76237
G0 F15000 X129.106 Y90.064
G0 X130.017 Y92.029
G0 X130.243 Y93.078
G0 X130.233 Y96.471
G0 X124.511 Y119.768
G0 X123.95 Y121.122
G1 F2400 E106.26237
G1 F4500 X128.802 Y125.973 E106.60467
G1 X128.8 Y126.847 E106.64827
G1 X128.775 Y127.224 E106.66712
G1 X128.737 Y127.322 E106.67236
G1 X92.188 Y90.774 E109.25106
G1 X91.92 Y91.537 E109.2914
G1 X91.787 Y91.787 E109.30553
G1 X128.257 Y128.257 E111.87869
G1 X128.041 Y128.687 E111.9027
G1 X127.832 Y129.246 E111.93247
G1 X91.343 Y92.758 E114.50693
G1 X91.287 Y92.916 E114.51529
G1 X91.262 Y93.291 E114.53404
G1 X91.261 Y94.09 E114.57391
G1 X127.147 Y129.975 E117.10582
G1 X126.417 Y130.165 E117.14345
G1 X125.991 Y130.234 E117.16499
G1 X91.26 Y95.503 E119.61544
G1 X91.26 Y96.188 E119.64962
G1 X91.338 Y96.638 E119.6724
G1 X91.593 Y97.094 E119.69847
G1 X91.736 Y97.393 E119.71501
G1 X124.577 Y130.234 E122.03212
G1 X123.162 Y130.233 E122.10271
G1 X92.304 Y99.375 E124.27991
G1 X92.34 Y99.987 E124.31049
G1 X92.285 Y100.771 E124.3497
G1 X121.624 Y130.109 E126.41969
G1 X121.376 Y129.974 E126.43378
G1 X121.308 Y129.948 E126.43741
G1 X121.028 Y129.796 E126.45331
G1 X120.291 Y129.512 E126.49271
G1 X119.642 Y129.35 E126.52609
G1 X119.424 Y129.323 E126.53704
G1 X91.992 Y101.892 E128.47248
G1 X91.928 Y102.088 E128.48277
G1 X91.557 Y102.871 E128.526
G1 X117.978 Y129.292 E130.39014
G1 X117.394 Y129.372 E130.41955
G1 X116.804 Y129.532 E130.45005
G1 X90.957 Y103.684 E132.27373
G1 X90.739 Y103.943 E132.29062
G1 X90.393 Y104.302 E132.31549
G1 X90.315 Y104.457 E132.32415
G1 X115.819 Y129.961 E134.1236
G1 X114.94 Y130.496 E134.17493
G1 X90.133 Y105.689 E135.9252
G1 X90.133 Y107.103 E135.99575
G1 X113.969 Y130.94 E137.67754
G1 X113.595 Y131.014 E137.69656
G1 X113.271 Y131.034 E137.71276
G1 X112.648 Y131.033 E137.74384
G1 X90.133 Y108.518 E139.33239
G1 X90.133 Y109.932 E139.40294
G1 X111.234 Y131.033 E140.89173
G1 X109.82 Y131.033 E140.96227
G1 X90.132 Y111.345 E142.35137
G1 X90.132 Y112.759 E142.42191
