;FLAVOR:Marlin
;TIME:665
;Filament used: 0.366196m
;Layer height: 0.2
;MINX:80.361
;MINY:81.902
;MINZ:0.2
;MAXX:140.576
;MAXY:138.117
;MAXZ:8.6
;TARGET_MACHINE.NAME:Creality Ender-3 S1
;POSTPROCESSED
;  [CreateThumbnail]
;  [CreateThumbnail]
;  [KlipperPreprocessor]
;Generated with Cura_SteamEngine 5.6.0
;
;

;
;

M82 ;absolute extrusion mode
;Nozzle diameter = 0.4
;Filament type = PLA
;Filament name = PLA
;Filament weight = [1.0921990234375]
; M190 S50
; M109 S200
M140 S0
M104 S0
START_PRINT EXTRUDER_TEMP=200 BED_TEMP=50
G92 E0
G92 E0
G10
;LAYER_COUNT:43
;LAYER:0
M107
G0 F9000 X90.939 Y87.245 Z0.2
;TYPE:SKIRT
G11
G1 F3000 X91.609 Y86.64 E0.03002
G1 X92.33 Y86.096 E0.06007
G1 X93.383 Y85.463 E0.10093
G1 X93.806 Y85.242 E0.1168
G1 X94.624 Y84.859 E0.14684
G1 X95.473 Y84.551 E0.17688
G1 X96.345 Y84.318 E0.2069
G1 X97.114 Y84.181 E0.23288
G1 X99.131 Y83.906 E0.30059
G1 X101.649 Y83.522 E0.38531
G1 X104.117 Y83.074 E0.46873
G1 X107.133 Y82.432 E0.57129
G1 X108.036 Y82.225 E0.60211
G1 X109.228 Y82.025 E0.64231
G1 X109.729 Y81.971 E0.65907
G1 X110.391 Y81.921 E0.68115
G1 X111.23 Y81.902 E0.70906
G1 X112.102 Y81.932 E0.73808
G1 X112.996 Y82.017 E0.76795
G1 X113.499 Y82.085 E0.78483
G1 X114.736 Y82.331 E0.82678
G1 X115.149 Y82.44 E0.84099
G1 X115.719 Y82.608 E0.86075
G1 X116.049 Y82.716 E0.8723
G1 X116.658 Y82.937 E0.89385
G1 X117.484 Y83.286 E0.92367
G1 X118.234 Y83.656 E0.95149
G1 X118.489 Y83.794 E0.96113
G1 X119.021 Y84.104 E0.98161
G1 X119.431 Y84.359 E0.99767
G1 X120.423 Y85.061 E1.03809
G1 X120.967 Y85.5 E1.06134
G1 X123.283 Y87.432 E1.16165
G1 X125.284 Y89.003 E1.24627
G1 X127.305 Y90.5 E1.32992
G1 X129.411 Y91.968 E1.4153
G1 X131.164 Y93.128 E1.48522
G1 X131.894 Y93.66 E1.51526
G1 X132.575 Y94.254 E1.54532
G1 X133.2 Y94.906 E1.57536
G1 X133.98 Y95.915 E1.61777
G1 X134.539 Y96.741 E1.65095
G1 X136.006 Y98.842 E1.73617
G1 X137.543 Y100.918 E1.82209
G1 X138.425 Y102.056 E1.86997
G1 X138.946 Y102.793 E1.89999
G1 X139.4 Y103.574 E1.93004
G1 X139.783 Y104.392 E1.96008
G1 X140.092 Y105.241 E1.99013
G1 X140.325 Y106.113 E2.02015
G1 X140.48 Y107.003 E2.0502
G1 X140.562 Y108.133 E2.08788
G1 X140.576 Y108.97 E2.11572
G1 X140.576 Y112.556 E2.235
G1 X140.565 Y113.263 E2.25851
G1 X140.511 Y114.164 E2.28853
G1 X140.377 Y115.057 E2.31857
G1 X140.121 Y116.083 E2.35374
G1 X139.903 Y116.795 E2.37851
G1 X139.446 Y118.219 E2.42825
G1 X138.722 Y120.709 E2.51449
G1 X138.375 Y121.968 E2.55793
G1 X138.097 Y122.828 E2.58799
G1 X137.744 Y123.659 E2.61802
G1 X137.319 Y124.456 E2.64806
G1 X136.825 Y125.212 E2.6781
G1 X136.266 Y125.921 E2.70813
G1 X135.589 Y126.633 E2.74081
G1 X134.87 Y127.32 E2.77388
G1 X132.99 Y129.16 E2.86138
G1 X131.22 Y130.991 E2.94608
G1 X129.507 Y132.869 E3.03062
G1 X128.734 Y133.77 E3.07011
G1 X127.962 Y134.647 E3.10897
G1 X127.336 Y135.297 E3.13898
G1 X126.655 Y135.89 E3.16902
G1 X125.924 Y136.421 E3.19907
G1 X125.149 Y136.884 E3.22909
G1 X124.336 Y137.277 E3.25913
G1 X123.491 Y137.597 E3.28918
G1 X122.621 Y137.841 E3.31923
G1 X121.734 Y138.007 E3.34925
G1 X120.62 Y138.102 E3.38643
G1 X119.981 Y138.117 E3.40769
G1 X95.372 Y138.116 E4.22619
G1 X94.672 Y138.106 E4.24947
G1 X93.771 Y138.053 E4.27949
G1 X92.877 Y137.921 E4.30955
G1 X91.999 Y137.71 E4.33958
G1 X91.143 Y137.422 E4.36962
G1 X90.316 Y137.06 E4.39965
G1 X89.524 Y136.626 E4.42969
G1 X88.774 Y136.123 E4.45972
G1 X88.071 Y135.556 E4.48976
G1 X87.42 Y134.93 E4.5198
G1 X86.828 Y134.248 E4.54984
G1 X86.299 Y133.516 E4.57988
G1 X85.781 Y132.637 E4.61381
G1 X85.405 Y131.919 E4.64077
G1 X84.186 Y129.665 E4.726
G1 X82.904 Y127.448 E4.81118
G1 X82.261 Y126.405 E4.85193
G1 X81.804 Y125.639 E4.8816
G1 X81.376 Y124.844 E4.91163
G1 X81.021 Y124.013 E4.94168
G1 X80.741 Y123.155 E4.9717
G1 X80.537 Y122.275 E5.00175
G1 X80.412 Y121.381 E5.03177
G1 X80.371 Y120.709 E5.05416
G1 X80.361 Y120.005 E5.07758
G1 X80.37 Y119.458 E5.09578
G1 X80.425 Y118.557 E5.1258
G1 X80.516 Y117.899 E5.14789
G1 X80.989 Y115.147 E5.24077
G1 X81.351 Y112.596 E5.32646
G1 X81.632 Y110.134 E5.40888
G1 X81.849 Y107.569 E5.4945
G1 X81.993 Y105.029 E5.57911
G1 X82.067 Y102.426 E5.66572
G1 X82.084 Y101.234 E5.70538
G1 X82.137 Y100.333 E5.73539
G1 X82.269 Y99.439 E5.76545
G1 X82.48 Y98.561 E5.79549
G1 X82.768 Y97.705 E5.82552
G1 X83.13 Y96.878 E5.85555
G1 X83.564 Y96.086 E5.88559
G1 X84.066 Y95.335 E5.91563
G1 X84.619 Y94.648 E5.94497
G1 X86.147 Y92.946 E6.02104
G1 X87.802 Y91.008 E6.1058
G1 X89.83 Y88.492 E6.21329
G1 X90.325 Y87.908 E6.23875
G1 X90.939 Y87.245 E6.2688
G10
G0 F9000 X112.836 Y91.681
G0 X113.782 Y92.074
G0 X114.643 Y92.63
G0 X115.248 Y93.201
G0 X122.742 Y101.827
G11
G1 F3000 X125.341 Y101.826 E6.35525
G1 X125.341 Y102.226 E6.36855
G1 X122.742 Y102.226 E6.45499
G1 X122.742 Y101.827 E6.46826
G10
G0 F9000 X126.095 Y102.973
G0 X126.095 Y105.079
G0 X124.961 Y105.403
G0 X122.71 Y105.826
G11
G1 F3000 X125.342 Y105.826 E6.55581
G1 X125.342 Y106.225 E6.56908
G1 X122.742 Y106.226 E6.65555
G1 X122.742 Y106.049 E6.66144
G1 X122.74 Y106.018 E6.66247
G1 X122.71 Y105.826 E6.66894
G10
G0 F9000 X122.777 Y108.223
G11
G1 F3000 X122.777 Y113.186 E6.83401
G1 X122.447 Y113.055 E6.84582
G1 X122.425 Y113.048 E6.84658
G1 X122.178 Y112.981 E6.8551
G1 X122.159 Y112.977 E6.85574
G1 X121.863 Y112.928 E6.86572
G1 X121.845 Y112.926 E6.86632
G1 X121.612 Y112.908 E6.8741
G1 X121.6 Y112.907 E6.8745
G1 X120.577 Y112.892 E6.90852
G1 X120.577 Y108.518 E7.054
G1 X121.316 Y108.516 E7.07858
G1 X121.326 Y108.516 E7.07892
G1 X121.683 Y108.498 E7.09081
G1 X121.695 Y108.497 E7.09121
G1 X121.929 Y108.471 E7.09904
G1 X121.95 Y108.467 E7.09975
G1 X122.248 Y108.402 E7.10989
G1 X122.27 Y108.396 E7.11065
G1 X122.777 Y108.223 E7.12847
G0 F9000 X122.377 Y108.781
G1 F3000 X122.377 Y112.62 E7.25615
G1 X122.283 Y112.595 E7.25939
G1 X122.224 Y112.582 E7.2614
G1 X121.928 Y112.533 E7.27138
G1 X121.876 Y112.527 E7.27312
G1 X121.643 Y112.509 E7.28089
G1 X121.606 Y112.507 E7.28212
G1 X120.977 Y112.498 E7.30305
G1 X120.977 Y108.917 E7.42215
G1 X121.317 Y108.916 E7.43346
G1 X121.346 Y108.915 E7.43442
G1 X121.703 Y108.897 E7.44631
G1 X121.739 Y108.894 E7.44751
G1 X121.973 Y108.868 E7.45535
G1 X122.035 Y108.858 E7.45743
G1 X122.333 Y108.793 E7.46758
G1 X122.377 Y108.781 E7.4691
G0 F9000 X121.977 Y109.27
G1 F3000 X121.977 Y112.136 E7.56442
G1 X121.907 Y112.128 E7.56676
G1 X121.674 Y112.11 E7.57454
G1 X121.612 Y112.107 E7.5766
G1 X121.377 Y112.104 E7.58442
G1 X121.377 Y109.314 E7.67721
G1 X121.723 Y109.297 E7.68873
G1 X121.783 Y109.292 E7.69074
G1 X121.977 Y109.27 E7.69723
G10
G0 F9000 X123.124 Y107.851
G0 X127.63 Y107.851
G0 X127.977 Y108.205
G11
G1 F3000 X128.446 Y108.378 E7.71386
G1 X128.478 Y108.387 E7.71496
G1 X128.876 Y108.461 E7.72843
G1 X128.894 Y108.463 E7.72903
G1 X129.174 Y108.49 E7.73839
G1 X129.191 Y108.491 E7.73895
G1 X130.177 Y108.502 E7.77175
G1 X130.177 Y112.906 E7.91823
G1 X129.105 Y112.918 E7.95388
G1 X129.088 Y112.919 E7.95445
G1 X128.836 Y112.943 E7.96287
G1 X128.816 Y112.946 E7.96354
G1 X128.541 Y113.001 E7.97287
G1 X128.524 Y113.005 E7.97345
G1 X128.242 Y113.088 E7.98323
G1 X128.221 Y113.096 E7.98397
G1 X127.977 Y113.198 E7.99277
G1 X127.977 Y108.205 E8.15884
G0 F9000 X128.377 Y108.772
G1 F3000 X128.405 Y108.78 E8.15981
G1 X128.803 Y108.854 E8.17327
G1 X128.855 Y108.861 E8.17502
G1 X129.135 Y108.888 E8.18437
G1 X129.186 Y108.891 E8.18607
G1 X129.777 Y108.897 E8.20573
G1 X129.777 Y112.511 E8.32593
G1 X129.1 Y112.518 E8.34845
G1 X129.05 Y112.521 E8.35012
G1 X128.798 Y112.545 E8.35854
G1 X128.737 Y112.554 E8.36059
G1 X128.462 Y112.609 E8.36991
G1 X128.411 Y112.621 E8.37166
G1 X128.377 Y112.631 E8.37284
G1 X128.377 Y108.772 E8.50119
G0 F9000 X128.777 Y109.253
G1 F3000 X128.817 Y109.259 E8.50253
G1 X129.097 Y109.286 E8.51189
G1 X129.182 Y109.291 E8.51472
G1 X129.377 Y109.293 E8.52121
G1 X129.377 Y112.115 E8.61507
G1 X129.096 Y112.118 E8.62441
G1 X129.012 Y112.123 E8.62721
G1 X128.777 Y112.145 E8.63506
G1 X128.777 Y109.253 E8.73125
G10
G0 F9000 X127.63 Y113.557
G0 X118.003 Y114.118
G0 X118.003 Y112.012
G0 X116.392 Y112.001
G0 X115.653 Y112.201
G0 X115.262 Y112.447
G0 X114.932 Y112.777
G0 X114.686 Y113.168
G0 X114.486 Y113.907
G0 X114.486 Y115.023
G0 X114.686 Y115.762
G0 X114.932 Y116.153
G0 X115.119 Y116.34
G0 X118.051 Y118.355
G11
G1 F3000 X118.051 Y118.415 E8.73325
G1 X118.089 Y118.533 E8.73737
G1 X118.251 Y118.755 E8.74651
G1 X118.251 Y124.137 E8.92552
G1 X117.949 Y124.305 E8.93701
G1 X117.929 Y124.305 E8.93767
G1 X117.862 Y124.317 E8.93994
G1 X117.467 Y124.458 E8.95389
G1 X117.443 Y124.468 E8.95475
G1 X117.04 Y124.674 E8.96981
G1 X117.005 Y124.697 E8.9712
G1 X116.57 Y125.05 E8.98983
G1 X116.541 Y125.079 E8.9912
G1 X116.242 Y125.447 E9.00697
G1 X116.22 Y125.48 E9.00829
G1 X116.014 Y125.874 E9.02307
G1 X116.009 Y125.884 E9.02345
G1 X115.938 Y126.039 E9.02912
G1 X115.88 Y126.117 E9.03235
G1 X112.771 Y126.117 E9.13575
G1 X112.672 Y126.087 E9.1392
G1 X112.644 Y126.08 E9.14016
G1 X112.221 Y126.016 E9.15438
G1 X112.183 Y126.014 E9.15565
G1 X111.804 Y126.029 E9.16827
G1 X111.777 Y126.032 E9.16917
G1 X111.47 Y126.086 E9.17954
G1 X111.447 Y126.092 E9.18033
G1 X111.365 Y126.117 E9.18318
G1 X108.22 Y126.117 E9.28778
G1 X107.974 Y125.646 E9.30545
G1 X107.968 Y125.634 E9.3059
G1 X107.827 Y125.402 E9.31493
G1 X107.811 Y125.38 E9.31584
G1 X107.59 Y125.107 E9.32752
G1 X107.571 Y125.086 E9.32846
G1 X107.283 Y124.82 E9.3415
G1 X107.254 Y124.798 E9.34271
G1 X106.864 Y124.552 E9.35805
G1 X106.834 Y124.536 E9.35918
G1 X106.513 Y124.403 E9.37073
G1 X106.499 Y124.398 E9.37123
G1 X106.249 Y124.315 E9.37999
G1 X106.186 Y124.305 E9.38211
G1 X106.051 Y124.305 E9.3866
G1 X106.012 Y124.186 E9.39077
G1 X105.851 Y124.105 E9.39676
G1 X105.851 Y118.732 E9.57547
G1 X106.109 Y118.356 E9.59063
G1 X109.111 Y118.344 E9.69048
G1 X109.122 Y118.344 E9.69085
G1 X109.327 Y118.332 E9.69768
G1 X109.341 Y118.33 E9.69815
G1 X109.773 Y118.273 E9.71264
G1 X109.794 Y118.269 E9.71335
G1 X110.01 Y118.217 E9.72074
G1 X110.022 Y118.214 E9.72115
G1 X110.309 Y118.125 E9.73115
G1 X110.321 Y118.121 E9.73157
G1 X110.559 Y118.031 E9.74003
G1 X110.585 Y118.019 E9.74098
G1 X110.713 Y117.948 E9.74585
G1 X110.744 Y117.963 E9.747
G1 X110.831 Y117.983 E9.74997
G1 X111.624 Y117.983 E9.77634
G1 X111.692 Y118.031 E9.77911
G1 X111.759 Y118.04 E9.78136
G1 X112.359 Y118.017 E9.80133
G1 X112.447 Y117.984 E9.80446
G1 X113.26 Y117.984 E9.8315
G1 X113.345 Y117.965 E9.83439
G1 X113.402 Y117.938 E9.83649
G1 X113.662 Y118.091 E9.84652
G1 X113.784 Y118.118 E9.85068
G1 X113.794 Y118.113 E9.85105
G1 X114.069 Y118.215 E9.86081
G1 X114.101 Y118.223 E9.8619
G1 X114.61 Y118.32 E9.87914
G1 X114.636 Y118.324 E9.88001
G1 X115.185 Y118.354 E9.8983
G1 X115.196 Y118.354 E9.89867
G1 X118.051 Y118.355 E9.99362
G0 F9000 X117.758 Y118.755
G1 F3000 X117.766 Y118.769 E9.99416
G1 X117.851 Y118.885 E9.99894
G1 X117.851 Y123.903 E10.16584
G1 X117.81 Y123.926 E10.16741
G1 X117.727 Y123.94 E10.17021
G1 X117.332 Y124.081 E10.18416
G1 X117.261 Y124.112 E10.18673
G1 X116.858 Y124.318 E10.20179
G1 X116.753 Y124.386 E10.20595
G1 X116.318 Y124.739 E10.22458
G1 X116.23 Y124.827 E10.22872
G1 X115.931 Y125.195 E10.24449
G1 X115.865 Y125.295 E10.24847
G1 X115.659 Y125.689 E10.26326
G1 X115.645 Y125.717 E10.2643
G1 X112.831 Y125.717 E10.3579
G1 X112.788 Y125.704 E10.35939
G1 X112.704 Y125.685 E10.36226
G1 X112.281 Y125.621 E10.37648
G1 X112.167 Y125.614 E10.38028
G1 X111.788 Y125.629 E10.3929
G1 X111.708 Y125.638 E10.39558
G1 X111.401 Y125.692 E10.40594
G1 X111.331 Y125.709 E10.40834
G1 X111.305 Y125.717 E10.40924
G1 X108.463 Y125.717 E10.50377
G1 X108.329 Y125.461 E10.51338
G1 X108.31 Y125.426 E10.5147
G1 X108.169 Y125.194 E10.52373
G1 X108.122 Y125.128 E10.52643
G1 X107.901 Y124.855 E10.53811
G1 X107.842 Y124.792 E10.54098
G1 X107.554 Y124.526 E10.55402
G1 X107.467 Y124.46 E10.55765
G1 X107.077 Y124.214 E10.57299
G1 X106.987 Y124.167 E10.57637
G1 X106.666 Y124.034 E10.58792
G1 X106.625 Y124.019 E10.58938
G1 X106.375 Y123.936 E10.59814
G1 X106.311 Y123.926 E10.60029
G1 X106.298 Y123.904 E10.60114
G1 X106.251 Y123.868 E10.60311
G1 X106.251 Y118.856 E10.76981
G1 X106.32 Y118.755 E10.77388
G1 X109.112 Y118.744 E10.86674
G1 X109.145 Y118.743 E10.86784
G1 X109.35 Y118.731 E10.87467
G1 X109.393 Y118.727 E10.87611
G1 X109.825 Y118.67 E10.8906
G1 X109.887 Y118.658 E10.8927
G1 X110.103 Y118.606 E10.90009
G1 X110.141 Y118.596 E10.9014
G1 X110.428 Y118.507 E10.91139
G1 X110.462 Y118.495 E10.91259
G1 X110.7 Y118.405 E10.92105
G1 X110.775 Y118.37 E10.92381
G1 X110.831 Y118.383 E10.92572
G1 X111.517 Y118.383 E10.94853
G1 X111.774 Y118.44 E10.95729
G1 X112.374 Y118.417 E10.97726
G1 X112.52 Y118.384 E10.98224
G1 X113.26 Y118.384 E11.00685
G1 X113.34 Y118.366 E11.00958
G1 X113.459 Y118.436 E11.01417
G1 X113.664 Y118.511 E11.02143
G1 X113.714 Y118.51 E11.02309
G1 X113.93 Y118.59 E11.03076
G1 X114.026 Y118.616 E11.03406
G1 X114.535 Y118.713 E11.0513
G1 X114.614 Y118.723 E11.05395
G1 X115.163 Y118.753 E11.07223
G1 X115.196 Y118.754 E11.07333
G1 X117.758 Y118.755 E11.15854
G0 F9000 X117.451 Y119.155
G1 F3000 X117.451 Y123.614 E11.30685
G1 X117.198 Y123.704 E11.31578
G1 X117.079 Y123.756 E11.3201
G1 X116.676 Y123.962 E11.33515
G1 X116.501 Y124.076 E11.3421
G1 X116.066 Y124.429 E11.36073
G1 X115.92 Y124.574 E11.36758
G1 X115.621 Y124.942 E11.38335
G1 X115.511 Y125.11 E11.39003
G1 X115.403 Y125.317 E11.39779
G1 X112.886 Y125.317 E11.48151
G1 X112.764 Y125.289 E11.48567
G1 X112.341 Y125.225 E11.4999
G1 X112.151 Y125.215 E11.50623
G1 X111.772 Y125.23 E11.51884
G1 X111.639 Y125.244 E11.52329
G1 X111.332 Y125.298 E11.53366
G1 X111.253 Y125.317 E11.53636
G1 X108.705 Y125.317 E11.62111
G1 X108.684 Y125.276 E11.62264
G1 X108.652 Y125.219 E11.62482
G1 X108.511 Y124.987 E11.63385
G1 X108.433 Y124.877 E11.63833
G1 X108.212 Y124.604 E11.65001
G1 X108.113 Y124.498 E11.65484
G1 X107.825 Y124.232 E11.66788
G1 X107.681 Y124.121 E11.67392
G1 X107.291 Y123.875 E11.68926
G1 X107.14 Y123.797 E11.69491
G1 X106.819 Y123.664 E11.70647
G1 X106.751 Y123.639 E11.70888
G1 X106.651 Y123.606 E11.71238
G1 X106.651 Y119.154 E11.86046
G1 X109.114 Y119.144 E11.94238
G1 X109.168 Y119.142 E11.94417
G1 X109.373 Y119.13 E11.951
G1 X109.446 Y119.123 E11.95344
G1 X109.878 Y119.066 E11.96794
G1 X109.981 Y119.047 E11.97142
G1 X110.197 Y118.995 E11.97881
G1 X110.259 Y118.978 E11.98095
G1 X110.546 Y118.889 E11.99094
G1 X110.604 Y118.869 E11.99298
G1 X110.831 Y118.783 E12.00106
G1 X111.45 Y118.783 E12.02164
G1 X111.596 Y118.828 E12.02672
G1 X111.789 Y118.839 E12.03315
G1 X112.389 Y118.816 E12.05312
G1 X112.567 Y118.784 E12.05914
G1 X113.263 Y118.784 E12.08229
G1 X113.518 Y118.888 E12.09145
G1 X113.609 Y118.898 E12.09449
G1 X113.791 Y118.965 E12.10094
G1 X113.951 Y119.009 E12.10646
G1 X114.46 Y119.106 E12.1237
G1 X114.592 Y119.123 E12.12812
G1 X115.141 Y119.153 E12.14641
G1 X115.196 Y119.154 E12.14824
G1 X117.451 Y119.155 E12.22324
G0 F9000 X117.051 Y119.555
G1 F3000 X117.051 Y123.332 E12.34887
G1 X116.897 Y123.399 E12.35445
G1 X116.494 Y123.605 E12.36951
G1 X116.249 Y123.765 E12.37924
G1 X115.814 Y124.118 E12.39787
G1 X115.609 Y124.322 E12.40749
G1 X115.31 Y124.69 E12.42326
G1 X115.161 Y124.917 E12.43229
G1 X112.925 Y124.917 E12.50666
G1 X112.823 Y124.894 E12.51014
G1 X112.4 Y124.83 E12.52437
G1 X112.136 Y124.815 E12.53316
G1 X111.757 Y124.83 E12.54578
G1 X111.569 Y124.85 E12.55207
G1 X111.262 Y124.904 E12.56243
G1 X111.207 Y124.917 E12.56431
G1 X108.936 Y124.917 E12.63985
G1 X108.852 Y124.779 E12.64522
G1 X108.744 Y124.625 E12.65148
G1 X108.523 Y124.352 E12.66316
G1 X108.385 Y124.205 E12.66986
G1 X108.097 Y123.939 E12.6829
