;FLAVOR:Marlin
;TIME:2782
;Filament used: 2.35821m
;Layer height: 0.2
;MINX:71.112
;MINY:61.1
;MINZ:0.2
;MAXX:148.889
;MAXY:157.858
;MAXZ:3.4
;TARGET_MACHINE.NAME:Creality Ender-3 S1
;POSTPROCESSED
;  [CreateThumbnail]
;  [CreateThumbnail]
;  [KlipperPreprocessor]
;Generated with Cura_SteamEngine 5.6.0
;
;

;
;

M82 ;absolute extrusion mode
;Nozzle diameter = 0.4
;Filament type = PLA
;Filament name = PLA
;Filament weight = [7.033481015624999]
; M190 S50
; M109 S200
M140 S0
M104 S0
START_PRINT EXTRUDER_TEMP=200 BED_TEMP=50
G92 E0
G92 E0
G10
;LAYER_COUNT:17
;LAYER:0
M107
G0 F9000 X86.259 Y64.179 Z0.2
;TYPE:SKIRT
G11
G1 F3000 X86.539 Y63.898 E0.01319
G1 X86.945 Y63.7 E0.02822
G1 X88.2 Y63.7 E0.06996
G1 X88.2 Y62.111 E0.12281
G1 X88.33 Y61.736 E0.13601
G1 X88.634 Y61.351 E0.15233
G1 X89.146 Y61.101 E0.17128
G1 X99.804 Y61.1 E0.52576
G1 X100.353 Y61.538 E0.54912
G1 X100.6 Y62.048 E0.56797
G1 X100.6 Y63.7 E0.62292
G1 X119.4 Y63.7 E1.24821
G1 X119.4 Y62.111 E1.30106
G1 X119.53 Y61.736 E1.31426
G1 X119.834 Y61.351 E1.33057
G1 X120.346 Y61.101 E1.34952
G1 X131.004 Y61.1 E1.70401
G1 X131.553 Y61.538 E1.72737
G1 X131.8 Y62.048 E1.74622
G1 X131.8 Y63.7 E1.80116
G1 X132.99 Y63.7 E1.84074
G1 X133.365 Y63.83 E1.85394
G1 X133.752 Y64.136 E1.87035
G1 X134 Y64.645 E1.88918
G1 X134 Y94.901 E2.8955
G1 X134.499 Y94.648 E2.91411
G1 X135.526 Y94.533 E2.94848
G1 X136.673 Y94.861 E2.98816
G1 X137.088 Y95.092 E3.00396
G1 X137.819 Y96.124 E3.04602
G1 X138.013 Y96.347 E3.05585
G1 X138.433 Y96.511 E3.07085
G1 X138.722 Y96.517 E3.08046
G1 X138.99 Y96.462 E3.08956
G1 X143.437 Y95.221 E3.24312
G1 X143.83 Y95.001 E3.2581
G1 X144.295 Y94.488 E3.28113
G1 X145.29 Y93.975 E3.31836
G1 X146.323 Y93.862 E3.35293
G1 X147.477 Y94.193 E3.39286
G1 X147.886 Y94.417 E3.40837
G1 X148.714 Y95.579 E3.45582
G1 X148.887 Y96.468 E3.48595
G1 X148.889 Y111.656 E3.9911
G1 X148.869 Y115.395 E4.11546
G1 X148.749 Y116.244 E4.14398
G1 X147.974 Y117.299 E4.18752
G1 X147.592 Y117.582 E4.20333
G1 X146.491 Y117.97 E4.24216
G1 X145.436 Y117.916 E4.27729
G1 X144.508 Y117.498 E4.31115
G1 X144.094 Y117.377 E4.32549
G1 X143.784 Y117.362 E4.33581
G1 X139.326 Y117.368 E4.48409
G1 X138.976 Y117.452 E4.49606
G1 X138.695 Y117.694 E4.50839
G1 X138.555 Y117.928 E4.51746
G1 X138.499 Y118.266 E4.52886
G1 X138.5 Y120.524 E4.60396
G1 X138.573 Y120.841 E4.61478
G1 X138.703 Y121.037 E4.6226
G1 X138.936 Y121.23 E4.63267
G1 X139.376 Y121.357 E4.6479
G1 X143.89 Y121.361 E4.79803
G1 X144.156 Y121.334 E4.80693
G1 X144.408 Y121.271 E4.81557
G1 X145.43 Y120.809 E4.85287
G1 X146.494 Y120.754 E4.88831
G1 X147.577 Y121.131 E4.92645
G1 X147.967 Y121.42 E4.94259
G1 X148.744 Y122.476 E4.9862
G1 X148.874 Y123.369 E5.01621
G1 X148.886 Y142.247 E5.6441
G1 X148.712 Y143.14 E5.67436
G1 X147.962 Y144.201 E5.71757
G1 X147.527 Y144.511 E5.73534
G1 X146.328 Y144.865 E5.77692
G1 X145.288 Y144.74 E5.81176
G1 X144.299 Y144.244 E5.84856
G1 X143.761 Y143.662 E5.87492
G1 X143.332 Y143.474 E5.8905
G1 X138.927 Y142.247 E6.04259
G1 X138.6 Y142.186 E6.05365
G1 X138.345 Y142.218 E6.0622
G1 X138.065 Y142.344 E6.07241
G1 X137.879 Y142.51 E6.0807
G1 X137.195 Y143.486 E6.12034
G1 X136.84 Y143.806 E6.13624
G1 X135.451 Y144.215 E6.1844
G1 X135.396 Y144.664 E6.19944
G1 X134.903 Y145.649 E6.23608
G1 X134.473 Y146.038 E6.25536
G1 X134.288 Y146.257 E6.2649
G1 X134.133 Y146.609 E6.27769
G1 X132.865 Y151.173 E6.43524
G1 X132.854 Y151.422 E6.44353
G1 X132.943 Y151.818 E6.45703
G1 X133.199 Y152.096 E6.4696
G1 X134.148 Y152.764 E6.5082
G1 X134.463 Y153.114 E6.52386
G1 X134.848 Y154.417 E6.56905
G1 X134.735 Y155.452 E6.60368
G1 X134.26 Y156.389 E6.63862
G1 X133.98 Y156.7 E6.65254
G1 X133.07 Y157.285 E6.68852
G1 X132.197 Y157.441 E6.71801
G1 X131.237 Y157.456 E6.74995
G1 X130.87 Y157.544 E6.7625
G1 X130.714 Y157.702 E6.76989
G1 X130.499 Y157.816 E6.77798
G1 X130.226 Y157.858 E6.78717
G1 X89.769 Y157.858 E8.13277
G1 X89.509 Y157.799 E8.14164
G1 X89.31 Y157.687 E8.14923
G1 X89.146 Y157.517 E8.15709
G1 X88.846 Y157.463 E8.16723
G1 X87.691 Y157.426 E8.20566
G1 X86.963 Y157.284 E8.23033
G1 X86.064 Y156.704 E8.26592
G1 X85.784 Y156.395 E8.27979
G1 X85.305 Y155.452 E8.31497
G1 X85.191 Y154.428 E8.34923
G1 X85.518 Y153.287 E8.38871
G1 X85.752 Y152.858 E8.40497
G1 X86.769 Y152.145 E8.44628
G1 X87.031 Y151.893 E8.45837
G1 X87.16 Y151.613 E8.46862
G1 X87.182 Y151.268 E8.48012
G1 X87.121 Y150.973 E8.49014
G1 X85.861 Y146.477 E8.64544
G1 X85.73 Y146.24 E8.65444
G1 X85.568 Y146.034 E8.66316
G1 X85.151 Y145.663 E8.68172
G1 X84.667 Y144.726 E8.7168
G1 X84.604 Y144.399 E8.72788
G1 X84.401 Y144.391 E8.73463
G1 X83.323 Y144.083 E8.77192
G1 X82.904 Y143.851 E8.78785
G1 X82.188 Y142.828 E8.82938
G1 X82 Y142.605 E8.83908
G1 X81.715 Y142.445 E8.84996
G1 X81.327 Y142.42 E8.86289
G1 X81.023 Y142.482 E8.87321
G1 X76.722 Y143.681 E9.02171
G1 X76.368 Y143.813 E9.03428
G1 X76.088 Y144.031 E9.04608
G1 X75.708 Y144.453 E9.06497
G1 X74.709 Y144.972 E9.10241
G1 X73.677 Y145.086 E9.13695
G1 X72.529 Y144.757 E9.17667
G1 X72.113 Y144.528 E9.19246
G1 X71.287 Y143.367 E9.23985
G1 X71.114 Y142.479 E9.26994
G1 X71.112 Y127.291 E9.7751
G1 X71.132 Y123.552 E9.89946
G1 X71.252 Y122.703 E9.92798
G1 X72.027 Y121.648 E9.97151
G1 X72.409 Y121.365 E9.98733
G1 X73.51 Y120.977 E10.02615
G1 X74.564 Y121.031 E10.06126
G1 X75.616 Y121.504 E10.09962
G1 X75.917 Y121.57 E10.10987
G1 X76.235 Y121.585 E10.12046
G1 X80.603 Y121.579 E10.26574
G1 X80.84 Y121.551 E10.27368
G1 X81.05 Y121.464 E10.28124
G1 X81.354 Y121.219 E10.29422
G1 X81.502 Y120.817 E10.30847
G1 X81.507 Y118.527 E10.38464
G1 X81.448 Y118.193 E10.39592
G1 X81.279 Y117.89 E10.40746
G1 X81.059 Y117.712 E10.41687
G1 X80.836 Y117.62 E10.42489
G1 X80.516 Y117.59 E10.43558
G1 X76.005 Y117.586 E10.58562
G1 X75.611 Y117.667 E10.599
G1 X74.569 Y118.138 E10.63703
G1 X73.507 Y118.193 E10.6724
G1 X72.424 Y117.816 E10.71054
G1 X72.034 Y117.527 E10.72668
G1 X71.257 Y116.471 E10.77029
G1 X71.127 Y115.578 E10.8003
G1 X71.115 Y96.7 E11.42819
G1 X71.289 Y95.807 E11.45845
G1 X72.039 Y94.746 E11.50166
G1 X72.474 Y94.436 E11.51943
G1 X73.673 Y94.082 E11.56101
G1 X74.713 Y94.207 E11.59585
G1 X75.681 Y94.693 E11.63188
G1 X76.112 Y95.154 E11.65287
G1 X76.409 Y95.36 E11.66489
G1 X76.672 Y95.476 E11.67445
G1 X81.095 Y96.705 E11.82713
G1 X81.411 Y96.761 E11.83781
G1 X81.658 Y96.73 E11.84609
G1 X81.995 Y96.574 E11.85844
G1 X82.206 Y96.32 E11.86942
G1 X82.814 Y95.455 E11.90459
G1 X83.164 Y95.14 E11.92025
G1 X84.469 Y94.759 E11.96546
G1 X85.503 Y94.87 E12.00005
G1 X86.237 Y95.241 E12.02741
G1 X86 Y94.753 E12.04545
G1 X86 Y64.718 E13.04442
G1 X86.259 Y64.179 E13.06431
G0 F9000 X86.95 Y64.588
G1 F3000 X87.131 Y64.5 E13.071
G1 X120.663 Y64.5 E14.18628
G1 X120.447 Y64.265 E14.1969
G1 X120.288 Y64.15 E14.20342
G1 X120.2 Y63.969 E14.21012
G1 X120.2 Y62.179 E14.26965
G1 X120.35 Y61.989 E14.27771
G1 X120.53 Y61.901 E14.28437
G1 X130.724 Y61.9 E14.62342
G1 X130.912 Y62.05 E14.63142
G1 X131 Y62.231 E14.63812
G1 X131 Y64.037 E14.69818
G1 X130.765 Y64.253 E14.7088
G1 X130.65 Y64.412 E14.71533
G1 X130.469 Y64.5 E14.72202
G1 X132.922 Y64.5 E14.80361
G1 X133.112 Y64.65 E14.81166
G1 X133.2 Y64.831 E14.81835
G1 X133.2 Y94.624 E15.80927
G1 X133.05 Y94.812 E15.81727
G1 X132.869 Y94.9 E15.82397
G1 X117.4 Y94.9 E16.33847
G1 X117.4 Y103.224 E16.61532
G1 X117.25 Y103.412 E16.62332
G1 X117.069 Y103.5 E16.63002
G1 X102.876 Y103.5 E17.10208
G1 X102.688 Y103.35 E17.11008
G1 X102.6 Y103.169 E17.11677
G1 X102.6 Y94.9 E17.3918
G1 X87.076 Y94.9 E17.90813
G1 X86.888 Y94.75 E17.91613
G1 X86.8 Y94.569 E17.92282
G1 X86.8 Y64.9 E18.90962
G1 X86.95 Y64.588 E18.92113
G0 F9000 X86.589 Y64.415
G1 F3000 X86.775 Y64.228 E18.9299
G1 X87.038 Y64.1 E18.93963
G1 X88.6 Y64.1 E18.99159
G1 X88.6 Y62.179 E19.05548
G1 X88.686 Y61.931 E19.06421
G1 X88.892 Y61.67 E19.07527
G1 X89.238 Y61.501 E19.08808
G1 X99.664 Y61.5 E19.43485
G1 X100.033 Y61.794 E19.45054
G1 X100.2 Y62.139 E19.46329
G1 X100.2 Y64.1 E19.52851
G1 X119.8 Y64.1 E20.18041
G1 X119.8 Y62.179 E20.2443
G1 X119.886 Y61.931 E20.25303
G1 X120.092 Y61.67 E20.26409
G1 X120.438 Y61.501 E20.2769
G1 X130.864 Y61.5 E20.62367
G1 X131.233 Y61.794 E20.63936
G1 X131.4 Y62.139 E20.65211
G1 X131.4 Y64.1 E20.71733
G1 X132.922 Y64.1 E20.76795
G1 X133.17 Y64.186 E20.77668
G1 X133.432 Y64.393 E20.78779
G1 X133.6 Y64.738 E20.80055
G1 X133.6 Y94.764 E21.79922
G1 X133.306 Y95.133 E21.81491
G1 X132.961 Y95.3 E21.82766
G1 X117.8 Y95.3 E22.33192
G1 X117.8 Y103.411 E22.60169
G1 X119.8 Y103.411 E22.66821
G1 X119.8 Y101.49 E22.7321
G1 X119.886 Y101.242 E22.74083
G1 X120.092 Y100.981 E22.75189
G1 X120.438 Y100.812 E22.7647
G1 X130.864 Y100.811 E23.11147
G1 X131.233 Y101.105 E23.12716
G1 X131.4 Y101.45 E23.13991
G1 X131.4 Y103.411 E23.20514
G1 X132.494 Y103.411 E23.24152
G1 X132.494 Y99.159 E23.38294
G1 X132.544 Y98.942 E23.39035
G1 X132.79 Y98.703 E23.40176
G1 X132.891 Y98.229 E23.41788
G1 X132.919 Y97.109 E23.45514
G1 X133.046 Y96.457 E23.47723
G1 X133.555 Y95.668 E23.50846
G1 X133.785 Y95.46 E23.51878
G1 X134.615 Y95.038 E23.54975
G1 X135.492 Y94.94 E23.5791
G1 X136.52 Y95.234 E23.61466
G1 X136.815 Y95.398 E23.62588
G1 X137.506 Y96.373 E23.66563
G1 X137.759 Y96.664 E23.67846
G1 X138.055 Y96.823 E23.68963
G1 X138.376 Y96.91 E23.70069
G1 X138.758 Y96.918 E23.7134
G1 X139.081 Y96.852 E23.72437
G1 X143.411 Y95.643 E23.87389
G1 X143.669 Y95.549 E23.88302
G1 X143.984 Y95.373 E23.89503
G1 X144.194 Y95.194 E23.9042
G1 X144.542 Y94.811 E23.92142
G1 X145.407 Y94.365 E23.95378
G1 X146.291 Y94.268 E23.98336
G1 X147.319 Y94.563 E24.01893
G1 X147.614 Y94.725 E24.03013
G1 X148.337 Y95.74 E24.07158
G1 X148.487 Y96.509 E24.09764
G1 X148.489 Y111.654 E24.60136
G1 X148.473 Y115.339 E24.72393
G1 X148.367 Y116.087 E24.74905
G1 X147.687 Y117.014 E24.78729
G1 X147.4 Y117.226 E24.79916
G1 X146.432 Y117.567 E24.83329
G1 X145.533 Y117.521 E24.86323
G1 X144.658 Y117.127 E24.89515
G1 X144.41 Y117.039 E24.9039
G1 X144.146 Y116.979 E24.91291
G1 X143.803 Y116.962 E24.92433
G1 X139.277 Y116.968 E25.07486
G1 X138.958 Y117.045 E25.08578
G1 X138.732 Y117.142 E25.09396
G1 X138.377 Y117.447 E25.10953
G1 X138.172 Y117.79 E25.12282
G1 X138.099 Y118.231 E25.13768
G1 X138.1 Y120.569 E25.21545
G1 X138.167 Y120.862 E25.22544
G1 X138.309 Y121.21 E25.23794
G1 X138.564 Y121.463 E25.24989
G1 X138.753 Y121.587 E25.25741
G1 X139.057 Y121.706 E25.26827
G1 X139.337 Y121.757 E25.27773
G1 X143.911 Y121.761 E25.42987
G1 X144.224 Y121.729 E25.44033
G1 X144.543 Y121.649 E25.45127
G1 X145.529 Y121.204 E25.48725
G1 X146.434 Y121.157 E25.51739
G1 X147.39 Y121.49 E25.55106
G1 X147.68 Y121.705 E25.56307
G1 X148.362 Y122.632 E25.60134
G1 X148.478 Y123.427 E25.62807
G1 X148.486 Y142.207 E26.25269
G1 X148.336 Y142.979 E26.27885
G1 X147.674 Y143.915 E26.31698
G1 X147.35 Y144.146 E26.33021
G1 X146.293 Y144.458 E26.36687
G1 X145.406 Y144.351 E26.39659
G1 X144.544 Y143.919 E26.42865
G1 X144.064 Y143.4 E26.45217
G1 X143.78 Y143.234 E26.46311
G1 X143.468 Y143.097 E26.47444
G1 X139.016 Y141.857 E26.62815
G1 X138.607 Y141.781 E26.64199
G1 X138.256 Y141.826 E26.65376
G1 X137.831 Y142.018 E26.66927
G1 X137.575 Y142.245 E26.68065
G1 X136.891 Y143.221 E26.72029
G1 X136.64 Y143.448 E26.73155
G1 X135.499 Y143.784 E26.77111
G1 X135.105 Y143.741 E26.78429
G1 X135.008 Y144.546 E26.81126
G1 X134.578 Y145.403 E26.84315
G1 X134.182 Y145.761 E26.8609
G1 X134.011 Y145.965 E26.86976
G1 X133.882 Y146.186 E26.87827
G1 X133.756 Y146.473 E26.88869
G1 X132.467 Y151.114 E27.0489
G1 X132.453 Y151.439 E27.05972
G1 X132.5 Y151.809 E27.07212
G1 X132.703 Y152.147 E27.08523
G1 X132.933 Y152.398 E27.09656
G1 X133.88 Y153.064 E27.13506
G1 X134.105 Y153.314 E27.14625
G1 X134.441 Y154.453 E27.18575
G1 X134.345 Y155.336 E27.21529
G1 X133.927 Y156.161 E27.24605
G1 X133.717 Y156.394 E27.25648
G1 X132.923 Y156.905 E27.28789
G1 X132.127 Y157.047 E27.31478
G1 X131.202 Y157.056 E27.34555
G1 X130.943 Y157.101 E27.35429
G1 X130.656 Y157.191 E27.3643
G1 X130.429 Y157.422 E27.37507
G1 X130.226 Y157.458 E27.38193
G1 X89.813 Y157.458 E28.72607
G1 X89.597 Y157.409 E28.73343
G1 X89.381 Y157.186 E28.74376
G1 X89.165 Y157.114 E28.75133
G1 X88.889 Y157.064 E28.76066
G1 X87.767 Y157.033 E28.79799
G1 X87.114 Y156.906 E28.82012
G1 X86.325 Y156.397 E28.85135
G1 X86.117 Y156.167 E28.86166
G1 X85.695 Y155.336 E28.89266
G1 X85.598 Y154.462 E28.92191
G1 X85.892 Y153.436 E28.95741
G1 X86.057 Y153.133 E28.96888
G1 X87.137 Y152.376 E29.01275
G1 X87.36 Y152.124 E29.02394
G1 X87.551 Y151.705 E29.03926
G1 X87.581 Y151.223 E29.05532
G1 X87.511 Y150.882 E29.0669
G1 X86.233 Y146.323 E29.22438
G1 X86.064 Y146.018 E29.23597
G1 X85.863 Y145.761 E29.24682
G1 X85.472 Y145.413 E29.26423
G1 X85.022 Y144.542 E29.29684
G1 X84.958 Y143.957 E29.31642
G1 X84.511 Y144.006 E29.33137
G1 X83.476 Y143.71 E29.36718
G1 X83.18 Y143.546 E29.37843
G1 X82.508 Y142.587 E29.41738
G1 X82.257 Y142.289 E29.43034
G1 X81.95 Y142.119 E29.44201
G1 X81.706 Y142.044 E29.4505
G1 X81.299 Y142.017 E29.46407
G1 X80.936 Y142.091 E29.47639
G1 X76.59 Y143.303 E29.62645
G1 X76.314 Y143.406 E29.63625
G1 X76.065 Y143.543 E29.6457
G1 X75.814 Y143.738 E29.65627
G1 X75.459 Y144.132 E29.67391
G1 X74.592 Y144.582 E29.7064
G1 X73.709 Y144.68 E29.73595
G1 X72.685 Y144.386 E29.77139
G1 X72.386 Y144.222 E29.78273
G1 X71.664 Y143.206 E29.82418
G1 X71.514 Y142.438 E29.85021
G1 X71.512 Y127.293 E30.35394
G1 X71.528 Y123.608 E30.4765
G1 X71.634 Y122.86 E30.50163
G1 X72.314 Y121.933 E30.53987
G1 X72.601 Y121.721 E30.55173
G1 X73.569 Y121.38 E30.58587
G1 X74.467 Y121.426 E30.61578
G1 X75.49 Y121.886 E30.65308
G1 X75.865 Y121.968 E30.66585
G1 X76.217 Y121.985 E30.67757
G1 X80.623 Y121.979 E30.82411
G1 X80.941 Y121.942 E30.83476
G1 X81.24 Y121.818 E30.84553
G1 X81.604 Y121.523 E30.86111
G1 X81.754 Y121.29 E30.87033
G1 X81.852 Y121.027 E30.87966
G1 X81.902 Y120.782 E30.88798
G1 X81.907 Y118.507 E30.96365
G1 X81.83 Y118.07 E30.97841
G1 X81.737 Y117.851 E30.98632
G1 X81.588 Y117.634 E30.99507
G1 X81.243 Y117.355 E31.00983
G1 X80.936 Y117.228 E31.02088
G1 X80.532 Y117.19 E31.03438
G1 X75.962 Y117.186 E31.18638
G1 X75.485 Y117.284 E31.20257
G1 X74.47 Y117.743 E31.23962
G1 X73.567 Y117.79 E31.2697
G1 X72.611 Y117.457 E31.30337
G1 X72.321 Y117.242 E31.31538
G1 X71.639 Y116.315 E31.35365
G1 X71.523 Y115.52 E31.38038
G1 X71.515 Y96.74 E32.005
G1 X71.665 Y95.968 E32.03116
G1 X72.327 Y95.032 E32.06929
G1 X72.651 Y94.801 E32.08252
G1 X73.708 Y94.489 E32.11918
G1 X74.595 Y94.596 E32.1489
G1 X75.439 Y95.019 E32.18029
G1 X75.842 Y95.45 E32.19992
G1 X76.221 Y95.714 E32.21528
G1 X76.538 Y95.853 E32.2268
G1 X81.014 Y97.097 E32.38131
G1 X81.403 Y97.167 E32.39446
G1 X81.747 Y97.122 E32.406
G1 X82.174 Y96.926 E32.42162
G1 X82.426 Y96.702 E32.43284
G1 X83.114 Y95.723 E32.47263
G1 X83.364 Y95.498 E32.48382
G1 X84.504 Y95.165 E32.52332
G1 X85.388 Y95.26 E32.55289
G1 X86.21 Y95.677 E32.58355
G1 X86.443 Y95.887 E32.59398
G1 X86.954 Y96.681 E32.62539
G1 X87.096 Y97.479 E32.65235
G1 X87.105 Y98.517 E32.68687
G1 X87.243 Y98.955 E32.70215
G1 X87.472 Y99.184 E32.71292
G1 X87.507 Y99.385 E32.7197
G1 X87.506 Y103.411 E32.85361
G1 X88.6 Y103.411 E32.88999
G1 X88.6 Y101.49 E32.95389
G1 X88.686 Y101.242 E32.96262
G1 X88.892 Y100.981 E32.97368
G1 X89.238 Y100.812 E32.98648
G1 X99.664 Y100.811 E33.33325
G1 X100.033 Y101.105 E33.34895
G1 X100.2 Y101.45 E33.36169
G1 X100.2 Y103.411 E33.42692
G1 X102.273 Y103.411 E33.49587
G1 X102.2 Y103.169 E33.50427
G1 X102.2 Y95.3 E33.766
G1 X86.936 Y95.3 E34.27368
G1 X86.567 Y95.006 E34.28937
G1 X86.4 Y94.661 E34.30212
G1 X86.4 Y64.808 E35.29504
G1 X86.589 Y64.415 E35.30954
G10
G0 F9000 X89 Y63.969
G11
