;FLAVOR:Marlin
;TIME:235
;Filament used: 0.100973m
;Layer height: 0.2
;MINX:103.641
;MINY:105.706
;MINZ:0.24
;MAXX:117.525
;MAXY:114.294
;MAXZ:7.44
;TARGET_MACHINE.NAME:Creality Ender-3 S1
;POSTPROCESSED
;  [CreateThumbnail]
;  [CreateThumbnail]
;  [KlipperPreprocessor]
;Generated with Cura_SteamEngine 5.6.0
;
;

;
;

M82 ;absolute extrusion mode
;Nozzle diameter = 0.4
;Filament type = PLA
;Filament name = PLA
;Filament weight = [0.30115567199707033]
; M190 S50
; M109 S200
M140 S0
M104 S0
START_PRINT EXTRUDER_TEMP=200 BED_TEMP=50
G92 E0
G92 E0
G10
;LAYER_COUNT:32
;LAYER:-5
M106 S255
G0 F15000 X104.284 Y106.262 Z0.24
;TYPE:SUPPORT-INTERFACE
G11
G1 F1309.8 X104.51 Y106.11 E0.02174
G1 X104.827 Y105.966 E0.04953
G1 X105.212 Y105.903 E0.08067
G1 X105.717 Y105.791 E0.12197
G1 X106.127 Y105.716 E0.15524
G1 X106.333 Y105.706 E0.1717
G1 X108.152 Y105.707 E0.3169
G1 X108.605 Y105.736 E0.35313
G1 X109.302 Y105.947 E0.41127
G1 X110.015 Y106.077 E0.46912
G1 X110.642 Y106.111 E0.51924
G1 X110.962 Y106.109 E0.54479
G1 X111.639 Y106.059 E0.59897
G1 X112 Y105.971 E0.62864
G1 X112.018 Y105.983 E0.63036
G1 X112.42 Y105.904 E0.66307
G1 X112.62 Y105.878 E0.67916
G1 X112.957 Y105.854 E0.70613
G1 X113.185 Y105.854 E0.72433
G1 X113.605 Y105.882 E0.75793
G1 X114.775 Y106.165 E0.85402
G1 X115.173 Y106.31 E0.88783
G1 X115.413 Y106.428 E0.90918
G1 X115.699 Y106.611 E0.93629
G1 X116.135 Y106.993 E0.98256
G1 X116.69 Y107.581 E1.0471
G1 X116.918 Y107.856 E1.07562
G1 X117.142 Y108.218 E1.1096
G1 X117.335 Y108.631 E1.14599
G1 X117.408 Y109.06 E1.18072
G1 X117.511 Y110.046 E1.25986
G1 X117.525 Y110.383 E1.28678
G1 X117.513 Y110.583 E1.30278
G1 X117.418 Y110.994 E1.33645
G1 X117.299 Y111.326 E1.3646
G1 X117.107 Y111.704 E1.39844
G1 X116.812 Y112.194 E1.4441
G1 X116.569 Y112.538 E1.47772
G1 X116.414 Y112.719 E1.49674
G1 X116.164 Y112.982 E1.52571
G1 X115.94 Y113.189 E1.55005
G1 X115.594 Y113.452 E1.58475
G1 X115.371 Y113.587 E1.60555
G1 X115.059 Y113.732 E1.63302
G1 X113.813 Y114.135 E1.73755
G1 X113.526 Y114.17 E1.76063
G1 X113.266 Y114.154 E1.78142
G1 X113.113 Y114.131 E1.79377
G1 X112.235 Y114.064 E1.86406
G1 X111.772 Y113.97 E1.90178
G1 X110.814 Y113.891 E1.97851
G1 X110.569 Y113.892 E1.99807
G1 X109.887 Y113.942 E2.05265
G1 X109.014 Y114.139 E2.12409
G1 X108.754 Y114.217 E2.14576
G1 X108.37 Y114.285 E2.17689
G1 X108.168 Y114.294 E2.19303
G1 X106.351 Y114.294 E2.33807
G1 X105.936 Y114.266 E2.37127
G1 X105.235 Y114.109 E2.42861
G1 X104.882 Y114.049 E2.4572
G1 X104.632 Y113.954 E2.47855
G1 X104.318 Y113.769 E2.50764
G1 X104.086 Y113.546 E2.53332
G1 X103.905 Y113.286 E2.55861
G1 X103.785 Y113.005 E2.583
G1 X103.708 Y112.584 E2.61717
G1 X103.683 Y111.869 E2.67428
G1 X103.651 Y111.443 E2.70838
G1 X103.651 Y111.095 E2.73616
G1 X103.726 Y110.423 E2.79013
G1 X103.726 Y109.674 E2.84992
G1 X103.681 Y109.449 E2.86823
G1 X103.693 Y109.435 E2.86971
G1 X103.646 Y108.974 E2.9067
G1 X103.641 Y108.763 E2.92354
G1 X103.657 Y108.415 E2.95135
G1 X103.693 Y107.968 E2.98715
G1 X103.7 Y107.621 E3.01485
G1 X103.737 Y107.162 E3.05161
G1 X103.87 Y106.797 E3.08262
G1 X104.05 Y106.5 E3.11034
G1 X104.284 Y106.262 E3.13699
G0 F15000 X104.424 Y106.687
G1 F1309.8 X111.262 Y113.525 E3.90892
G0 F15000 X109.168 Y113.693
G1 F1309.8 X104.05 Y108.575 E4.48668
G0 F15000 X104.078 Y110.866
G1 F1309.8 X107.104 Y113.892 E4.82828
G0 F15000 X113.738 Y113.738
G1 F1309.8 X106.123 Y106.123 E5.68793
G0 F15000 X108.386 Y106.123
G1 F1309.8 X115.376 Y113.113 E6.47702
G0 F15000 X116.485 Y111.959
G1 F1309.8 X111.03 Y106.505 E7.09277
G0 F15000 X113.038 Y106.249
G1 F1309.8 X117.121 Y110.333 E7.55376
M104 S200
G0 F600 X117.121 Y110.333 Z0.54
G0 F15000 X117.102 Y110.585
;TIME_ELAPSED:9.701306
;LAYER:-4
;TYPE:SUPPORT
G1 F1335.3 X114.049 Y113.638 E7.98457
G0 F15000 X114.909 Y113.361
G1 F1335.3 X115.191 Y113.229 E8.01563
G1 X115.481 Y113.043 E8.05001
G1 X115.66 Y112.902 E8.07275
G1 X115.891 Y112.688 E8.10417
G1 X116.248 Y112.298 E8.15692
G1 X116.468 Y111.986 E8.19502
G1 X116.765 Y111.492 E8.25253
G1 X116.93 Y111.169 E8.28872
G1 X117.038 Y110.87 E8.32044
G1 X117.127 Y110.476 E8.36075
G1 X117.113 Y110.095 E8.39879
G1 X117.024 Y109.249 E8.48367
G1 X112.588 Y113.685 E9.10964
G1 X112.288 Y113.667 E9.13962
G1 X111.379 Y113.48 E9.23222
G1 X116.672 Y108.187 E9.97912
G1 X116.401 Y107.859 E10.02158
G1 X116.006 Y107.439 E10.07911
G1 X109.923 Y113.522 E10.93748
G1 X108.899 Y113.754 E11.04225
G1 X108.685 Y113.821 E11.06462
G1 X108.108 Y113.922 E11.12307
G1 X115.24 Y106.79 E12.12947
G1 X115.006 Y106.672 E12.15562
G1 X114.761 Y106.581 E12.1817
G1 X114.191 Y106.425 E12.24067
G1 X106.724 Y113.892 E13.29434
G1 X106.341 Y113.892 E13.33256
G1 X105.999 Y113.871 E13.36675
G1 X105.455 Y113.748 E13.4224
G1 X112.949 Y106.253 E14.47995
G1 X112.586 Y106.278 E14.51626
G1 X111.681 Y106.458 E14.60833
G1 X111.303 Y106.485 E14.64614
G1 X104.443 Y113.345 E15.61416
G1 X104.273 Y113.112 E15.64294
G1 X104.176 Y112.902 E15.66602
G1 X104.104 Y112.526 E15.70422
G1 X104.096 Y112.277 E15.72908
G1 X109.909 Y106.464 E16.54936
G1 X109.223 Y106.338 E16.61895
G1 X108.76 Y106.199 E16.66719
G1 X104.076 Y110.884 E17.32822
G1 X104.127 Y110.425 E17.3743
G1 X104.13 Y109.691 E17.44754
G1 X104.098 Y109.448 E17.472
G1 X107.439 Y106.106 E17.94352
G1 X106.219 Y106.106 E18.06525
G1 X105.983 Y106.148 E18.08917
G1 X104.088 Y108.043 E18.35657
G1 X104.1 Y107.615 E18.3993
G1 X104.129 Y107.246 E18.43623
G1 X104.231 Y106.968 E18.46578
G1 X104.351 Y106.771 E18.48879
G1 X104.516 Y106.594 E18.51294
G1 X104.713 Y106.455 E18.53699
G1 X104.937 Y106.354 E18.56151
G1 X105.3 Y106.29 E18.59829
G1 X105.776 Y106.185 E18.64693
G0 F600 X105.776 Y106.185 Z0.74
G0 F15000 X105.212 Y113.697
;TIME_ELAPSED:15.508304
;LAYER:-3
;TYPE:SUPPORT-INTERFACE
G1 F2964.1 X104.119 Y112.604 E18.69834
G1 X104.176 Y112.902 E18.70843
G1 X104.273 Y113.112 E18.71612
G1 X104.407 Y113.296 E18.7237
G1 X104.593 Y113.468 E18.73212
G1 X104.785 Y113.583 E18.73957
G1 X105.023 Y113.667 E18.74796
G1 X105.3 Y113.712 E18.75729
G1 X105.937 Y113.856 E18.77901
G1 X104.086 Y112.006 E18.86606
G1 X104.05 Y111.403 E18.88615
G1 X106.539 Y113.892 E19.00322
G1 X107.104 Y113.892 E19.02202
G1 X104.077 Y110.865 E19.1644
G1 X104.135 Y110.358 E19.18137
G1 X107.67 Y113.892 E19.34762
G1 X108.236 Y113.892 E19.36645
G1 X104.144 Y109.801 E19.5589
G1 X104.063 Y109.154 E19.58059
G1 X108.707 Y113.798 E19.79902
G1 X109.167 Y113.692 E19.81473
G1 X104.052 Y108.577 E20.05532
G1 X104.086 Y108.046 E20.07302
G1 X109.629 Y113.588 E20.33372
G1 X109.826 Y113.544 E20.34043
G1 X110.128 Y113.522 E20.3505
G1 X104.108 Y107.502 E20.63367
G1 X104.129 Y107.246 E20.64221
G1 X104.206 Y107.034 E20.64971
G1 X110.646 Y113.475 E20.95265
G1 X111.192 Y113.52 E20.97087
G1 X111.202 Y113.465 E20.97273
G1 X104.408 Y106.671 E21.2923
G1 X104.739 Y106.436 E21.3058
G1 X111.887 Y113.584 E21.64202
G1 X112.288 Y113.667 E21.65564
G1 X112.551 Y113.682 E21.66441
G1 X105.18 Y106.312 E22.01109
G1 X105.648 Y106.214 E22.02699
G1 X113.154 Y113.719 E22.38003
G1 X113.364 Y113.733 E22.38703
G1 X113.364 Y113.788 E22.38886
G1 X113.738 Y113.738 E22.40141
G1 X106.106 Y106.106 E22.7604
G1 X106.672 Y106.106 E22.77922
G1 X114.165 Y113.6 E23.13169
G1 X114.594 Y113.463 E23.14667
G1 X107.237 Y106.106 E23.49272
G1 X107.803 Y106.106 E23.51155
G1 X115.03 Y113.333 E23.85148
G1 X115.374 Y113.111 E23.8651
G1 X108.383 Y106.121 E24.19391
G1 X108.525 Y106.129 E24.19864
G1 X109.143 Y106.314 E24.2201
G1 X115.696 Y112.868 E24.52835
G1 X115.985 Y112.591 E24.54167
G1 X109.863 Y106.469 E24.82963
G1 X110.461 Y106.501 E24.84955
G1 X116.252 Y112.292 E25.12194
G1 X116.485 Y111.959 E25.13546
G1 X111.03 Y106.505 E25.39202
G1 X111.558 Y106.467 E25.40962
G1 X116.698 Y111.606 E25.65137
G1 X116.896 Y111.239 E25.66524
G1 X112.043 Y106.387 E25.89349
G1 X112.515 Y106.292 E25.9095
G1 X117.048 Y110.826 E26.12274
G1 X117.152 Y110.364 E26.13849
G1 X113.029 Y106.241 E26.33243
G1 X113.637 Y106.283 E26.3527
G1 X117.074 Y109.721 E26.51439
G1 X117.005 Y109.086 E26.53563
G1 X114.399 Y106.479 E26.65823
G1 X114.761 Y106.581 E26.67074
G1 X115.006 Y106.672 E26.67943
G1 X115.21 Y106.771 E26.68698
G1 X115.467 Y106.937 E26.69715
G1 X115.721 Y107.155 E26.70829
G1 X115.92 Y107.345 E26.71744
G1 X116.401 Y107.859 E26.74085
G1 X116.622 Y108.137 E26.75266
G1 X115.343 Y106.857 E26.81285
G0 F600 X115.343 Y106.857 Z0.94
G0 F15000 X104.937 Y106.354
;TIME_ELAPSED:23.866131
;LAYER:-2
;TYPE:SUPPORT-INTERFACE
G1 F2955.9 X104.713 Y106.455 E26.82102
G1 X104.516 Y106.594 E26.82904
G1 X104.351 Y106.771 E26.83709
G1 X104.231 Y106.968 E26.84476
G1 X104.129 Y107.246 E26.85461
G1 X104.113 Y107.452 E26.86148
G1 X105.27 Y106.295 E26.9159
G1 X105.983 Y106.148 E26.94011
G1 X104.088 Y108.043 E27.02925
G1 X104.047 Y108.649 E27.04945
G1 X106.591 Y106.106 E27.16909
G1 X107.157 Y106.106 E27.18791
G1 X104.067 Y109.195 E27.33324
G1 X104.13 Y109.698 E27.3501
G1 X107.722 Y106.106 E27.51905
G1 X108.281 Y106.113 E27.53765
G1 X104.147 Y110.247 E27.7321
G1 X104.076 Y110.884 E27.75342
G1 X108.76 Y106.199 E27.97376
G1 X109.195 Y106.33 E27.98887
G1 X104.054 Y111.471 E28.23069
G1 X104.087 Y112.004 E28.24845
G1 X109.67 Y106.42 E28.51108
G1 X109.963 Y106.474 E28.52099
G1 X110.172 Y106.485 E28.52795
G1 X104.109 Y112.548 E28.81313
G1 X104.199 Y113.023 E28.82921
G1 X110.713 Y106.51 E29.13559
G1 X110.971 Y106.509 E29.14417
G1 X111.303 Y106.485 E29.15524
G1 X104.422 Y113.366 E29.4789
G1 X104.776 Y113.578 E29.49263
G1 X111.949 Y106.404 E29.83005
G1 X112.655 Y106.264 E29.85398
G1 X105.22 Y113.699 E30.2037
G1 X105.685 Y113.8 E30.21953
G1 X113.23 Y106.255 E30.57442
G1 X113.523 Y106.275 E30.58419
G1 X113.733 Y106.318 E30.59132
G1 X106.159 Y113.892 E30.94758
G1 X106.724 Y113.892 E30.96637
G1 X114.191 Y106.425 E31.3176
G1 X114.637 Y106.545 E31.33296
G1 X107.29 Y113.892 E31.67854
G1 X107.855 Y113.892 E31.69733
G1 X115.068 Y106.68 E32.03658
G1 X115.412 Y106.901 E32.05018
G1 X108.451 Y113.863 E32.37763
G1 X108.685 Y113.821 E32.38554
G1 X108.899 Y113.754 E32.393
G1 X109.191 Y113.688 E32.40295
G1 X115.723 Y107.156 E32.7102
G1 X116.006 Y107.439 E32.72351
G1 X109.907 Y113.538 E33.01039
G1 X110.516 Y113.494 E33.0307
G1 X116.289 Y107.722 E33.30222
G1 X116.543 Y108.033 E33.31557
G1 X111.066 Y113.51 E33.57319
G1 X111.192 Y113.52 E33.5774
G1 X111.205 Y113.444 E33.57996
G1 X111.613 Y113.528 E33.59382
G1 X116.77 Y108.371 E33.83639
G1 X116.871 Y108.572 E33.84387
G1 X116.944 Y108.764 E33.8507
G1 X112.082 Y113.625 E34.07937
G1 X112.288 Y113.667 E34.08636
G1 X112.588 Y113.685 E34.09636
G1 X117.024 Y109.249 E34.30502
G1 X117.078 Y109.761 E34.32214
G1 X113.12 Y113.719 E34.50831
G1 X113.364 Y113.733 E34.51644
G1 X113.364 Y113.788 E34.51827
G1 X113.653 Y113.751 E34.52796
G1 X117.12 Y110.285 E34.69101
G1 X117.127 Y110.476 E34.69737
G1 X117.02 Y110.95 E34.71353
G1 X114.466 Y113.504 E34.83366
G1 X114.909 Y113.361 E34.84915
G1 X115.191 Y113.229 E34.8595
G1 X115.514 Y113.022 E34.87226
G1 X116.271 Y112.265 E34.90787
G1 X116.116 Y112.451 E34.91592
G1 X115.891 Y112.688 E34.92679
G1 X115.66 Y112.902 E34.93727
G0 F600 X115.66 Y112.902 Z1.14
G0 F15000 X105.5 Y107.69
;TIME_ELAPSED:32.225712
;LAYER:-1
;TYPE:SUPPORT
G1 F1000.1 X105.794 Y107.685 E34.94705
G1 X106.291 Y107.585 E34.96391
G1 X106.337 Y107.506 E34.96695
G1 X108.145 Y107.507 E35.02708
G1 X108.193 Y107.596 E35.03045
G1 F973.3 X108.836 Y107.816 E35.05367
G1 F919.6 X108.853 Y107.833 E35.05454
G1 F785.9 X109.124 Y107.948 E35.067
G1 F713.1 X109.469 Y107.975 E35.08314
G1 F732.6 X109.913 Y107.987 E35.10331
G1 F735.3 X111.381 Y107.978 E35.16971
G1 F716.9 X111.904 Y107.952 E35.19401
G1 F826.5 X112.339 Y107.786 E35.21275
G1 F1000.1 X112.846 Y107.653 E35.23018
G1 X113.347 Y107.654 E35.24684
G1 X113.831 Y107.788 E35.26355
G1 X114.288 Y107.893 E35.27914
G1 X114.574 Y108.01 E35.28942
G1 X114.85 Y108.251 E35.30161
G1 X115.469 Y108.913 E35.33175
G1 X115.61 Y109.164 E35.34133
G1 X115.733 Y110.34 E35.38065
G1 X115.648 Y110.637 E35.39093
G1 X115.195 Y111.388 E35.4201
G1 X114.865 Y111.736 E35.43605
G1 X114.636 Y111.939 E35.44623
G1 X114.398 Y112.068 E35.45523
G1 X113.797 Y112.223 E35.47588
G1 X113.502 Y112.313 E35.48613
G1 X113.412 Y112.367 E35.48962
G1 X112.757 Y112.228 E35.51189
G1 F898.9 X112.477 Y112.079 E35.52363
G1 F766.3 X111.774 Y112.031 E35.55422
G1 F728.6 X111.267 Y112.016 E35.57737
G1 F731.3 X109.662 Y112.025 E35.65037
G1 F722.1 X109.306 Y112.037 E35.66678
G1 F706.8 X109.056 Y112.057 E35.67858
G1 F759.1 X108.856 Y112.141 E35.68809
G1 F854.8 X108.835 Y112.159 E35.68917
G1 F907.1 X108.188 Y112.377 E35.7142
G1 F968.6 X108.128 Y112.494 E35.71872
G1 F1000.1 X106.331 Y112.494 E35.77848
G1 X106.287 Y112.421 E35.78132
G1 X105.697 Y112.312 E35.80128
G1 X105.497 Y112.309 E35.80793
G1 X105.494 Y111.97 E35.8192
G1 X105.454 Y111.401 E35.83818
G1 X108.109 Y111.4 E35.92648
G1 F936.8 X108.732 Y111.428 E35.94862
G1 F778.3 X109.005 Y111.488 E35.96057
G1 F706.8 X109.276 Y111.479 E35.97333
G1 F726 X111.252 Y111.472 E36.06386
G1 F710.5 X112.445 Y111.495 E36.11972
G1 F814.7 X113.018 Y111.362 E36.14374
G1 F1000.1 X113.1 Y111.2 E36.14978
G1 X113.101 Y108.737 E36.2317
G1 X112.979 Y108.6 E36.2378
G1 X112.412 Y108.599 E36.25666
G1 F826.5 X111.958 Y108.516 E36.27523
G1 F716.9 X111.418 Y108.526 E36.30029
G1 F734 X109.927 Y108.529 E36.36786
G1 F719.5 X109.071 Y108.514 E36.40744
G1 F804.9 X108.727 Y108.589 E36.42199
G1 F973.3 X108.349 Y108.599 E36.43491
G1 F1000.1 X105.448 Y108.6 E36.5314
G1 X105.479 Y108.343 E36.54001
G1 X105.5 Y107.69 E36.56174
G0 F15000 X105.633 Y108
G1 F1000.1 X108.842 Y108 E36.66847
G1 X108.8 Y107.973
G1 X108.8 Y108.411 E36.68304
G0 F15000 X108 Y108.46
G1 F1000.1 X108 Y107.647 E36.71008
G0 F15000 X107.2 Y107.647
G1 F1000.1 X107.2 Y108.46 E36.73712
G0 F15000 X106.4 Y108.46
G1 F1000.1 X106.4 Y107.647 E36.76416
G10
G0 F15000 X106.4 Y106.641
G0 X105.547 Y106.653
G0 X104.656 Y106.842
G0 X104.487 Y109.451
G0 X106.4 Y110.535
G0 X106.4 Y111.54
G11
G1 F1000.1 X106.4 Y112.354 E36.79123
G0 F15000 X107.2 Y112.354
G1 F1000.1 X107.2 Y111.54 E36.81831
G0 F15000 X108 Y111.54
G1 F1000.1 X108 Y112.354 E36.84538
G0 F15000 X108.782 Y112
G1 F1000.1 X105.635 Y112 E36.95005
G10
G0 F15000 X105.547 Y113.162
G0 X108.953 Y113.347
G0 X108.956 Y113.046
G0 X108.8 Y111.994
G11
G1 F1000.1 X108.8 Y111.621 E36.96246
G0 F15000 X109.6 Y111.691
G1 F1000.1 X109.6 Y111.813 E36.96651
G0 F15000 X110.4 Y111.808
G1 F1000.1 X110.4 Y111.687 E36.97054
G0 F15000 X111.2 Y111.684
G1 F1000.1 X111.2 Y111.805 E36.97456
G0 F15000 X112 Y111.832
G1 F1000.1 X112 Y111.704 E36.97882
G0 F15000 X112.656 Y112
G1 F1000.1 X114.099 Y112 E37.02681
G0 F15000 X114.4 Y111.908
G1 F1000.1 X114.4 Y108.091 E37.15377
G0 F15000 X114.127 Y108
G1 F1000.1 X112.229 Y108 E37.2169
G0 F15000 X112 Y108.136
G1 F1000.1 X112 Y108.31 E37.22268
G0 F15000 X111.2 Y108.314
G1 F1000.1 X111.2 Y108.193 E37.22671
G0 F15000 X110.4 Y108.196
G1 F1000.1 X110.4 Y108.317 E37.23073
G10
G0 F15000 X112.8 Y108.459
G11
G1 F1000.1 X112.8 Y107.805 E37.25248
G0 F15000 X113.6 Y107.87
G1 F1000.1 X113.6 Y112.137 E37.39441
G0 F15000 X112.8 Y112.093
G1 F1000.1 X112.8 Y111.556 E37.41227
G0 F15000 X113.238 Y111.2
G1 F1000.1 X115.144 Y111.2 E37.47566
G1 X115.2 Y111.109
G1 X115.2 Y108.83 E37.55146
G1 X115.173 Y108.8
G1 X113.24 Y108.8 E37.61575
G0 F15000 X113.24 Y109.6
G1 F1000.1 X115.516 Y109.6 E37.69145
G0 F15000 X115.569 Y110.4
G1 F1000.1 X113.24 Y110.4 E37.76891
G10
G0 F600 X113.24 Y110.4 Z1.34
G0 F15000 X112.235 Y110.4
G0 X104.487 Y109.451
G0 X104.656 Y106.842
G0 X105.547 Y106.836
G0 X105.5 Y107.69
;TIME_ELAPSED:40.748180
;LAYER:0
;TYPE:SUPPORT
G11
G1 F1198.4 X105.794 Y107.685 E37.77869
G1 X106.291 Y107.585 E37.79556
G1 X106.337 Y107.506 E37.7986
