;FLAVOR:Marlin
;TIME:305
;Filament used: 0.0667894m
;Layer height: 0.1
;MINX:94.363
;MINY:87.782
;MINZ:0.2
;MAXX:126.16
;MAXY:132.203
;MAXZ:1.3
;TARGET_MACHINE.NAME:Creality Ender-3 S1
;POSTPROCESSED
;  [CreateThumbnail]
;  [CreateThumbnail]
;  [KlipperPreprocessor]
;Generated with Cura_SteamEngine 5.7.1
;
;

;
;

M82 ;absolute extrusion mode
;Nozzle diameter = 0.4
;Filament type = PLA
;Filament name = PLA
;Filament weight = [0.19920271911621093]
; M190 S50
; M109 S200
M140 S0
M104 S0
START_PRINT EXTRUDER_TEMP=200 BED_TEMP=50
G92 E0
G92 E0
G10
;LAYER_COUNT:12
;LAYER:0
M107
G0 F9000 X96.917 Y91.249 Z0.2
;TYPE:SKIRT
G11
G1 F3000 X97.544 Y90.599 E0.03004
G1 X98.225 Y90.006 E0.06007
G1 X98.956 Y89.476 E0.0901
G1 X99.732 Y89.013 E0.12016
G1 X100.545 Y88.62 E0.15019
G1 X101.389 Y88.3 E0.18021
G1 X102.259 Y88.057 E0.21026
G1 X103.147 Y87.891 E0.2403
G1 X104.286 Y87.795 E0.27832
G1 X104.893 Y87.782 E0.29852
G1 X108.2 Y87.782 E0.40851
G1 X109.463 Y87.799 E0.45052
G1 X115.399 Y87.804 E0.64795
G1 X116.097 Y87.814 E0.67117
G1 X116.999 Y87.867 E0.70122
G1 X117.892 Y87.999 E0.73124
G1 X118.77 Y88.21 E0.76128
G1 X119.626 Y88.498 E0.79132
G1 X120.453 Y88.86 E0.82134
G1 X121.245 Y89.295 E0.8514
G1 X121.996 Y89.797 E0.88144
G1 X122.699 Y90.364 E0.91148
G1 X123.349 Y90.991 E0.94152
G1 X123.941 Y91.673 E0.97156
G1 X124.471 Y92.404 E1.00159
G1 X124.933 Y93.18 E1.03162
G1 X125.326 Y93.993 E1.06166
G1 X125.644 Y94.838 E1.09169
G1 X125.887 Y95.708 E1.12173
G1 X126.052 Y96.596 E1.15177
G1 X126.147 Y97.726 E1.18949
G1 X126.16 Y98.333 E1.20968
G1 X126.159 Y121.407 E1.97713
G1 X126.149 Y122.134 E2.00131
G1 X126.097 Y123.036 E2.03136
G1 X125.965 Y123.929 E2.06138
G1 X125.754 Y124.808 E2.09145
G1 X125.467 Y125.664 E2.12148
G1 X125.105 Y126.491 E2.1515
G1 X124.671 Y127.283 E2.18154
G1 X124.169 Y128.034 E2.21159
G1 X123.603 Y128.737 E2.24161
G1 X122.976 Y129.388 E2.27167
G1 X122.295 Y129.98 E2.30168
G1 X121.564 Y130.51 E2.33171
G1 X120.788 Y130.973 E2.36177
G1 X119.975 Y131.366 E2.3918
G1 X119.13 Y131.686 E2.42185
G1 X118.261 Y131.929 E2.45186
G1 X117.373 Y132.094 E2.4819
G1 X116.237 Y132.19 E2.51982
G1 X115.63 Y132.203 E2.54002
G1 X112.177 Y132.202 E2.65486
G1 X111.061 Y132.186 E2.69199
G1 X105.138 Y132.181 E2.88899
G1 X104.44 Y132.172 E2.9122
G1 X103.539 Y132.121 E2.94222
G1 X102.645 Y131.989 E2.97227
G1 X101.767 Y131.78 E3.00229
G1 X100.91 Y131.493 E3.03235
G1 X100.083 Y131.132 E3.06237
G1 X99.29 Y130.699 E3.09242
G1 X98.539 Y130.198 E3.12244
G1 X97.835 Y129.632 E3.15249
G1 X97.184 Y129.006 E3.18253
G1 X96.591 Y128.325 E3.21256
G1 X96.061 Y127.594 E3.24259
G1 X95.597 Y126.819 E3.27263
G1 X95.203 Y126.006 E3.30268
G1 X94.883 Y125.162 E3.3327
G1 X94.639 Y124.292 E3.36276
G1 X94.473 Y123.404 E3.3928
G1 X94.376 Y122.246 E3.43145
G1 X94.363 Y121.637 E3.45171
G1 X94.364 Y98.519 E4.22062
G1 X94.373 Y97.853 E4.24278
G1 X94.425 Y96.952 E4.27279
G1 X94.557 Y96.058 E4.30285
G1 X94.767 Y95.18 E4.33288
G1 X95.054 Y94.324 E4.3629
G1 X95.416 Y93.496 E4.39296
G1 X95.849 Y92.704 E4.42298
G1 X96.351 Y91.953 E4.45303
G1 X96.917 Y91.249 E4.48307
G10
;MESH:Crossover Platform Front.stl
G0 F9000 X103.898 Y98.396
G0 X105.668 Y98.5
;TYPE:WALL-OUTER
G11
G1 F2948.4 X106.127 Y98.534 E4.49865
G1 F2553.2 X106.474 Y98.696 E4.51361
G1 F2459 X106.53 Y98.964 E4.52472
G1 F2977.7 X106.53 Y99.357 E4.53789
G1 F3030.3 X106.395 Y99.645 E4.54837
G1 F3000 X106.04 Y99.895 E4.56281
G1 F2955.7 X105.616 Y99.846 E4.57722
G1 F2963 X105.336 Y99.651 E4.58871
G1 F2977.7 X105.173 Y99.353 E4.60009
G1 F2912.6 X105.172 Y98.992 E4.61246
G1 F2542.4 X105.287 Y98.677 E4.62562
G1 F2489.6 X105.668 Y98.5 E4.64245
G0 F9000 X105.867 Y98.514
G0 X106.36 Y98.411
G0 X106.714 Y98.876
G0 X106.714 Y99.488
G0 X107.316 Y99.846
G1 F2985.1 X107.029 Y99.645 E4.65417
G1 F3030.3 X106.894 Y99.357 E4.66464
G1 F2977.7 X106.894 Y98.964 E4.67781
G1 F2459 X106.95 Y98.696 E4.68892
G1 F2352.9 X107.367 Y98.5 E4.70846
G1 F2884.6 X107.826 Y98.534 E4.72438
G1 F2586.2 X108.162 Y98.69 E4.73867
G1 F2371.5 X108.271 Y98.985 E4.7519
G1 F2637.4 X108.27 Y99.339 E4.7653
G1 F2752.3 X108.086 Y99.652 E4.77846
G1 F2850.4 X107.739 Y99.895 E4.79329
G1 F2905.6 X107.316 Y99.846 E4.80791
G0 F9000 X107.152 Y99.732
G0 X106.982 Y99.978
G0 X107.21 Y100.108
G0 X107.901 Y100.091
G0 X108.276 Y100.351
G0 X108.487 Y100.755
G0 X108.487 Y101.209
G0 X108.276 Y101.613
G0 X107.801 Y101.939
G0 X107.226 Y101.873
G0 X106.922 Y101.662
G0 X106.714 Y101.368
G0 X106.894 Y101.157
G1 F3208.6 X106.894 Y100.8 E4.81901
G1 F3166.2 X107.03 Y100.515 E4.82897
G1 F3061.2 X107.382 Y100.265 E4.84304
G1 F2977.7 X107.808 Y100.314 E4.85741
G1 F2934 X108.085 Y100.507 E4.86889
G1 F2864 X108.271 Y100.822 E4.88163
G1 F2739.7 X108.27 Y101.139 E4.89318
G1 F2752.3 X108.086 Y101.452 E4.90634
G1 F2850.4 X107.739 Y101.695 E4.92117
G1 F2905.6 X107.316 Y101.646 E4.93579
G1 F3015.1 X107.029 Y101.445 E4.94739
G1 F3141.4 X106.894 Y101.157 E4.95749
G0 F9000 X106.894 Y100.957
G0 X106.395 Y101.445
G1 F3045.7 X106.04 Y101.695 E4.97172
G1 F2970.3 X105.616 Y101.646 E4.98606
G1 F2963 X105.336 Y101.451 E4.99755
G1 F2977.7 X105.173 Y101.153 E5.00893
G1 F2970.3 X105.172 Y100.815 E5.02028
G1 F2977.7 X105.334 Y100.51 E5.03186
G1 F2970.3 X105.682 Y100.265 E5.04615
G1 F2948.4 X106.108 Y100.314 E5.06066
G1 F3022.7 X106.394 Y100.514 E5.07219
G1 F3166.2 X106.53 Y100.8 E5.08217
G1 F3208.6 X106.53 Y101.157 E5.09327
G1 F3141.4 X106.395 Y101.445 E5.10337
G0 F9000 X106.232 Y101.56
G0 X106.402 Y101.808
G0 X106.201 Y101.891
G0 X105.626 Y101.825
G0 X105.151 Y102.151
G0 X104.94 Y102.555
G0 X104.94 Y103.009
G0 X105.151 Y103.413
G0 X105.605 Y103.683
G0 X105.616 Y103.446
G1 F2963 X105.336 Y103.251 E5.11486
G1 F2977.7 X105.173 Y102.953 E5.12624
G1 F2970.3 X105.172 Y102.615 E5.1376
G1 F2977.7 X105.334 Y102.31 E5.14917
G1 F2970.3 X105.682 Y102.065 E5.16347
G1 F2948.4 X106.108 Y102.114 E5.17798
G1 F3022.7 X106.394 Y102.314 E5.1895
G1 F3166.2 X106.53 Y102.6 E5.19948
G1 F3208.6 X106.53 Y102.957 E5.21058
G1 F3141.4 X106.395 Y103.245 E5.22068
G1 F3045.7 X106.04 Y103.495 E5.23491
G1 F2970.3 X105.616 Y103.446 E5.24925
G0 F9000 X105.452 Y103.332
G0 X105.334 Y104.11
G1 F2970.3 X105.682 Y103.865 E5.26354
G1 F2948.4 X106.108 Y103.914 E5.27806
G1 F3022.7 X106.394 Y104.114 E5.28958
G1 F3166.2 X106.53 Y104.4 E5.29956
G1 F3208.6 X106.53 Y104.757 E5.31066
G1 F3141.4 X106.395 Y105.045 E5.32076
G1 F3045.7 X106.04 Y105.295 E5.33499
G1 F2970.3 X105.616 Y105.246 E5.34932
G1 F2963 X105.336 Y105.051 E5.36082
G1 F2977.7 X105.173 Y104.753 E5.3722
G1 F2970.3 X105.172 Y104.415 E5.38355
G1 F2977.7 X105.334 Y104.11 E5.39512
G0 F9000 X105.497 Y103.995
G0 X105.331 Y103.752
G0 X105.585 Y103.659
G0 X106.109 Y103.712
G0 X107.842 Y103.623
G0 X107.808 Y103.914
G1 F2934 X108.085 Y104.107 E5.40661
G1 F2864 X108.271 Y104.422 E5.41935
G1 F2739.7 X108.27 Y104.739 E5.4309
G1 F2752.3 X108.086 Y105.052 E5.44406
G1 F2850.4 X107.739 Y105.295 E5.45889
G1 F2905.6 X107.316 Y105.246 E5.47351
G1 F3015.1 X107.029 Y105.045 E5.48511
G1 F3141.4 X106.894 Y104.757 E5.49521
G1 F3208.6 X106.894 Y104.4 E5.50631
G1 F3166.2 X107.03 Y104.115 E5.51626
G1 F3061.2 X107.382 Y103.865 E5.53034
G1 F2977.7 X107.808 Y103.914 E5.54471
G0 F9000 X107.971 Y104.028
G0 X108.086 Y103.252
G1 F2850.4 X107.739 Y103.495 E5.55954
G1 F2905.6 X107.316 Y103.446 E5.57416
G1 F3015.1 X107.029 Y103.245 E5.58575
G1 F3141.4 X106.894 Y102.957 E5.59586
G1 F3208.6 X106.894 Y102.6 E5.60696
G1 F3166.2 X107.03 Y102.315 E5.61691
G1 F3061.2 X107.382 Y102.065 E5.63098
G1 F2977.7 X107.808 Y102.114 E5.64535
G1 F2934 X108.085 Y102.307 E5.65683
G1 F2864 X108.271 Y102.622 E5.66958
G1 F2739.7 X108.27 Y102.939 E5.68112
G1 F2752.3 X108.086 Y103.252 E5.69429
G0 F9000 X107.923 Y103.366
G0 X108.093 Y103.614
G0 X108.487 Y104.355
G0 X108.487 Y104.809
G0 X108.276 Y105.213
G0 X107.801 Y105.539
G0 X107.226 Y105.473
G0 X106.714 Y105.996
G0 X106.894 Y106.2
G1 F3166.2 X107.03 Y105.915 E5.70424
G1 F3061.2 X107.382 Y105.665 E5.71831
G1 F2977.7 X107.808 Y105.714 E5.73268
G1 F2934 X108.085 Y105.907 E5.74416
G1 F2864 X108.271 Y106.222 E5.75691
G1 F2739.7 X108.27 Y106.539 E5.76845
G1 F2752.3 X108.086 Y106.852 E5.78162
G1 F2850.4 X107.739 Y107.095 E5.79645
G1 F2905.6 X107.316 Y107.046 E5.81107
G1 F3015.1 X107.029 Y106.845 E5.82266
G1 F3141.4 X106.894 Y106.557 E5.83277
G1 F3208.6 X106.894 Y106.2 E5.84387
G0 F9000 X106.98 Y106.02
G0 X106.714 Y105.881
G0 X106.142 Y107.223
G0 X106.108 Y107.514
G1 F3022.7 X106.394 Y107.714 E5.85539
G1 F3166.2 X106.53 Y108 E5.86537
G1 F3208.6 X106.53 Y108.357 E5.87647
G1 F3141.4 X106.395 Y108.645 E5.88658
G1 F3045.7 X106.04 Y108.895 E5.9008
G1 F2970.3 X105.616 Y108.846 E5.91514
G1 F2963 X105.336 Y108.651 E5.92663
G1 F2977.7 X105.173 Y108.353 E5.93801
G1 F2970.3 X105.172 Y108.015 E5.94936
G1 F2977.7 X105.334 Y107.71 E5.96094
G1 F2970.3 X105.682 Y107.465 E5.97523
G1 F2948.4 X106.108 Y107.514 E5.98975
G0 F9000 X106.271 Y107.628
G0 X105.616 Y107.046
G1 F2963 X105.336 Y106.851 E6.00124
G1 F2977.7 X105.173 Y106.553 E6.01262
G1 F2970.3 X105.172 Y106.215 E6.02397
G1 F2977.7 X105.334 Y105.91 E6.03555
G1 F2970.3 X105.682 Y105.665 E6.04984
G1 F2948.4 X106.108 Y105.714 E6.06435
G1 F3022.7 X106.394 Y105.914 E6.07588
G1 F3166.2 X106.53 Y106.2 E6.08586
G1 F3208.6 X106.53 Y106.557 E6.09696
G1 F3141.4 X106.395 Y106.845 E6.10706
G1 F3045.7 X106.04 Y107.095 E6.12129
G1 F2970.3 X105.616 Y107.046 E6.13562
G0 F9000 X105.452 Y106.932
G0 X105.282 Y107.178
G0 X105.151 Y107.551
G0 X104.94 Y107.955
G0 X104.94 Y108.409
G0 X105.151 Y108.813
G0 X105.526 Y109.073
G0 X106.101 Y109.139
G0 X106.765 Y108.782
G0 X107.029 Y108.645
G1 F3141.4 X106.894 Y108.357 E6.14573
G1 F3208.6 X106.894 Y108 E6.15683
G1 F3166.2 X107.03 Y107.715 E6.16678
G1 F3061.2 X107.382 Y107.465 E6.18085
G1 F2977.7 X107.808 Y107.514 E6.19522
G1 F2934 X108.085 Y107.707 E6.2067
G1 F2864 X108.271 Y108.022 E6.21945
G1 F2739.7 X108.27 Y108.339 E6.23099
G1 F2752.3 X108.086 Y108.652 E6.24416
G1 F2850.4 X107.739 Y108.895 E6.25899
G1 F2905.6 X107.316 Y108.846 E6.27361
G1 F3015.1 X107.029 Y108.645 E6.2852
G0 F9000 X106.945 Y108.464
G0 X106.673 Y108.605
G0 X106.768 Y109.378
G0 X107.03 Y109.515
G1 F3061.2 X107.382 Y109.265 E6.29928
G1 F2977.7 X107.808 Y109.314 E6.31365
G1 F2934 X108.085 Y109.507 E6.32513
G1 F2864 X108.271 Y109.822 E6.33787
G1 F2739.7 X108.27 Y110.139 E6.34942
G1 F2752.3 X108.086 Y110.452 E6.36258
G1 F2850.4 X107.739 Y110.695 E6.37741
G1 F2905.6 X107.316 Y110.646 E6.39203
G1 F3015.1 X107.029 Y110.445 E6.40363
G1 F3141.4 X106.894 Y110.157 E6.41373
G1 F3208.6 X106.894 Y109.8 E6.42483
G1 F3166.2 X107.03 Y109.515 E6.43479
G0 F9000 X107.192 Y109.4
G0 X107.025 Y109.156
G0 X106.201 Y109.091
G0 X105.626 Y109.025
G0 X105.151 Y109.351
G0 X104.94 Y109.755
G0 X104.94 Y110.209
G0 X105.165 Y110.697
G0 X105.336 Y110.451
G1 F2977.7 X105.173 Y110.153 E6.44617
G1 F2970.3 X105.172 Y109.815 E6.45752
G1 F2977.7 X105.334 Y109.51 E6.4691
G1 F2970.3 X105.682 Y109.265 E6.48339
G1 F2948.4 X106.108 Y109.314 E6.4979
G1 F3022.7 X106.394 Y109.514 E6.50942
G1 F3166.2 X106.53 Y109.8 E6.5194
G1 F3208.6 X106.53 Y110.157 E6.53051
G1 F3141.4 X106.395 Y110.445 E6.54061
G1 F3045.7 X106.04 Y110.695 E6.55483
G1 F2970.3 X105.616 Y110.646 E6.56917
G1 F2963 X105.336 Y110.451 E6.58066
G0 F9000 X105.241 Y110.276
G0 X104.977 Y110.413
G0 X104.878 Y111.615
G0 X105.172 Y111.615
G1 F2977.7 X105.334 Y111.31 E6.59224
G1 F2970.3 X105.682 Y111.065 E6.60653
G1 F2948.4 X106.108 Y111.114 E6.62104
G1 F3022.7 X106.394 Y111.314 E6.63257
G1 F3166.2 X106.53 Y111.6 E6.64255
G1 F3208.6 X106.53 Y111.957 E6.65365
G1 F3141.4 X106.395 Y112.245 E6.66375
G1 F3045.7 X106.04 Y112.495 E6.67798
G1 F2970.3 X105.616 Y112.446 E6.69231
G1 F2963 X105.336 Y112.251 E6.7038
G1 F2977.7 X105.173 Y111.953 E6.71519
G1 F2970.3 X105.172 Y111.615 E6.72654
G0 F9000 X105.265 Y111.439
G0 X105.003 Y111.302
G0 X105.151 Y111.151
G0 X105.626 Y110.825
G0 X106.201 Y110.891
G0 X106.505 Y111.102
G0 X106.714 Y111.396
G0 X106.894 Y111.6
G1 F3166.2 X107.03 Y111.315 E6.73649
G1 F3061.2 X107.382 Y111.065 E6.75056
G1 F2977.7 X107.808 Y111.114 E6.76493
G1 F2934 X108.085 Y111.307 E6.77642
G1 F2864 X108.271 Y111.622 E6.78916
G1 F2739.7 X108.27 Y111.939 E6.80071
G1 F2752.3 X108.086 Y112.252 E6.81387
G1 F2850.4 X107.739 Y112.495 E6.8287
G1 F2905.6 X107.316 Y112.446 E6.84332
G1 F3015.1 X107.029 Y112.245 E6.85492
G1 F3141.4 X106.894 Y111.957 E6.86502
G1 F3208.6 X106.894 Y111.6 E6.87612
G0 F9000 X106.98 Y111.42
G0 X106.714 Y111.281
G0 X107.326 Y110.825
G0 X107.901 Y110.891
G0 X108.276 Y111.151
G0 X108.487 Y111.555
G0 X108.487 Y113.809
G0 X108.276 Y114.213
G0 X107.801 Y114.539
G0 X107.283 Y114.48
G0 X106.765 Y114.182
G0 X107.029 Y114.045
G1 F3141.4 X106.894 Y113.757 E6.88623
G1 F3208.6 X106.894 Y113.4 E6.89733
G1 F3166.2 X107.03 Y113.115 E6.90728
G1 F3061.2 X107.382 Y112.865 E6.92135
G1 F2977.7 X107.808 Y112.914 E6.93572
G1 F2934 X108.085 Y113.107 E6.9472
G1 F2864 X108.271 Y113.422 E6.95995
G1 F2739.7 X108.27 Y113.739 E6.97149
G1 F2752.3 X108.086 Y114.052 E6.98466
G1 F2850.4 X107.739 Y114.295 E6.99948
G1 F2905.6 X107.316 Y114.246 E7.01411
G1 F3015.1 X107.029 Y114.045 E7.0257
G0 F9000 X106.945 Y113.864
G0 X106.673 Y114.005
G0 X106.659 Y114.776
G0 X106.394 Y114.914
G1 F3166.2 X106.53 Y115.2 E7.03568
G1 F3208.6 X106.53 Y115.557 E7.04679
G1 F3141.4 X106.395 Y115.845 E7.05689
G1 F3045.7 X106.04 Y116.095 E7.07111
G1 F2970.3 X105.616 Y116.046 E7.08545
G1 F2963 X105.336 Y115.851 E7.09694
G1 F2977.7 X105.173 Y115.553 E7.10832
G1 F2970.3 X105.172 Y115.215 E7.11968
G1 F2977.7 X105.334 Y114.91 E7.13125
G1 F2970.3 X105.682 Y114.665 E7.14555
G1 F2948.4 X106.108 Y114.714 E7.16006
G1 F3022.7 X106.394 Y114.914 E7.17158
G0 F9000 X106.479 Y115.094
G0 X106.751 Y114.952
G0 X106.576 Y114.751
G0 X106.201 Y114.491
G0 X105.626 Y114.425
G0 X105.165 Y114.297
G0 X105.336 Y114.051
G1 F2977.7 X105.173 Y113.753 E7.18296
G1 F2970.3 X105.172 Y113.415 E7.19432
G1 F2977.7 X105.334 Y113.11 E7.20589
G1 F2970.3 X105.682 Y112.865 E7.22019
G1 F2948.4 X106.108 Y112.914 E7.2347
G1 F3022.7 X106.394 Y113.114 E7.24622
G1 F3166.2 X106.53 Y113.4 E7.2562
G1 F3208.6 X106.53 Y113.757 E7.2673
G1 F3141.4 X106.395 Y114.045 E7.2774
G1 F3045.7 X106.04 Y114.295 E7.29163
G1 F2970.3 X105.616 Y114.246 E7.30597
G1 F2963 X105.336 Y114.051 E7.31746
G0 F9000 X105.241 Y113.876
G0 X104.977 Y114.013
G0 X104.972 Y115.105
G0 X104.94 Y115.609
G0 X105.167 Y116.465
G0 X105.334 Y116.71
G1 F2970.3 X105.682 Y116.465 E7.33175
G1 F2948.4 X106.108 Y116.514 E7.34627
G1 F3022.7 X106.394 Y116.714 E7.35779
G1 F3166.2 X106.53 Y117 E7.36777
G1 F3208.6 X106.53 Y117.357 E7.37887
G1 F3141.4 X106.395 Y117.645 E7.38897
G1 F3045.7 X106.04 Y117.895 E7.4032
G1 F2970.3 X105.616 Y117.846 E7.41753
G1 F2963 X105.336 Y117.651 E7.42903
G1 F2977.7 X105.173 Y117.353 E7.44041
G1 F2970.3 X105.172 Y117.015 E7.45176
G1 F2977.7 X105.334 Y116.71 E7.46333
G0 F9000 X105.497 Y116.595
G0 X105.331 Y116.352
G0 X105.151 Y116.551
G0 X104.961 Y116.915
G0 X104.878 Y118.815
G0 X105.172 Y118.815
G1 F2977.7 X105.334 Y118.51 E7.47491
G1 F2970.3 X105.682 Y118.265 E7.4892
G1 F2948.4 X106.108 Y118.314 E7.50372
G1 F3022.7 X106.394 Y118.514 E7.51524
G1 F3166.2 X106.53 Y118.8 E7.52522
G1 F3208.6 X106.53 Y119.157 E7.53632
G1 F3141.4 X106.395 Y119.445 E7.54642
G1 F3045.7 X106.04 Y119.695 E7.56065
G1 F2970.3 X105.616 Y119.646 E7.57498
G1 F2963 X105.336 Y119.451 E7.58648
G1 F2977.7 X105.173 Y119.153 E7.59786
G1 F2970.3 X105.172 Y118.815 E7.60921
G0 F9000 X105.265 Y118.639
G0 X105.003 Y118.502
G0 X104.967 Y118.707
G0 X104.94 Y119.209
G0 X105.13 Y119.573
G0 X105.517 Y119.824
G0 X105.682 Y120.065
G1 F2948.4 X106.108 Y120.114 E7.62372
G1 F2977.7 X106.394 Y120.314 E7.63542
