;FLAVOR:Marlin
;TIME:883
;Filament used: 0.419556m
;Layer height: 0.1
;MINX:72.481
;MINY:70.669
;MINZ:0.2
;MAXX:148.338
;MAXY:149.351
;MAXZ:2.2
;TARGET_MACHINE.NAME:Creality Ender-3 S1
;POSTPROCESSED
;  [CreateThumbnail]
;  [CreateThumbnail]
;  [KlipperPreprocessor]
;Generated with Cura_SteamEngine 5.7.1
;
;

;
;

M82 ;absolute extrusion mode
;Nozzle diameter = 0.4
;Filament type = PLA
;Filament name = PLA
;Filament weight = [1.2513474682617187]
; M190 S50
; M109 S200
M140 S0
M104 S0
START_PRINT EXTRUDER_TEMP=200 BED_TEMP=50
G92 E0
G92 E0
G10
;LAYER_COUNT:21
;LAYER:0
M107
G0 F9000 X88.434 Y74.463 Z0.2
;TYPE:SKIRT
G11
G1 F3000 X89.062 Y73.814 E0.03004
G1 X89.733 Y73.231 E0.0596
G1 X89.99 Y73.027 E0.07052
G1 X90.722 Y72.497 E0.10057
G1 X91.497 Y72.034 E0.1306
G1 X92.311 Y71.642 E0.16065
G1 X93.156 Y71.323 E0.19069
G1 X94.026 Y71.08 E0.22073
G1 X94.828 Y70.928 E0.24788
G1 X95.17 Y70.877 E0.25938
G1 X96.35 Y70.77 E0.29879
G1 X96.989 Y70.755 E0.32005
G1 X102.683 Y70.756 E0.50943
G1 X103.632 Y70.77 E0.541
G1 X106.212 Y70.843 E0.62685
G1 X108.497 Y70.87 E0.70285
G1 X110.462 Y70.926 E0.76823
G1 X112.996 Y70.928 E0.85252
G1 X115.535 Y70.857 E0.937
G1 X117.069 Y70.771 E0.9881
G1 X117.271 Y70.769 E0.99482
G1 X118.749 Y70.685 E1.04405
G1 X119.419 Y70.669 E1.06634
G1 X124.973 Y70.669 E1.25107
G1 X126.118 Y70.688 E1.28916
G1 X128.21 Y70.796 E1.35883
G1 X130.757 Y70.869 E1.44358
G1 X133.278 Y70.869 E1.52743
G1 X136.778 Y70.768 E1.64389
G1 X138.051 Y70.775 E1.68623
G1 X138.953 Y70.825 E1.71628
G1 X139.847 Y70.955 E1.74632
G1 X140.726 Y71.164 E1.77637
G1 X141.582 Y71.449 E1.80638
G1 X142.411 Y71.809 E1.83644
G1 X143.204 Y72.241 E1.86648
G1 X143.955 Y72.742 E1.8965
G1 X144.66 Y73.307 E1.92655
G1 X145.312 Y73.932 E1.95659
G1 X145.906 Y74.612 E1.98662
G1 X146.437 Y75.342 E2.01665
G1 X146.902 Y76.116 E2.04668
G1 X147.297 Y76.929 E2.07674
G1 X147.618 Y77.773 E2.10678
G1 X147.863 Y78.642 E2.1368
G1 X148.03 Y79.53 E2.16686
G1 X148.129 Y80.672 E2.20498
G1 X148.142 Y81.278 E2.22514
G1 X148.142 Y123.386 E3.62566
G1 X148.179 Y125.983 E3.71205
G1 X148.329 Y129.347 E3.82404
G1 X148.338 Y129.96 E3.84444
G1 X148.331 Y130.412 E3.85947
G1 X148.278 Y131.299 E3.88903
G1 X148.127 Y132.761 E3.93791
G1 X147.902 Y135.388 E4.0256
G1 X147.707 Y138.959 E4.14455
G1 X147.618 Y139.858 E4.1746
G1 X147.45 Y140.745 E4.20463
G1 X147.203 Y141.614 E4.23467
G1 X146.905 Y142.42 E4.26326
G1 X146.542 Y143.247 E4.2933
G1 X146.107 Y144.038 E4.32332
G1 X145.605 Y144.788 E4.35334
G1 X145.037 Y145.491 E4.3834
G1 X144.41 Y146.141 E4.41343
G1 X143.74 Y146.723 E4.44295
G1 X143.408 Y146.987 E4.45706
G1 X142.677 Y147.517 E4.48709
G1 X141.902 Y147.98 E4.51712
G1 X141.089 Y148.373 E4.54715
G1 X140.245 Y148.693 E4.57717
G1 X139.375 Y148.937 E4.60723
G1 X138.564 Y149.091 E4.63468
G1 X138.222 Y149.142 E4.64618
G1 X137.042 Y149.249 E4.68559
G1 X136.403 Y149.264 E4.70685
G1 X130.7 Y149.263 E4.89653
G1 X129.743 Y149.248 E4.92837
G1 X127.212 Y149.177 E5.01258
G1 X125.05 Y149.15 E5.0845
G1 X123.085 Y149.094 E5.14988
G1 X120.551 Y149.092 E5.23416
G1 X118.012 Y149.163 E5.31864
G1 X116.478 Y149.249 E5.36974
G1 X116.276 Y149.251 E5.37646
G1 X114.798 Y149.335 E5.4257
G1 X114.128 Y149.351 E5.44799
G1 X108.43 Y149.35 E5.6375
G1 X107.437 Y149.332 E5.67054
G1 X106.655 Y149.298 E5.69657
G1 X105.197 Y149.216 E5.74514
G1 X102.668 Y149.145 E5.82929
G1 X100.165 Y149.147 E5.91254
G1 X98.413 Y149.208 E5.97085
G1 X98.167 Y149.206 E5.97903
G1 X96.619 Y149.251 E6.03054
G1 X95.338 Y149.244 E6.07314
G1 X94.436 Y149.194 E6.10319
G1 X93.543 Y149.064 E6.1332
G1 X92.664 Y148.855 E6.16326
G1 X91.807 Y148.57 E6.19329
G1 X90.979 Y148.21 E6.22332
G1 X90.186 Y147.778 E6.25336
G1 X89.434 Y147.278 E6.28339
G1 X88.729 Y146.713 E6.31344
G1 X88.077 Y146.088 E6.34348
G1 X87.483 Y145.407 E6.37354
G1 X86.769 Y144.391 E6.41484
G1 X85.264 Y141.946 E6.51033
G1 X83.886 Y139.844 E6.59393
G1 X82.446 Y137.78 E6.67764
G1 X80.913 Y135.708 E6.76336
G1 X79.35 Y133.716 E6.84758
G1 X77.737 Y131.777 E6.93147
G1 X76.006 Y129.811 E7.01859
G1 X75.135 Y128.851 E7.0617
G1 X74.558 Y128.155 E7.09177
G1 X74.046 Y127.412 E7.12178
G1 X73.601 Y126.626 E7.15183
G1 X73.227 Y125.804 E7.18186
G1 X72.928 Y124.952 E7.21189
G1 X72.705 Y124.077 E7.24193
G1 X72.56 Y123.185 E7.27198
G1 X72.496 Y122.312 E7.3011
G1 X72.481 Y121.673 E7.32236
G1 X72.483 Y98.562 E8.09103
G1 X72.493 Y97.862 E8.11432
G1 X72.546 Y96.961 E8.14434
G1 X72.678 Y96.067 E8.17439
G1 X72.889 Y95.189 E8.20443
G1 X73.177 Y94.333 E8.23447
G1 X73.539 Y93.506 E8.26449
G1 X73.973 Y92.714 E8.29453
G1 X74.476 Y91.964 E8.32456
G1 X75.328 Y90.95 E8.36862
G1 X77.306 Y88.886 E8.4637
G1 X79.01 Y87.002 E8.54819
G1 X80.662 Y85.068 E8.63279
G1 X82.253 Y83.096 E8.71706
G1 X83.784 Y81.083 E8.80118
G1 X85.258 Y79.029 E8.88526
G1 X86.892 Y76.604 E8.98252
G1 X87.378 Y75.857 E9.01216
G1 X87.866 Y75.165 E9.04033
G1 X88.434 Y74.463 E9.07036
G10
;MESH:Crossover Platform Rear.stl
G0 F9000 X86.646 Y97.338
G0 X86.333 Y98.697
;TYPE:WALL-OUTER
G11
G1 F2537 X86.448 Y99.012 E9.08355
G1 F2912.6 X86.447 Y99.378 E9.09609
G1 F2977.7 X86.285 Y99.671 E9.10731
G1 F2970.3 X85.936 Y99.914 E9.12159
G1 F2948.4 X85.518 Y99.869 E9.13582
G1 F2985.1 X85.225 Y99.665 E9.14775
G1 F3030.3 X85.09 Y99.383 E9.15805
G1 F2977.7 X85.09 Y98.984 E9.17142
G1 F2459 X85.146 Y98.716 E9.18253
G1 F2348.3 X85.562 Y98.523 E9.20201
G1 F2877.7 X86.021 Y98.553 E9.21796
G1 F2654.9 X86.333 Y98.697 E9.23088
G0 F9000 X86.401 Y98.885
G0 X86.641 Y98.76
G0 X86.181 Y98.408
G0 X85.341 Y98.408
G0 X84.67 Y98.716
G1 F2459 X84.726 Y98.984 E9.24199
G1 F2977.7 X84.726 Y99.383 E9.25536
G1 F3030.3 X84.591 Y99.665 E9.26565
G1 F2992.5 X84.236 Y99.914 E9.28011
G1 F2963 X83.819 Y99.869 E9.29424
G1 F2891.6 X83.535 Y99.673 E9.30614
G1 F2746 X83.35 Y99.363 E9.31926
G1 F2631.6 X83.349 Y99.005 E9.33283
G1 F2366.9 X83.458 Y98.71 E9.34609
G1 F2390.4 X83.862 Y98.523 E9.36468
G1 F2898.6 X84.322 Y98.553 E9.38054
G1 F2553.2 X84.67 Y98.716 E9.39556
G0 F9000 X84.71 Y98.911
G0 X84.954 Y98.784
G0 X84.911 Y99.509
G0 X83.534 Y100.527
G1 F2919.7 X83.881 Y100.289 E9.40994
G1 F2926.8 X84.302 Y100.333 E9.42437
G1 F3022.7 X84.59 Y100.534 E9.43597
G1 F3166.2 X84.726 Y100.82 E9.44595
G1 F3208.6 X84.726 Y101.183 E9.45724
G1 F3141.4 X84.593 Y101.46 E9.467
G1 F3069.1 X84.245 Y101.707 E9.48087
G1 F3022.7 X83.802 Y101.658 E9.49558
G1 F2912.6 X83.534 Y101.473 E9.50674
G1 F2746 X83.35 Y101.163 E9.51984
G1 F2752.3 X83.349 Y100.846 E9.53133
G1 F2877.7 X83.534 Y100.527 E9.54412
G0 F9000 X83.698 Y100.414
G0 X83.531 Y100.171
G0 X83.348 Y100.372
G0 X83.137 Y100.776
G0 X83.137 Y101.23
G0 X83.348 Y101.634
G0 X83.652 Y101.845
G0 X84.911 Y102.079
G0 X85.223 Y101.46
G1 F3141.4 X85.09 Y101.183 E9.55388
G1 F3208.6 X85.09 Y100.82 E9.56517
G1 F3166.2 X85.226 Y100.534 E9.57515
G1 F3053.4 X85.58 Y100.289 E9.58921
G1 F2970.3 X86.002 Y100.333 E9.60347
G1 F2963 X86.285 Y100.53 E9.61508
G1 F2985.1 X86.448 Y100.835 E9.62664
G1 F2970.3 X86.447 Y101.178 E9.63816
G1 F2977.7 X86.285 Y101.471 E9.64938
G1 F2992.5 X85.937 Y101.712 E9.66349
G1 F3022.7 X85.505 Y101.661 E9.67785
G1 F3069.1 X85.223 Y101.46 E9.68911
G0 F9000 X85.137 Y101.28
G0 X84.911 Y102.079
G0 X83.832 Y102.575
G0 X83.832 Y104.631
G0 X84.205 Y105.103
G0 X84.205 Y104.393
G1 F3000 X84.063 Y104.235 E9.69618
G1 X84.06 Y103 E9.73725
G1 X84.216 Y102.804 E9.74559
G1 X85.46 Y102.799 E9.78696
G1 X85.66 Y102.889 E9.79426
G1 X85.658 Y104.235 E9.83903
G1 X85.502 Y104.401 E9.8466
G1 X84.205 Y104.393 E9.88974
G0 F9000 X84.072 Y104.244
G0 X84.072 Y105.103
G0 X84.64 Y105.645
G0 X84.911 Y106.017
G0 X85.09 Y106.22
G1 F3149.6 X85.224 Y105.939 E9.8996
G1 F3061.2 X85.578 Y105.693 E9.91365
G1 F3022.7 X86.009 Y105.739 E9.92796
G1 F3000 X86.285 Y105.929 E9.93911
G1 F2985.1 X86.448 Y106.235 E9.9507
G1 F2970.3 X86.447 Y106.578 E9.96222
G1 F2977.7 X86.285 Y106.871 E9.97344
G1 F2970.3 X85.936 Y107.114 E9.98772
G1 F2948.4 X85.518 Y107.069 E10.00195
G1 F3015.1 X85.225 Y106.865 E10.01377
G1 F3141.4 X85.09 Y106.583 E10.0237
G1 F3208.6 X85.09 Y106.22 E10.03499
G0 F9000 X85.176 Y106.04
G0 X84.91 Y105.327
G0 X83.823 Y105.446
G0 X83.348 Y105.772
G0 X83.137 Y106.176
G0 X83.137 Y106.63
G0 X83.348 Y107.034
G0 X83.723 Y107.294
G0 X84.298 Y107.36
G0 X84.857 Y107.005
G0 X84.591 Y106.865
G1 F3045.7 X84.236 Y107.114 E10.04919
G1 F2985.1 X83.819 Y107.069 E10.06321
G1 F2891.6 X83.535 Y106.873 E10.07512
G1 F2746 X83.35 Y106.563 E10.08824
G1 F2752.3 X83.349 Y106.246 E10.09973
G1 F2877.7 X83.534 Y105.927 E10.11252
G1 F2963 X83.88 Y105.693 E10.12658
G1 F3022.7 X84.309 Y105.738 E10.14082
G1 F3061.2 X84.593 Y105.94 E10.15218
G1 F3149.6 X84.726 Y106.221 E10.16203
G1 F3208.6 X84.726 Y106.583 E10.17329
G1 F3141.4 X84.591 Y106.865 E10.18322
G0 F9000 X84.428 Y106.979
G0 X84.599 Y107.229
G0 X84.398 Y107.312
G0 X83.823 Y107.246
G0 X83.348 Y107.572
G0 X83.137 Y107.976
G0 X83.137 Y108.344
G0 X83.364 Y108.92
G0 X83.535 Y108.673
G1 F2746 X83.35 Y108.363 E10.19634
G1 F2752.3 X83.349 Y108.046 E10.20783
G1 F2877.7 X83.534 Y107.727 E10.22062
G1 F2919.7 X83.881 Y107.489 E10.235
G1 F2926.8 X84.302 Y107.533 E10.24943
G1 F3022.7 X84.59 Y107.734 E10.26102
G1 F3166.2 X84.726 Y108.02 E10.271
G1 F3208.6 X84.726 Y108.383 E10.28229
G1 F3141.4 X84.591 Y108.665 E10.29222
G1 F3045.7 X84.236 Y108.914 E10.30643
G1 F2985.1 X83.819 Y108.869 E10.32044
G1 F2891.6 X83.535 Y108.673 E10.33235
G0 F9000 X83.433 Y108.502
G0 X83.175 Y108.636
G0 X83.137 Y110.23
G0 X83.348 Y110.634
G0 X83.723 Y110.894
G0 X84.298 Y110.96
G0 X84.683 Y110.696
G0 X84.911 Y110.389
G0 X84.726 Y110.183
G1 F3141.4 X84.591 Y110.465 E10.34228
G1 F3045.7 X84.236 Y110.714 E10.35649
G1 F2985.1 X83.819 Y110.669 E10.37051
G1 F2891.6 X83.535 Y110.473 E10.38242
G1 F2746 X83.35 Y110.163 E10.39553
G1 F2752.3 X83.349 Y109.846 E10.40703
G1 F2877.7 X83.534 Y109.527 E10.41981
G1 F2919.7 X83.881 Y109.289 E10.43419
G1 F2926.8 X84.302 Y109.333 E10.44862
G1 F3022.7 X84.59 Y109.534 E10.46022
G1 F3166.2 X84.726 Y109.82 E10.4702
G1 F3208.6 X84.726 Y110.183 E10.48149
G0 F9000 X84.64 Y110.363
G0 X84.91 Y110.505
G0 X85.423 Y110.894
G0 X85.998 Y110.96
G0 X86.456 Y110.721
G0 X86.285 Y110.471
G1 F2970.3 X85.936 Y110.714 E10.49577
G1 F2948.4 X85.518 Y110.669 E10.51
G1 F3015.1 X85.225 Y110.465 E10.52181
G1 F3141.4 X85.09 Y110.183 E10.53175
G1 F3208.6 X85.09 Y109.82 E10.54303
G1 F3166.2 X85.226 Y109.534 E10.55301
G1 F3053.4 X85.58 Y109.289 E10.56708
G1 F2970.3 X86.002 Y109.333 E10.58134
G1 F2963 X86.285 Y109.53 E10.59295
G1 F2985.1 X86.448 Y109.835 E10.60451
G1 F2970.3 X86.447 Y110.178 E10.61603
G1 F2977.7 X86.285 Y110.471 E10.62725
G0 F9000 X86.121 Y110.585
G0 X86.291 Y110.834
G0 X86.473 Y111.172
G0 X86.684 Y111.576
G0 X86.684 Y112.03
G0 X86.473 Y112.434
G0 X85.998 Y112.76
G0 X85.48 Y112.701
G0 X84.961 Y112.402
G0 X85.225 Y112.265
G1 F3141.4 X85.09 Y111.983 E10.63718
G1 F3208.6 X85.09 Y111.62 E10.64847
G1 F3166.2 X85.226 Y111.334 E10.65845
G1 F3053.4 X85.58 Y111.089 E10.67252
G1 F2970.3 X86.002 Y111.133 E10.68677
G1 F2963 X86.285 Y111.33 E10.69838
G1 F2985.1 X86.448 Y111.635 E10.70994
G1 F2970.3 X86.447 Y111.978 E10.72146
G1 F2977.7 X86.285 Y112.271 E10.73268
G1 F2970.3 X85.936 Y112.514 E10.74697
G1 F2948.4 X85.518 Y112.469 E10.7612
G1 F3015.1 X85.225 Y112.265 E10.77301
G0 F9000 X85.139 Y112.085
G0 X84.869 Y112.225
G0 X84.773 Y112.434
G0 X84.298 Y112.76
G0 X83.785 Y112.762
G0 X83.819 Y112.469
G1 F2891.6 X83.535 Y112.273 E10.78492
G1 F2746 X83.35 Y111.963 E10.79804
G1 F2752.3 X83.349 Y111.646 E10.80953
G1 F2877.7 X83.534 Y111.327 E10.82232
G1 F2919.7 X83.881 Y111.089 E10.8367
G1 F2926.8 X84.302 Y111.133 E10.85113
G1 F3022.7 X84.59 Y111.334 E10.86272
G1 F3166.2 X84.726 Y111.62 E10.8727
G1 F3208.6 X84.726 Y111.983 E10.88399
G1 F3141.4 X84.591 Y112.265 E10.89392
G1 F3045.7 X84.236 Y112.514 E10.90812
G1 F2985.1 X83.819 Y112.469 E10.92214
G0 F9000 X83.655 Y112.356
G0 X83.484 Y112.603
G0 X83.137 Y113.376
G0 X83.137 Y113.744
G0 X83.364 Y114.32
G0 X83.535 Y114.073
G1 F2746 X83.35 Y113.763 E10.93526
G1 F2752.3 X83.349 Y113.446 E10.94675
G1 F2877.7 X83.534 Y113.127 E10.95954
G1 F2919.7 X83.881 Y112.889 E10.97392
G1 F2926.8 X84.302 Y112.933 E10.98835
G1 F3022.7 X84.59 Y113.134 E10.99995
G1 F3166.2 X84.726 Y113.42 E11.00993
G1 F3208.6 X84.726 Y113.783 E11.02121
G1 F3141.4 X84.591 Y114.065 E11.03115
G1 F3045.7 X84.236 Y114.314 E11.04535
G1 F2985.1 X83.819 Y114.269 E11.05937
G1 F2891.6 X83.535 Y114.073 E11.07128
G0 F9000 X83.433 Y113.902
G0 X83.175 Y114.036
G0 X83.181 Y114.82
G0 X82.88 Y114.819
G1 F2836.9 X82.903 Y115.28 E11.08751
G1 F2678.6 X82.905 Y115.601 E11.09947
G1 F2823.5 X82.88 Y115.985 E11.11307
G1 F3000 X82.88 Y116.619 E11.13416
G1 F2836.9 X82.903 Y117.08 E11.15039
G1 F2678.6 X82.905 Y117.401 E11.16235
G1 F2823.5 X82.88 Y117.785 E11.17595
G1 F3000 X82.88 Y118.419 E11.19704
G1 F2836.9 X82.903 Y118.88 E11.21327
G1 F2678.6 X82.905 Y119.201 E11.22523
G1 F2823.5 X82.88 Y119.585 E11.23883
G1 F3000 X82.88 Y120.219 E11.25991
G1 F2836.9 X82.903 Y120.68 E11.27615
G1 F2678.6 X82.905 Y121.001 E11.28811
G1 F2395.2 X82.956 Y121.448 E11.30685
G1 F2173.9 X82.956 Y121.724 E11.31952
G1 X83.232 Y121.724 E11.33218
G1 F2586.2 X83.733 Y121.814 E11.35182
G1 F3305.8 X84.244 Y121.825 E11.36725
G1 F2898.6 X84.704 Y121.762 E11.38323
G1 F2307.7 X84.908 Y121.717 E11.39227
G1 X85.112 Y121.761 E11.40129
G1 F2672.6 X85.445 Y121.814 E11.41388
G1 F2790.7 X85.999 Y121.826 E11.43369
G1 F2484.5 X86.533 Y121.737 E11.45543
G1 F2277 X86.797 Y121.737 E11.467
G1 X86.797 Y121.473 E11.47857
G1 F2558.6 X86.855 Y120.995 E11.49735
G1 F2934 X86.856 Y99.08 E12.24264
G1 F2857.1 X86.844 Y98.878 E12.24971
G1 F2500 X86.797 Y98.527 E12.26385
G1 F2277 X86.797 Y98.263 E12.27541
G1 X86.533 Y98.263 E12.28698
G1 F2464.1 X86.068 Y98.185 E12.30608
G1 F3000 X85.572 Y98.176 E12.32257
G1 F2898.6 X85.118 Y98.237 E12.33834
G1 F2312.1 X84.908 Y98.283 E12.34762
G1 F2307.7 X84.704 Y98.239 E12.35664
G1 F2678.6 X84.361 Y98.185 E12.36958
G1 F3100.8 X83.872 Y98.176 E12.38532
G1 F2898.6 X83.418 Y98.237 E12.40109
G1 F2339.2 X83.232 Y98.276 E12.40919
G1 F2173.9 X82.956 Y98.276 E12.42186
G1 X82.956 Y98.552 E12.43453
G1 F2339.2 X82.917 Y98.859 E12.44773
G1 F2608.7 X82.903 Y99.08 E12.4562
G1 F2678.6 X82.905 Y99.401 E12.46816
G1 F2823.5 X82.88 Y99.785 E12.48176
G1 F3000 X82.88 Y100.419 E12.50284
G1 F2836.9 X82.903 Y100.88 E12.51908
G1 F2678.6 X82.905 Y101.201 E12.53104
G1 F2823.5 X82.88 Y101.585 E12.54464
G1 F3000 X82.88 Y105.819 E12.68546
G1 F2836.9 X82.903 Y106.28 E12.70169
G1 F2678.6 X82.905 Y106.601 E12.71365
G1 F2823.5 X82.88 Y106.985 E12.72725
G1 F3000 X82.88 Y107.619 E12.74834
G1 F2836.9 X82.903 Y108.08 E12.76457
G1 F2678.6 X82.905 Y108.401 E12.77653
G1 F2823.5 X82.88 Y108.785 E12.79013
G1 F3000 X82.88 Y109.419 E12.81122
G1 F2836.9 X82.903 Y109.88 E12.82745
G1 F2678.6 X82.905 Y110.201 E12.83941
G1 F2823.5 X82.88 Y110.585 E12.85301
G1 F3000 X82.88 Y111.219 E12.87409
G1 F2836.9 X82.903 Y111.68 E12.89033
G1 F2678.6 X82.905 Y112.001 E12.90229
G1 F2823.5 X82.88 Y112.385 E12.91589
G1 F3000 X82.88 Y113.019 E12.93697
G1 F2836.9 X82.903 Y113.48 E12.95321
G1 F2678.6 X82.905 Y113.801 E12.96517
G1 F2823.5 X82.88 Y114.185 E12.97876
G1 F3000 X82.88 Y114.819 E12.99985
G0 F9000 X82.889 Y115.018
G0 X83.181 Y115.019
G0 X83.137 Y115.63
G0 X83.348 Y116.034
G0 X83.754 Y116.293
G0 X83.819 Y116.069
G1 F2891.6 X83.535 Y115.873 E13.01176
G1 F2746 X83.35 Y115.563 E13.02488
G1 F2752.3 X83.349 Y115.246 E13.03637
G1 F2877.7 X83.534 Y114.927 E13.04915
G1 F2919.7 X83.881 Y114.689 E13.06353
G1 F2926.8 X84.302 Y114.733 E13.07797
G1 F3022.7 X84.59 Y114.934 E13.08956
G1 F3166.2 X84.726 Y115.22 E13.09954
G1 F3208.6 X84.726 Y115.583 E13.11083
G1 F3141.4 X84.591 Y115.865 E13.12076
