;FLAVOR:Marlin
;TIME:230
;Filament used: 0.0548261m
;Layer height: 0.1
;MINX:92.228
;MINY:91.255
;MINZ:0.2
;MAXX:127.707
;MAXY:129.655
;MAXZ:2.7
;TARGET_MACHINE.NAME:Creality Ender-3 S1
;POSTPROCESSED
;  [CreateThumbnail]
;  [CreateThumbnail]
;  [KlipperPreprocessor]
;Generated with Cura_SteamEngine 5.7.1
;
;

;
;

M82 ;absolute extrusion mode
;Nozzle diameter = 0.4
;Filament type = PLA
;Filament name = PLA
;Filament weight = [0.16352153747558595]
; M190 S50
; M109 S200
M140 S0
M104 S0
START_PRINT EXTRUDER_TEMP=200 BED_TEMP=50
G92 E0
G92 E0
G10
;LAYER_COUNT:26
;LAYER:0
M106 S10.5
G0 F9000 X95.351 Y95.911 Z0.2
;TYPE:SKIRT
G11
G1 F3000 X96.674 Y94.585 E0.0623
G1 X97.146 Y94.129 E0.08413
G1 X97.823 Y93.531 E0.11417
G1 X98.549 Y92.995 E0.14419
G1 X99.321 Y92.526 E0.17423
G1 X100.131 Y92.126 E0.20428
G1 X100.973 Y91.8 E0.23431
G1 X101.841 Y91.55 E0.26435
G1 X102.727 Y91.377 E0.29438
G1 X103.625 Y91.283 E0.32441
G1 X104.154 Y91.265 E0.34201
G1 X105.442 Y91.255 E0.38485
G1 X106.367 Y91.266 E0.41562
G1 X107.269 Y91.319 E0.44567
G1 X108.162 Y91.451 E0.4757
G1 X109.041 Y91.662 E0.50576
G1 X109.897 Y91.95 E0.5358
G1 X110.724 Y92.312 E0.56583
G1 X111.516 Y92.746 E0.59587
G1 X112.266 Y93.249 E0.6259
G1 X113.127 Y93.958 E0.663
G1 X115.628 Y96.259 E0.77603
G1 X117.537 Y97.914 E0.86006
G1 X119.502 Y99.526 E0.9446
G1 X122.039 Y101.483 E1.05117
G1 X122.532 Y101.881 E1.07224
G1 X123.209 Y102.479 E1.10228
G1 X123.887 Y103.183 E1.13479
G1 X124.588 Y104.012 E1.1709
G1 X124.894 Y104.416 E1.18776
G1 X125.411 Y105.166 E1.21806
G1 X125.578 Y105.433 E1.22853
G1 X126.021 Y106.217 E1.25848
G1 X126.255 Y106.677 E1.27565
G1 X126.753 Y107.826 E1.3173
G1 X126.873 Y108.157 E1.32901
G1 X127.061 Y108.724 E1.34888
G1 X127.18 Y109.124 E1.36276
G1 X127.46 Y110.332 E1.404
G1 X127.53 Y110.746 E1.41796
G1 X127.638 Y111.575 E1.44577
G1 X127.688 Y112.219 E1.46725
G1 X127.701 Y112.508 E1.47688
G1 X127.707 Y113.339 E1.50452
G1 X127.659 Y114.243 E1.53463
G1 X127.557 Y115.126 E1.56419
G1 X127.462 Y115.7 E1.58354
G1 X127.388 Y116.079 E1.59638
G1 X127.07 Y117.3 E1.63835
G1 X126.895 Y117.834 E1.65704
G1 X126.453 Y118.954 E1.69709
G1 X126.316 Y119.249 E1.70791
G1 X126.029 Y119.821 E1.72919
G1 X125.846 Y120.158 E1.74194
G1 X125.414 Y120.88 E1.76993
G1 X125.224 Y121.17 E1.78146
G1 X124.643 Y121.969 E1.81432
G1 X124.283 Y122.417 E1.83343
G1 X123.687 Y123.095 E1.86346
G1 X123.31 Y123.468 E1.8811
G1 X122.956 Y123.8 E1.89724
G1 X122.137 Y124.491 E1.93288
G1 X121.733 Y124.797 E1.94974
G1 X121.006 Y125.299 E1.97912
G1 X120.739 Y125.467 E1.98961
G1 X119.916 Y125.933 E2.02107
G1 X119.454 Y126.167 E2.03829
G1 X118.305 Y126.663 E2.07992
G1 X117.975 Y126.782 E2.09159
G1 X117.429 Y126.962 E2.11071
G1 X117.107 Y127.058 E2.12188
G1 X116.49 Y127.221 E2.14311
G1 X115.602 Y127.425 E2.17341
G1 X114.174 Y127.733 E2.222
G1 X111.701 Y128.339 E2.30669
G1 X109.073 Y129.064 E2.39736
G1 X108.484 Y129.236 E2.41777
G1 X107.607 Y129.451 E2.4478
G1 X106.714 Y129.587 E2.47784
G1 X105.937 Y129.64 E2.50375
G1 X105.298 Y129.655 E2.52501
G1 X103.404 Y129.654 E2.588
G1 X102.706 Y129.645 E2.61122
G1 X101.805 Y129.594 E2.64123
G1 X100.911 Y129.462 E2.67129
G1 X100.033 Y129.253 E2.70131
G1 X99.176 Y128.966 E2.73137
G1 X98.349 Y128.605 E2.76138
G1 X97.556 Y128.172 E2.79143
G1 X96.805 Y127.671 E2.82146
G1 X96.101 Y127.105 E2.8515
G1 X95.45 Y126.479 E2.88154
G1 X94.857 Y125.798 E2.91158
G1 X94.327 Y125.067 E2.94161
G1 X93.863 Y124.292 E2.97165
G1 X93.469 Y123.479 E3.0017
G1 X93.149 Y122.635 E3.03172
G1 X92.905 Y121.765 E3.06177
G1 X92.739 Y120.877 E3.09182
G1 X92.639 Y119.578 E3.13515
G1 X92.592 Y115.956 E3.25563
G1 X92.484 Y113.409 E3.34042
G1 X92.264 Y110.381 E3.4414
G1 X92.241 Y109.931 E3.45638
G1 X92.228 Y109.325 E3.47655
G1 X92.229 Y103.817 E3.65974
G1 X92.239 Y103.115 E3.68309
G1 X92.292 Y102.213 E3.71315
G1 X92.424 Y101.32 E3.74317
G1 X92.635 Y100.442 E3.7732
G1 X92.923 Y99.586 E3.80324
G1 X93.285 Y98.758 E3.8333
G1 X93.719 Y97.966 E3.86334
G1 X94.222 Y97.216 E3.89337
G1 X94.96 Y96.323 E3.9319
G1 X95.351 Y95.911 E3.9508
G10
G0 F9000 X104.628 Y103.955
G11
G1 F3000 X105.828 Y103.955 E3.99071
G1 X105.828 Y105.155 E4.03062
G1 X104.628 Y105.155 E4.07053
G1 X104.628 Y103.955 E4.11044
G0 F9000 X105.028 Y104.355
G1 F3000 X105.428 Y104.355 E4.12375
G1 X105.428 Y104.755 E4.13705
G1 X105.028 Y104.755 E4.15036
G1 X105.028 Y104.355 E4.16366
G10
G0 F9000 X105.228 Y109.455
G11
G1 F3000 X105.268 Y109.455 E4.16499
G1 X105.332 Y109.602 E4.17032
G1 X105.362 Y109.65 E4.17221
G1 X105.428 Y109.73 E4.17566
G1 X105.428 Y119.255 E4.49246
G1 X103.029 Y119.255 E4.57225
G1 X103.028 Y110.855 E4.85163
G1 X103.147 Y110.816 E4.8558
G1 X103.228 Y110.655 E4.86179
G1 X103.229 Y118.855 E5.13453
G1 X103.268 Y118.974 E5.13869
G1 X103.429 Y119.055 E5.14469
G1 X105.028 Y119.055 E5.19787
G1 X105.147 Y119.016 E5.20203
G1 X105.228 Y118.855 E5.20803
G1 X105.228 Y109.455 E5.52067
G0 F9000 X103.997 Y110.655
;TYPE:SUPPORT-INTERFACE
G1 F3000 X104.828 Y109.658 E5.56384
G1 X104.828 Y118.655 E5.86308
G1 X103.629 Y118.655 E5.90296
G1 X103.628 Y110.655 E6.16904
G1 X103.997 Y110.655 E6.18132
G0 F9000 X104.028 Y111.052
G1 F3000 X104.194 Y111.037 E6.18686
G1 X104.428 Y110.76 E6.19892
G1 X104.428 Y118.252 E6.44811
G1 X104.028 Y118.252 E6.46141
G1 X104.028 Y111.052 E6.70088
G10
;MESH:Hand Brake.stl
G0 F9000 X103.333 Y109.237
G0 X103.9 Y107.803
G0 X104.127 Y107.994
;TYPE:WALL-INNER
G11
G1 F3000 X104.442 Y107.852 E6.71238
G1 X105.928 Y107.852 E6.7618
G1 X106.324 Y107.99 E6.77575
G1 X107.21 Y109.052 E6.82175
G1 X107.428 Y109.052 E6.829
G1 F2970.3 X107.424 Y106.256 E6.92292
G1 X107.188 Y106.632 E6.93784
G1 F3000 X106.828 Y106.752 E6.95046
G1 X103.628 Y106.752 E7.05689
G1 X103.268 Y106.632 E7.06951
G1 F2963 X103.032 Y106.256 E7.08446
G1 X103.028 Y109.052 E7.17862
G1 F3000 X103.243 Y109.052 E7.18577
G1 X104.127 Y107.994 E7.23163
G0 F9000 X103.9 Y107.803
G0 X103.298 Y107.025
G0 X103.032 Y106.256
G1 F2963 X103.028 Y103.504 E7.3243
G10
G0 F9000 X103.221 Y103.039
G0 X103.712 Y102.548
G0 X104.467 Y102.027
G11
G1 F3428.6 X104.118 Y102.377 E7.33869
G1 X106.335 Y102.377 E7.40321
G1 X105.985 Y102.027 E7.41761
G1 X104.467 Y102.027 E7.46179
G10
G0 F9000 X106.744 Y102.548
G0 X107.235 Y103.039
G0 X107.428 Y103.505
G11
G1 F2970.3 X107.424 Y106.256 E7.5542
G0 F9000 X107.158 Y107.025
G0 X107.213 Y106.774
G0 X107.536 Y103.459
G0 X107.828 Y103.325
;TYPE:WALL-OUTER
G1 F2625.8 X107.293 Y102.859 E7.58116
G1 F2166.1 X107.051 Y102.728 E7.59384
G1 X107.066 Y102.952 E7.60418
G1 F2739.7 X107.028 Y103.505 E7.62437
G1 F3000 X107.026 Y106.187 E7.71357
G1 X106.923 Y106.352 E7.72004
G1 X103.533 Y106.352 E7.8328
G1 X103.43 Y106.187 E7.83926
G1 X103.428 Y103.504 E7.9285
G1 F2608.7 X103.355 Y102.775 E7.95652
G1 F2330.1 X103.174 Y102.87 E7.96528
G1 F2484.5 X102.628 Y103.319 E7.99367
G1 F2721.1 X102.628 Y106.386 E8.10613
G1 F2905.6 X102.628 Y109.453 E8.21146
G1 F3000 X103.43 Y109.452 E8.23813
G1 X104.436 Y108.254 E8.29016
G1 X106.018 Y108.252 E8.34278
G1 X107.022 Y109.452 E8.39482
G1 X107.828 Y109.452 E8.42163
G1 F2934 X107.828 Y106.388 E8.52583
G1 F2803.7 X107.828 Y103.324 E8.63487
G1 F2739.7 X107.828 Y103.325 E8.63491
G0 F9000 X107.678 Y103.194
G0 X107.011 Y102.69
G1 F2083.3 X106.909 Y102.5 E8.64524
G1 F2631.6 X106.302 Y101.814 E8.67997
G1 F3000 X106.141 Y101.652 E8.68757
G1 X104.311 Y101.652 E8.74843
G1 X104.151 Y101.814 E8.756
G1 F2739.7 X103.534 Y102.486 E8.78923
G1 F2162.2 X103.403 Y102.728 E8.80193
G1 X103.628 Y102.714 E8.81233
G1 F2739.7 X104.539 Y102.752 E8.84554
G1 F3000 X105.913 Y102.752 E8.89124
G1 F2608.7 X106.462 Y102.721 E8.91227
G1 F2069 X107.011 Y102.69 E8.93879
G0 F9000 X106.917 Y102.515
G10
G0 X106.67 Y102.517
G0 X103.851 Y102.535
G0 X103.221 Y103.039
G0 X103.2 Y106.583
G0 X103.851 Y107.662
;TYPE:SKIN
G11
G1 F2272.7 X103.452 Y108.139 E8.96609
G1 X103.452 Y107.131 E9.01035
G1 X103.716 Y107.176 E9.02211
G1 F2603 X104.349 Y107.108 E9.04651
G1 F3022.7 X106.052 Y107.112 E9.10273
G1 F2586.2 X106.74 Y107.176 E9.12939
G1 F2272.7 X107.004 Y107.131 E9.14114
G1 X107.004 Y108.142 E9.18553
G1 X106.606 Y107.661 E9.21294
G1 F2586.2 X105.986 Y107.502 E9.23763
G1 F2784.2 X104.356 Y107.498 E9.29605
G1 F2429.1 X103.851 Y107.662 E9.31786
G0 F9000 X103.719 Y107.551
G10
;MESH:Brake Wheel.stl
G0 X106.123 Y108.037
G0 X105.666 Y109.138
G0 X106.619 Y110.316
G0 X108.703 Y110.558
G0 X111.036 Y111.882
G0 X112.476 Y114.812
G0 X112.352 Y115.084
;TYPE:WALL-INNER
G11
G1 F3000 X112.592 Y115.164 E9.32627
G1 X113.037 Y115.253 E9.34137
G1 X113.12 Y115.412 E9.34733
G1 X113.203 Y115.253 E9.3533
G1 X113.648 Y115.164 E9.36839
G1 X113.888 Y115.084 E9.37681
G1 X114.173 Y114.955 E9.38721
G1 X114.568 Y114.703 E9.4028
G1 X114.863 Y114.767 E9.41284
G1 X114.799 Y114.472 E9.42288
G1 X115.051 Y114.077 E9.43846
G1 X115.18 Y113.792 E9.44886
G1 X115.26 Y113.552 E9.45728
G1 X115.348 Y113.111 E9.47224
G1 X115.497 Y113.024 E9.47797
G1 X115.348 Y112.937 E9.48371
G1 X115.26 Y112.496 E9.49867
G1 X115.18 Y112.256 E9.50708
G1 X115.051 Y111.973 E9.51743
G1 X114.802 Y111.584 E9.53279
G1 X114.849 Y111.299 E9.5424
G1 X114.562 Y111.346 E9.55207
G1 X114.171 Y111.092 E9.56758
G1 X113.888 Y110.964 E9.57791
G1 X113.648 Y110.884 E9.58632
G1 X113.207 Y110.796 E9.60128
G1 X113.12 Y110.647 E9.60702
G1 X113.033 Y110.796 E9.61276
G1 X112.592 Y110.884 E9.62771
G1 X112.352 Y110.964 E9.63613
G1 X112.071 Y111.092 E9.6464
G1 X111.682 Y111.346 E9.66185
G1 X111.395 Y111.299 E9.67152
G1 X111.442 Y111.585 E9.68116
G1 X111.192 Y111.973 E9.69651
G1 X111.064 Y112.256 E9.70685
G1 X110.983 Y112.5 E9.7154
G1 X110.923 Y112.812 E9.72596
G1 X110.749 Y113.024 E9.73509
G1 X110.923 Y113.236 E9.74421
G1 X110.983 Y113.552 E9.75491
G1 X111.06 Y113.792 E9.76329
G1 X111.192 Y114.075 E9.77367
G1 X111.445 Y114.473 E9.78936
G1 X111.382 Y114.766 E9.79933
G1 X111.676 Y114.703 E9.80933
G1 X112.068 Y114.955 E9.82483
G1 X112.352 Y115.084 E9.8352
G0 F9000 X112.476 Y114.812
G0 X112.694 Y115.366
G0 X112.416 Y116.913
G0 X112.453 Y116.767
;TYPE:WALL-OUTER
G1 F3007.5 X111.997 Y116.655 E9.85078
G1 X111.56 Y116.488 E9.8663
G1 X111.33 Y116.374 E9.87482
G1 X110.943 Y116.14 E9.88982
G1 F2970.3 X110.698 Y115.953 E9.90018
G1 F2614.4 X110.623 Y115.806 E9.90648
G1 F2643.2 X111.303 Y115.127 E9.94275
G1 F3007.5 X111.516 Y115.081 E9.94998
G1 F3000 X111.876 Y115.307 E9.96412
G1 X112.206 Y115.457 E9.97618
G1 X112.494 Y115.553 E9.98627
G1 X112.826 Y115.614 E9.9975
G1 X112.92 Y115.796 E10.00431
G1 F2649 X112.92 Y116.76 E10.04062
G1 F2620.1 X112.762 Y116.811 E10.04695
G1 F2970.3 X112.453 Y116.767 E10.05743
G0 F9000 X112.259 Y116.72
G0 X113.791 Y116.767
G1 F2963 X113.478 Y116.811 E10.06808
G1 F2620.1 X113.32 Y116.76 E10.0744
G1 F2649 X113.32 Y115.796 E10.11071
G1 F3000 X113.416 Y115.61 E10.11767
G1 X113.746 Y115.553 E10.12881
G1 X114.034 Y115.457 E10.13891
G1 X114.364 Y115.307 E10.15096
G1 X114.728 Y115.081 E10.16521
G1 F3007.5 X114.942 Y115.127 E10.17248
G1 F2649 X115.621 Y115.806 E10.20865
G1 F2608.7 X115.545 Y115.955 E10.21504
G1 F2955.7 X115.296 Y116.142 E10.22556
G1 F3015.1 X115.103 Y116.266 E10.23315
G1 X114.88 Y116.391 E10.24161
G1 F3000 X114.667 Y116.495 E10.24949
G1 X114.245 Y116.656 E10.26451
G1 X113.791 Y116.767 E10.28006
G0 F9000 X113.593 Y116.794
G10
G0 X114.036 Y118.008
G0 X115.201 Y117.644
G0 X116.246 Y117.013
G0 X117.11 Y116.149
G0 X117.678 Y115.209
G0 X118.04 Y114.237
G0 X116.863 Y113.695
G11
G1 F3007.5 X116.758 Y114.131 E10.29494
G1 X116.588 Y114.584 E10.31099
G1 F3015.1 X116.473 Y114.816 E10.31956
G1 F3022.7 X116.355 Y115.017 E10.32725
G1 F3015.1 X116.069 Y115.424 E10.34372
G1 F2649 X115.904 Y115.524 E10.35098
G1 X115.223 Y114.846 E10.38718
G1 F3007.5 X115.177 Y114.632 E10.39444
G1 F3000 X115.403 Y114.268 E10.40869
G1 X115.553 Y113.938 E10.42075
G1 X115.649 Y113.65 E10.43085
G1 X115.71 Y113.319 E10.44204
G1 X115.875 Y113.224 E10.44837
G1 F2643.2 X116.856 Y113.224 E10.48541
G1 F2620.1 X116.907 Y113.382 E10.49173
G1 F2970.3 X116.863 Y113.695 E10.50235
G0 F9000 X116.817 Y113.889
G0 X117.032 Y112.464
G0 X116.856 Y112.824
G1 F2643.2 X115.875 Y112.824 E10.53938
G1 F3000 X115.706 Y112.727 E10.54586
G1 X115.649 Y112.398 E10.55697
G1 X115.553 Y112.11 E10.56706
G1 X115.403 Y111.781 E10.57909
G1 X115.177 Y111.422 E10.5932
G1 X115.211 Y111.219 E10.60004
G1 F2643.2 X115.904 Y110.524 E10.6371
G1 F2649 X116.089 Y110.648 E10.64548
G1 F3030.3 X116.355 Y111.031 E10.66084
G1 F3022.7 X116.486 Y111.257 E10.66946
G1 F2992.5 X116.59 Y111.475 E10.67752
G1 X116.674 Y111.678 E10.68484
G1 X116.754 Y111.91 E10.69302
G1 X116.863 Y112.357 E10.70836
G1 F2963 X116.905 Y112.673 E10.7191
G1 F2620.1 X116.856 Y112.824 E10.72515
G0 F9000 X116.656 Y112.824
G0 X117.195 Y112.008
G1 F2985.1 X117.126 Y111.758 E10.73381
G1 F2992.5 X117.04 Y111.515 E10.74241
G1 X116.947 Y111.291 E10.7505
G1 F3000 X116.831 Y111.06 E10.75909
G1 X116.568 Y110.629 E10.77589
G1 X116.417 Y110.421 E10.78444
G1 F2926.8 X116.254 Y110.243 E10.79266
G1 F2586.2 X116.058 Y110.099 E10.80205
G1 F2580.6 X115.892 Y109.882 E10.81261
G1 F2912.6 X115.707 Y109.715 E10.82115
G1 F2977.7 X115.504 Y109.568 E10.82955
G1 F2985.1 X115.06 Y109.3 E10.84688
G1 F3000 X114.826 Y109.186 E10.85554
G1 F2992.5 X114.613 Y109.099 E10.86321
G1 F3000 X114.341 Y109.006 E10.87277
G1 F3015.1 X113.888 Y108.893 E10.88822
G1 F2970.3 X113.431 Y108.835 E10.9037
G1 F2614.4 X113.127 Y108.879 E10.91542
G1 F2575.1 X112.865 Y108.842 E10.92568
G1 F2919.7 X112.65 Y108.852 E10.93303
G1 F3000 X112.379 Y108.889 E10.94213
G1 F2985.1 X112.119 Y108.945 E10.95102
G1 F2992.5 X111.864 Y109.018 E10.95986
G1 X111.617 Y109.104 E10.96858
G1 F2985.1 X111.395 Y109.196 E10.97662
G1 F3000 X111.172 Y109.305 E10.98487
G1 F2985.1 X110.725 Y109.577 E11.00236
G1 X110.527 Y109.721 E11.01055
G1 F2926.8 X110.348 Y109.885 E11.01882
G1 F2591.8 X110.196 Y110.088 E11.02859
G1 F2586.2 X109.992 Y110.242 E11.03845
G1 F2926.8 X109.849 Y110.395 E11.04559
G1 F2992.5 X109.663 Y110.645 E11.05598
G1 F2985.1 X109.393 Y111.092 E11.07343
G1 F3000 X109.285 Y111.315 E11.08167
G1 X109.105 Y111.791 E11.0986
G1 X108.989 Y112.28 E11.11531
G1 F2963 X108.931 Y112.711 E11.12996
G1 F2608.7 X108.975 Y113.017 E11.14178
G1 X108.929 Y113.361 E11.15506
G1 F2955.7 X108.991 Y113.78 E11.16936
G1 F3000 X109.097 Y114.229 E11.1847
G1 F2992.5 X109.201 Y114.524 E11.19513
G1 X109.297 Y114.759 E11.2036
G1 F3000 X109.401 Y114.972 E11.21148
G1 F2985.1 X109.668 Y115.414 E11.22874
G1 F2992.5 X109.826 Y115.626 E11.23756
G1 F2919.7 X109.993 Y115.809 E11.24602
G1 F2575.1 X110.195 Y115.958 E11.25575
G1 F2580.6 X110.344 Y116.161 E11.26549
G1 F2912.6 X110.538 Y116.337 E11.27446
G1 F2992.5 X110.73 Y116.477 E11.28238
G1 F3007.5 X111.188 Y116.751 E11.30009
G1 F3000 X111.428 Y116.866 E11.30894
G1 F2992.5 X111.631 Y116.949 E11.31625
G1 X111.875 Y117.034 E11.32487
G1 X112.118 Y117.101 E11.33327
G1 X112.375 Y117.158 E11.34205
G1 F3000 X112.624 Y117.197 E11.35043
G1 F2934 X112.861 Y117.207 E11.3585
G1 F2591.8 X113.127 Y117.17 E11.36884
G1 F2620.1 X113.457 Y117.218 E11.38154
G1 F2963 X113.892 Y117.154 E11.39635
G1 F2985.1 X114.12 Y117.103 E11.40416
G1 F2992.5 X114.381 Y117.03 E11.41319
G1 F2985.1 X114.626 Y116.944 E11.42187
G1 X114.861 Y116.846 E11.43038
G1 F3000 X115.072 Y116.743 E11.43819
G1 X115.541 Y116.458 E11.45645
G1 F2963 X115.853 Y116.225 E11.46956
G1 F2614.4 X116.048 Y115.959 E11.48215
G1 F2608.7 X116.303 Y115.771 E11.49426
G1 F2941.2 X116.577 Y115.408 E11.50969
G1 F2992.5 X116.848 Y114.964 E11.52704
G1 F3007.5 X116.965 Y114.72 E11.53602
G1 X117.134 Y114.259 E11.55231
G1 F2992.5 X117.201 Y114.014 E11.56077
G1 X117.261 Y113.735 E11.57029
G1 F2970.3 X117.313 Y113.354 E11.58321
G1 F2620.1 X117.266 Y113.031 E11.59564
