;FLAVOR:Marlin
;TIME:905
;Filament used: 0.492883m
;Layer height: 0.2
;MINX:95.228
;MINY:97.262
;MINZ:0.24
;MAXX:122.948
;MAXY:123.753
;MAXZ:9.64
;TARGET_MACHINE.NAME:Creality K1 Max
;POSTPROCESSED
;  [CreateThumbnail]
;Generated with Cura_SteamEngine 5.9.0
;
;

M82 ;absolute extrusion mode
;Nozzle diameter = 0.4
;Filament type = PLA
;Filament name = PLA
;Filament weight = [1.47004724609375]; M190 S50
; M109 S200
M140 S0
M104 S0
START_PRINT EXTRUDER_TEMP=200 BED_TEMP=50
G92 E0
G92 E0
G1 F2400 E-0.5
;LAYER_COUNT:43
;LAYER:-5
;note -- min layer time used
M107
G0 F15000 X99.029 Y103.615 Z0.24
;TYPE:SUPPORT-INTERFACE
G1 F2400 E0
G1 F2151.8 X98.823 Y103.837 E0.02418
G1 X98.645 Y104.138 E0.05209
G1 X98.246 Y105.26 E0.14715
G1 X97.909 Y105.889 E0.20411
G1 X97.553 Y106.4 E0.25382
G1 X97.25 Y106.805 E0.2942
G1 X96.847 Y107.398 E0.35143
G1 X96.641 Y107.752 E0.38412
G1 X96.436 Y108.264 E0.42815
G1 X96.333 Y108.718 E0.46531
G1 X96.292 Y109.179 E0.50225
G1 X96.288 Y110.424 E0.60163
G1 X96.321 Y110.744 E0.62731
G1 X96.398 Y111.175 E0.66226
G1 X96.517 Y111.55 E0.69367
G1 X96.627 Y111.775 E0.71366
G1 X96.847 Y112.175 E0.7501
G1 X97.073 Y112.547 E0.78485
G1 X97.497 Y113.299 E0.85376
G1 X97.634 Y113.471 E0.87131
G1 X98.088 Y114.139 E0.93578
G1 X98.399 Y114.778 E0.99251
G1 X98.539 Y115.185 E1.02687
G1 X98.696 Y115.563 E1.05954
G1 X98.906 Y115.853 E1.08812
G1 X99.134 Y116.066 E1.11303
G1 X99.433 Y116.246 E1.14089
G1 X99.802 Y116.368 E1.17191
G1 X100.218 Y116.396 E1.20519
G1 X101.528 Y116.4 E1.30976
G1 X102.228 Y116.448 E1.36577
G1 X102.916 Y116.582 E1.42172
G1 X103.553 Y116.801 E1.47549
G1 X104.17 Y117.099 E1.53019
G1 X104.752 Y117.476 E1.58554
G1 X105.265 Y117.915 E1.63944
G1 X105.731 Y118.423 E1.69446
G1 X106.134 Y119.004 E1.75091
G1 X106.423 Y119.549 E1.80015
G1 X106.723 Y120.235 E1.85992
G1 X106.913 Y120.75 E1.90373
G1 X107.076 Y121.399 E1.95715
G1 X107.204 Y121.681 E1.98187
G1 X107.413 Y121.968 E2.01021
G1 X107.624 Y122.163 E2.03314
G1 X107.869 Y122.325 E2.05659
G1 X108.295 Y122.468 E2.09246
G1 X108.71 Y122.496 E2.12566
G1 X111.584 Y122.5 E2.35508
G1 X112.091 Y122.407 E2.39622
G1 X112.404 Y122.265 E2.42366
G1 X112.638 Y122.092 E2.44689
G1 X112.823 Y121.906 E2.46783
G1 X113.044 Y121.546 E2.50155
G1 X113.16 Y121.285 E2.52435
G1 X113.483 Y120.693 E2.57818
G1 X113.9 Y120.121 E2.63469
G1 X114.305 Y119.692 E2.68178
G1 X114.834 Y119.24 E2.73732
G1 X115.444 Y118.853 E2.79499
G1 X115.993 Y118.592 E2.84351
G1 X116.709 Y118.355 E2.90372
G1 X117.371 Y118.227 E2.95754
G1 X118.064 Y118.188 E3.01294
G1 X118.913 Y118.188 E3.08071
G1 X119.407 Y118.133 E3.12039
G1 X119.803 Y118.01 E3.15349
G1 X120.048 Y117.896 E3.17506
G1 X120.462 Y117.66 E3.2131
G1 X120.653 Y117.492 E3.23341
G1 X120.86 Y117.271 E3.25758
G1 X121.118 Y116.904 E3.29339
G1 X121.304 Y116.52 E3.32745
G1 X121.652 Y115.619 E3.40455
G1 X121.727 Y115.205 E3.43813
G1 X121.747 Y115.142 E3.44341
G1 X121.858 Y114.497 E3.49565
G1 X121.88 Y114.162 E3.52245
G1 X121.883 Y112.601 E3.64706
G1 X121.862 Y112.264 E3.67401
G1 X121.792 Y111.946 E3.7
G1 X121.671 Y111.553 E3.73283
G1 X121.53 Y110.829 E3.7917
G1 X121.496 Y110.208 E3.84135
G1 X121.496 Y109.747 E3.87815
G1 X121.53 Y109.147 E3.92612
G1 X121.671 Y108.391 E3.98751
G1 X121.696 Y108.141 E4.00756
G1 X121.704 Y107.466 E4.06145
G1 X121.726 Y107.125 E4.08873
G1 X121.64 Y106.663 E4.12624
G1 X121.508 Y106.314 E4.15602
G1 X121.317 Y105.971 E4.18736
G1 X120.815 Y105.211 E4.26007
G1 X120.409 Y104.678 E4.31355
G1 X120.232 Y104.486 E4.3344
G1 X119.806 Y104.064 E4.38226
G1 X119.576 Y103.86 E4.4068
G1 X119.321 Y103.675 E4.43195
G1 X118.891 Y103.493 E4.46922
G1 X118.282 Y103.374 E4.51875
G1 X117.444 Y103.144 E4.58812
G1 X116.782 Y102.857 E4.64572
G1 X116.207 Y102.508 E4.69941
G1 X115.703 Y102.107 E4.75082
G1 X115.176 Y101.58 E4.81031
G1 X114.764 Y101.027 E4.86536
G1 X114.425 Y100.427 E4.92037
G1 X114.032 Y99.458 E5.00384
G1 X113.819 Y99.097 E5.0373
G1 X113.588 Y98.86 E5.06372
G1 X113.275 Y98.644 E5.09407
G1 X112.85 Y98.495 E5.13002
G1 X112.503 Y98.426 E5.15827
G1 X112.114 Y98.4 E5.18939
G1 X108.013 Y98.4 E5.51675
G1 X107.676 Y98.422 E5.5437
G1 X107.416 Y98.478 E5.56493
G1 X107.044 Y98.606 E5.59634
G1 X106.608 Y98.853 E5.63634
G1 X106.375 Y99.073 E5.66192
G1 X106.152 Y99.38 E5.69221
G1 X105.892 Y100.008 E5.74646
G1 X105.55 Y100.661 E5.8053
G1 X105.145 Y101.222 E5.86054
G1 X104.685 Y101.714 E5.9143
G1 X104.178 Y102.145 E5.96742
G1 X103.602 Y102.514 E6.02202
G1 X102.933 Y102.829 E6.08105
G1 X102.32 Y103.029 E6.13252
G1 X101.66 Y103.155 E6.18616
G1 X100.978 Y103.196 E6.24069
G1 X100.092 Y103.2 E6.31142
G1 X99.568 Y103.292 E6.35389
G1 X99.283 Y103.426 E6.37903
G1 X99.029 Y103.615 E6.4043
G0 F15000 X99.361 Y103.886
G1 F2151.8 X114.486 Y119.012 E8.1118
G1 F2400 E7.6118
G0 F15000 X113.375 Y120.163
G1 F2400 E8.1118
G1 F2151.8 X98.619 Y105.408 E9.77752
G1 F2400 E9.27752
G0 F15000 X97.751 Y106.802
G1 F2400 E9.77752
G1 F2151.8 X112.545 Y121.596 E11.4476
G1 F2400 E10.9476
G0 F15000 X110.785 Y122.098
G1 F2400 E11.4476
G1 F2151.8 X96.891 Y108.204 E13.01607
G1 F2400 E12.51607
G0 F15000 X96.688 Y110.264
G1 F2400 E13.01607
G1 F2151.8 X102.521 Y116.097 E13.67455
G1 F2400 E13.17455
G0 F15000 X100.151 Y115.99
G1 F2400 E13.67455
G1 F2151.8 X98.751 Y114.59 E13.8326
G1 F2400 E13.3326
G0 F15000 X97.55 Y115.581
G0 X97.987 Y116.411
G0 X98.504 Y116.913
G0 X105.894 Y121.062
G0 X107.376 Y120.952
G1 F2400 E13.8326
G1 F2151.8 X108.504 Y122.081 E13.95999
G1 F2400 E13.45999
G0 F15000 X108.702 Y123.564
G0 X111.618 Y123.753
G0 X113.006 Y123.147
G0 X113.483 Y122.736
G0 X115.945 Y119.796
G0 X115.928 Y118.191
G1 F2400 E13.95999
G1 F2151.8 X101.314 Y103.576 E15.6098
G1 F2400 E15.1098
G0 F15000 X103.165 Y103.165
G1 F2400 E15.6098
G1 F2151.8 X117.802 Y117.802 E17.26215
G1 F2400 E16.76215
G0 F15000 X119.825 Y117.562
G1 F2400 E17.26215
G1 F2151.8 X104.587 Y102.324 E18.98235
G1 F2400 E18.48235
G0 F15000 X105.684 Y101.159
G1 F2400 E18.98235
G1 F2151.8 X120.92 Y116.395 E20.70232
G1 F2400 E20.20232
G0 F15000 X121.428 Y114.64
G1 F2400 E20.70232
G1 F2151.8 X106.468 Y99.679 E22.39119
G1 F2400 E21.89119
G0 F15000 X107.862 Y98.811
G1 F2400 E22.39119
G1 F2151.8 X121.471 Y112.42 E23.9275
G1 F2400 E23.4275
G0 F15000 X121.097 Y109.783
G1 F2400 E23.9275
G1 F2151.8 X110.114 Y98.8 E25.16735
G1 F2400 E24.66735
G0 F15000 X112.397 Y98.82
G1 F2400 E25.16735
G1 F2151.8 X113.986 Y100.41 E25.34679
G1 F2400 E24.84679
G0 F15000 X116.936 Y103.359
G1 F2400 E25.34679
G1 F2151.8 X121.301 Y107.725 E25.8396
M104 S200
G1 F2400 E25.3396
G0 F300 X121.301 Y107.725 Z0.54
G0 F15000 X122.76 Y108.205
G0 X122.948 Y112.576
G0 X122.916 Y114.636
G0 X122.634 Y116.041
G0 X122.188 Y117.103
G0 X121.779 Y117.819
G0 X120.273 Y117.315
;TIME_ELAPSED:16.381659
;LAYER:-4
;note -- min layer time used
;TYPE:SUPPORT
G1 F2400 E25.8396
G1 F2622.9 X119.883 Y117.534 E25.88423
G1 X119.631 Y117.646 E25.91175
G1 X119.381 Y117.723 E25.93785
G1 X119.039 Y117.776 E25.97238
G1 X118.784 Y117.788 E25.99786
G1 X118.385 Y117.789 E26.03767
G1 X121.407 Y114.766 E26.46417
G1 X121.463 Y114.442 E26.49698
G1 X121.484 Y114.128 E26.52838
G1 X121.483 Y113.276 E26.6134
G1 X116.835 Y117.924 E27.26928
G1 X116.627 Y117.964 E27.29041
G1 X115.935 Y118.187 E27.36296
G1 X115.261 Y118.499 E27.43707
G1 X114.597 Y118.923 E27.51568
G1 X114.029 Y119.404 E27.58994
G1 X113.532 Y119.944 E27.66317
G1 X113.127 Y120.507 E27.73237
G1 X112.792 Y121.126 E27.8026
G1 X112.682 Y121.381 E27.83031
G1 X112.537 Y121.62 E27.85821
G1 X112.205 Y121.919 E27.90279
G1 X111.955 Y122.031 E27.93012
G1 X111.566 Y122.1 E27.96954
G1 X111.245 Y122.1 E28.00157
G1 X121.378 Y111.968 E29.43138
G1 X121.285 Y111.651 E29.46434
G1 X121.122 Y110.809 E29.54992
G1 X109.831 Y122.1 E31.1432
G1 X108.728 Y122.099 E31.25326
G1 X108.435 Y122.082 E31.28254
G1 X121.118 Y109.399 E33.07225
G1 X121.137 Y109.086 E33.10354
G1 X121.265 Y108.405 E33.17268
G1 X121.298 Y108.106 E33.20269
G1 X121.3 Y107.803 E33.23293
G1 X107.574 Y121.528 E35.16974
G1 X107.423 Y121.195 E35.20623
G1 X107.571 Y121.194 E35.221
G1 X107.247 Y120.441 E35.30279
G1 X121.164 Y106.524 E37.26663
G1 X120.985 Y106.193 E37.30418
G1 X120.627 Y105.647 E37.36932
G1 X106.821 Y119.453 E39.3175
G1 X106.461 Y118.769 E39.39462
G1 X106.309 Y118.551 E39.42114
G1 X120.022 Y104.838 E41.35619
G1 X119.545 Y104.365 E41.42322
G1 X119.299 Y104.147 E41.45602
G1 X105.692 Y117.753 E43.37604
G1 X104.929 Y117.102 E43.47612
G1 X118.255 Y103.776 E45.35656
G1 X117.322 Y103.527 E45.45292
G1 X117.161 Y103.456 E45.47048
G1 X104.03 Y116.587 E47.3234
G1 X103.703 Y116.429 E47.35964
G1 X103.007 Y116.196 E47.43287
G1 X116.221 Y102.982 E49.29751
G1 X115.974 Y102.835 E49.32619
G1 X115.406 Y102.383 E49.39862
G1 X101.771 Y116.018 E51.32267
G1 X101.525 Y115.999 E51.34729
G1 X100.375 Y115.999 E51.46203
G1 X114.728 Y101.647 E53.48733
G1 X114.445 Y101.273 E53.53412
G1 X114.169 Y100.791 E53.58955
G1 X99.292 Y115.669 E55.68892
G1 X99.119 Y115.508 E55.7125
G1 X98.957 Y115.156 E55.75117
G1 X98.81 Y114.737 E55.79547
G1 X113.737 Y99.809 E57.9019
G1 X113.669 Y99.63 E57.92101
G1 X113.484 Y99.327 E57.95643
G1 X113.198 Y99.074 E57.99453
G1 X113.089 Y99.043 E58.00584
G1 X98.338 Y113.794 E60.08737
G1 X98.103 Y113.448 E60.1291
G1 X98.103 Y113.16 E60.15784
G1 X97.81 Y113.038 E60.18951
G1 X97.763 Y112.955 E60.19902
G1 X111.918 Y98.8 E62.19645
G1 X110.504 Y98.8 E62.33754
G1 X97.244 Y112.059 E64.2086
G1 X96.915 Y111.475 E64.27548
G1 X96.791 Y111.098 E64.31508
G1 X109.09 Y98.8 E66.05053
G1 X108.023 Y98.8 E66.15699
G1 X107.653 Y98.822 E66.19398
G1 X106.231 Y100.244 E66.39464
G1 X106.34 Y99.969 E66.42415
G1 X106.368 Y99.921 E66.4297
G1 X106.527 Y99.546 E66.47034
G1 X106.828 Y99.198 E66.51625
G1 X107.119 Y99.023 E66.55013
G1 X107.423 Y98.892 E66.58316
G1 F2400 E66.08316
G0 F15000 X106.227 Y100.254
G1 F2400 E66.58316
G1 F2622.9 X105.906 Y100.851 E66.6508
G1 X105.477 Y101.454 E66.72464
G1 X104.95 Y102.021 E66.80188
G1 X104.418 Y102.47 E66.87134
G1 X103.811 Y102.856 E66.94312
G1 X103.44 Y103.035 E66.98422
G1 X96.692 Y109.783 E67.93643
G1 X96.693 Y109.195 E67.9951
G1 X96.724 Y108.807 E68.03394
G1 X96.822 Y108.38 E68.07766
G1 X96.916 Y108.145 E68.10291
G1 X101.496 Y103.565 E68.7492
G1 X101.015 Y103.599 E68.79731
G1 X100.046 Y103.6 E68.894
G1 X98.829 Y104.818 E69.0658
G1 X99.013 Y104.293 E69.12131
G1 X99.278 Y103.93 E69.16616
G1 X99.582 Y103.701 E69.20413
G1 F2400 E68.70413
G0 F300 X99.582 Y103.701 Z0.74
G0 F15000 X98.687 Y102.544
G0 X98.095 Y103.049
G0 X97.67 Y103.706
G0 X95.602 Y107.48
G0 X95.294 Y108.5
G0 X95.228 Y109.181
G0 X95.281 Y110.982
G0 X95.559 Y112.013
G0 X97.987 Y116.411
G0 X98.561 Y116.969
G0 X99.247 Y117.316
G0 X99.737 Y116.142
;TIME_ELAPSED:30.102247
;LAYER:-3
;TYPE:SUPPORT-INTERFACE
G1 F2400 E69.20413
G1 F6000 X98.743 Y115.147 E69.25091
G1 X98.772 Y115.231 E69.25387
G1 X98.903 Y115.514 E69.26424
G1 X99.049 Y115.715 E69.2725
G1 X99.268 Y115.919 E69.28246
G1 X99.507 Y116.06 E69.29169
G1 X99.829 Y116.174 E69.30305
G1 X100.36 Y116.199 E69.32073
G1 X98.322 Y114.161 E69.41659
G1 X98.258 Y114.032 E69.42138
G1 X97.903 Y113.51 E69.44237
G1 X97.903 Y113.294 E69.44956
G1 X97.67 Y113.196 E69.45797
G1 X97.338 Y112.612 E69.48031
G1 X100.925 Y116.199 E69.64903
G1 X101.491 Y116.199 E69.66786
G1 X96.674 Y111.382 E69.89443
G1 X96.594 Y111.14 E69.90291
G1 X96.515 Y110.657 E69.91919
G1 X102.098 Y116.241 E70.18182
G1 X102.326 Y116.258 E70.18942
G1 X102.775 Y116.352 E70.20468
G1 X96.49 Y110.067 E70.50031
G1 X96.492 Y109.503 E70.51907
G1 X103.59 Y116.6 E70.85291
G1 X104.269 Y116.923 E70.87792
G1 X104.869 Y117.314 E70.90174
G1 X96.49 Y108.935 E71.29586
G1 X96.595 Y108.474 E71.31159
G1 X110.42 Y122.299 E71.96187
G1 X110.985 Y122.299 E71.98067
G1 X96.737 Y108.051 E72.65085
G1 X96.922 Y107.67 E72.66493
G1 X111.557 Y122.305 E73.35332
G1 X112.038 Y122.22 E73.36957
G1 X97.142 Y107.325 E74.0702
G1 X97.374 Y106.991 E74.08373
G1 X112.403 Y122.02 E74.79065
G1 X112.634 Y121.847 E74.80025
G1 X112.695 Y121.746 E74.80417
G1 X97.607 Y106.658 E75.51387
G1 X97.846 Y106.331 E75.52734
G1 X112.899 Y121.384 E76.23538
G1 X113.086 Y121.006 E76.24941
G1 X98.085 Y106.005 E76.95501
G1 X98.277 Y105.631 E76.96899
G1 X113.284 Y120.638 E77.67488
G1 X113.519 Y120.307 E77.68838
G1 X98.465 Y105.253 E78.39647
G1 X98.612 Y104.834 E78.41124
G1 X113.765 Y119.988 E79.12402
G1 X114.035 Y119.692 E79.13734
G1 X98.758 Y104.415 E79.85592
G1 X98.937 Y104.028 E79.87011
G1 X114.324 Y119.415 E80.59386
G1 X114.63 Y119.156 E80.6072
G1 X99.208 Y103.734 E81.3326
G1 X99.561 Y103.52 E81.34633
G1 X114.965 Y118.925 E82.07091
G1 X115.309 Y118.703 E82.08453
G1 X100.006 Y103.4 E82.80433
G1 X100.571 Y103.4 E82.82313
G1 X115.69 Y118.519 E83.53428
G1 X116.078 Y118.341 E83.54848
G1 X101.129 Y103.392 E84.25163
G1 X101.659 Y103.356 E84.2693
G1 X116.496 Y118.193 E84.96719
G1 X116.97 Y118.102 E84.98324
G1 X102.137 Y103.269 E85.68094
G1 X102.585 Y103.151 E85.69635
G1 X117.46 Y118.025 E86.396
G1 X117.991 Y117.991 E86.4137
G1 X103.017 Y103.017 E87.11803
G1 X103.4 Y102.834 E87.13214
G1 X118.568 Y118.002 E87.8456
G1 X119.1 Y117.969 E87.86333
G1 X103.775 Y102.644 E88.58417
G1 X104.12 Y102.423 E88.5978
G1 X119.584 Y117.887 E89.32518
G1 X119.974 Y117.711 E89.33941
G1 X104.447 Y102.184 E90.06975
G1 X104.754 Y101.925 E90.08311
G1 X120.353 Y117.525 E90.81686
G1 X120.625 Y117.231 E90.83018
G1 X105.032 Y101.637 E91.56365
G1 X105.304 Y101.344 E91.57695
G1 X120.886 Y116.927 E92.3099
G1 X121.072 Y116.547 E92.32398
G1 X105.541 Y101.016 E93.05451
G1 X105.776 Y100.685 E93.06801
G1 X121.238 Y116.147 E93.79529
G1 X121.392 Y115.735 E93.80992
G1 X105.984 Y100.328 E94.53464
G1 X106.144 Y99.921 E94.54919
G1 X121.512 Y115.29 E95.27208
G1 X121.602 Y114.814 E95.28819
G1 X106.303 Y99.515 E96.00781
G1 X106.544 Y99.19 E96.02126
G1 X121.684 Y114.33 E96.7334
G1 X121.684 Y113.764 E96.75223
G1 X106.863 Y98.943 E97.44936
G1 X107.24 Y98.755 E97.46337
G1 X121.684 Y113.199 E98.14278
G1 X121.684 Y112.633 E98.1616
G1 X107.672 Y98.621 E98.82068
G1 X108.206 Y98.589 E98.83848
G1 X121.588 Y111.972 E99.46795
G1 X121.48 Y111.605 E99.48067
G1 X121.406 Y111.224 E99.49358
G1 X108.783 Y98.6 E100.08735
G1 X109.348 Y98.6 E100.10614
G1 X121.325 Y110.577 E100.6695
G1 X121.311 Y110.385 E100.67591
G1 X121.262 Y110.385 E100.67754
G1 X121.286 Y109.973 E100.69126
G1 X109.914 Y98.6 E101.22619
G1 X110.48 Y98.601 E101.24502
G1 X121.318 Y109.438 E101.75478
G1 X121.336 Y109.112 E101.76564
G1 X121.371 Y108.926 E101.77193
G1 X111.046 Y98.601 E102.25759
G1 X111.612 Y98.601 E102.27642
G1 X121.46 Y108.45 E102.73966
G1 X121.519 Y107.943 E102.75663
G1 X116.481 Y102.905 E102.99361
G1 X116.72 Y103.047 E103.00285
G1 X117.388 Y103.338 E103.02709
G1 X117.515 Y103.373 E103.03147
G1 X121.508 Y107.366 E103.21929
G1 X121.527 Y107.04 E103.23015
G1 X121.459 Y106.751 E103.24002
G1 X118.288 Y103.58 E103.38918
G1 X118.814 Y103.677 E103.40697
G1 X119.232 Y103.851 E103.42203
G1 X119.469 Y104.031 E103.43193
G1 X119.669 Y104.207 E103.44079
G1 X120.206 Y104.739 E103.46593
G1 X120.768 Y105.495 E103.49726
G1 X119.048 Y103.775 E103.57816
G1 F2400 E103.07816
G0 F15000 X119.293 Y102.509
G0 X116.818 Y101.635
G0 X116.087 Y102.669
G1 F2400 E103.57816
G1 F6000 X115.562 Y102.256 E103.60038
G1 X115.031 Y101.716 E103.62557
G1 X114.612 Y101.162 E103.64867
G1 X114.443 Y100.867 E103.65998
G1 X112.183 Y98.607 E103.76628
G1 X112.657 Y98.639 E103.78208
G1 X112.625 Y98.704 E103.78449
G1 X113.285 Y98.89 E103.8073
G1 X113.467 Y99.019 E103.81472
G1 X113.642 Y99.201 E103.82312
G1 X113.847 Y99.538 E103.83624
G1 X113.952 Y99.81 E103.84593
G1 X112.933 Y98.791 E103.89387
G1 F2400 E103.39387
G0 F15000 X113.341 Y97.534
G0 X112.509 Y97.36
G0 X108 Y97.262
