;FLAVOR:Marlin
;TIME:1748
;Filament used: 0.53524m
;Layer height: 0.1
;MINX:73.121
;MINY:71.814
;MINZ:0.2
;MAXX:146.917
;MAXY:148.209
;MAXZ:5.2
;TARGET_MACHINE.NAME:Creality K1 Max
;POSTPROCESSED
;  [CreateThumbnail]
;Generated with Cura_SteamEngine 5.9.0
;
;

M82 ;absolute extrusion mode
;Nozzle diameter = 0.4
;Filament type = PLA
;Filament name = PLA
;Filament weight = [1.5963784521484374]; M190 S50
; M109 S200
M140 S0
M104 S0
START_PRINT EXTRUDER_TEMP=200 BED_TEMP=50
G92 E0
G92 E0
G1 F2400 E-0.5
;LAYER_COUNT:51
;LAYER:0
M107
G0 F6000 X105.386 Y148.198 Z0.2
;TYPE:SKIRT
G1 F2400 E0
G1 F1200 X104.449 Y148.148 E0.03121
G1 X103.52 Y148.015 E0.06242
G1 X102.607 Y147.8 E0.09362
G1 X101.716 Y147.504 E0.12485
G1 X100.854 Y147.132 E0.15607
G1 X100.03 Y146.685 E0.18725
G1 X99.247 Y146.167 E0.21848
G1 X98.52 Y145.587 E0.24941
G1 X98.175 Y145.273 E0.26493
G1 X96.445 Y143.624 E0.34442
G1 X94.553 Y141.913 E0.42926
G1 X92.645 Y140.285 E0.51268
G1 X90.661 Y138.683 E0.5975
G1 X88.665 Y137.166 E0.68088
G1 X86.614 Y135.695 E0.76483
G1 X84.505 Y134.27 E0.84949
G1 X83.352 Y133.543 E0.89482
G1 X82.296 Y132.86 E0.93665
G1 X81.803 Y132.524 E0.9565
G1 X81.337 Y132.18 E0.97576
G1 X81.025 Y131.936 E0.98893
G1 X80.519 Y131.515 E1.01083
G1 X79.916 Y130.956 E1.03817
G1 X79.703 Y130.743 E1.04819
G1 X79.246 Y130.258 E1.07036
G1 X78.953 Y129.925 E1.08511
G1 X78.319 Y129.132 E1.11888
G1 X78.007 Y128.7 E1.1366
G1 X77.531 Y127.981 E1.16528
G1 X77.364 Y127.705 E1.17601
G1 X77.042 Y127.131 E1.1979
G1 X76.902 Y126.862 E1.20799
G1 X76.537 Y126.09 E1.23639
G1 X76.197 Y125.256 E1.26635
G1 X75.968 Y124.604 E1.28933
G1 X75.71 Y123.717 E1.32005
G1 X75.521 Y122.914 E1.34749
G1 X74.976 Y120.228 E1.43865
G1 X74.399 Y117.748 E1.52334
G1 X73.709 Y115.111 E1.614
G1 X73.519 Y114.228 E1.64404
G1 X73.428 Y113.579 E1.66584
G1 X73.39 Y113.218 E1.67791
G1 X73.331 Y112.259 E1.70987
G1 X73.284 Y109.558 E1.79971
G1 X73.131 Y106.042 E1.91677
G1 X73.121 Y105.5 E1.9348
G1 X73.133 Y104.212 E1.97764
G1 X73.184 Y103.274 E2.00888
G1 X73.317 Y102.35 E2.03993
G1 X73.466 Y101.678 E2.06283
G1 X74.123 Y99.143 E2.14993
G1 X74.69 Y96.667 E2.23441
G1 X75.189 Y94.17 E2.3191
G1 X75.614 Y91.677 E2.40322
G1 X75.938 Y89.411 E2.47935
G1 X76.034 Y88.82 E2.49926
G1 X76.227 Y87.9 E2.53053
G1 X76.5 Y87.003 E2.56172
G1 X76.841 Y86.156 E2.59208
G1 X77.008 Y85.787 E2.60556
G1 X77.435 Y84.951 E2.63678
G1 X77.933 Y84.156 E2.66798
G1 X78.502 Y83.406 E2.69929
G1 X79.186 Y82.658 E2.733
G1 X79.488 Y82.359 E2.74714
G1 X80.183 Y81.728 E2.77836
G1 X80.931 Y81.162 E2.80956
G1 X81.676 Y80.694 E2.83882
G1 X82.067 Y80.471 E2.85379
G1 X82.903 Y80.043 E2.88503
G1 X83.74 Y79.704 E2.91506
G1 X84.951 Y79.351 E2.95702
G1 X85.248 Y79.284 E2.96714
G1 X86.09 Y79.128 E2.99563
G1 X88.588 Y78.772 E3.07955
G1 X91.106 Y78.342 E3.16451
G1 X93.536 Y77.857 E3.24693
G1 X96.066 Y77.275 E3.33327
G1 X98.488 Y76.648 E3.41649
G1 X100.898 Y75.948 E3.49995
G1 X103.32 Y75.171 E3.58455
G1 X105.707 Y74.33 E3.66873
G1 X108.082 Y73.418 E3.75335
G1 X109.486 Y72.844 E3.8038
G1 X110.37 Y72.528 E3.83502
G1 X111.281 Y72.291 E3.86633
G1 X112.338 Y72.121 E3.90194
G1 X112.677 Y72.085 E3.91327
G1 X113.641 Y72.025 E3.9454
G1 X116.355 Y71.977 E4.03568
G1 X119.881 Y71.824 E4.15307
G1 X120.416 Y71.814 E4.17086
G1 X121.699 Y71.825 E4.21354
G1 X122.636 Y71.875 E4.24475
G1 X123.565 Y72.008 E4.27596
G1 X124.478 Y72.223 E4.30716
G1 X125.369 Y72.519 E4.33839
G1 X126.231 Y72.891 E4.36961
G1 X127.055 Y73.338 E4.40079
G1 X127.838 Y73.856 E4.43202
G1 X128.57 Y74.442 E4.4632
G1 X129.251 Y75.09 E4.49447
G1 X129.847 Y75.769 E4.52452
G1 X130.205 Y76.238 E4.54414
G1 X130.536 Y76.7 E4.56305
G1 X132.092 Y78.8 E4.64998
G1 X133.626 Y80.749 E4.73247
G1 X135.264 Y82.718 E4.81766
G1 X136.928 Y84.605 E4.90134
G1 X138.682 Y86.484 E4.98683
G1 X140.413 Y88.238 E5.06879
G1 X142.506 Y90.235 E5.16501
G1 X142.953 Y90.649 E5.18527
G1 X143.612 Y91.317 E5.21648
G1 X144.193 Y92.017 E5.24674
G1 X144.391 Y92.279 E5.25766
G1 X144.905 Y93.022 E5.28771
G1 X145.535 Y94.178 E5.3315
G1 X145.68 Y94.489 E5.34291
G1 X146.039 Y95.356 E5.37413
G1 X146.319 Y96.252 E5.40535
G1 X146.513 Y97.134 E5.43538
G1 X146.639 Y98.08 E5.46713
G1 X146.706 Y99.103 E5.50122
G1 X146.754 Y101.82 E5.59161
G1 X146.907 Y105.349 E5.70909
G1 X146.917 Y105.884 E5.72689
G1 X146.906 Y107.167 E5.76956
G1 X146.856 Y108.104 E5.80077
G1 X146.724 Y109.027 E5.83178
G1 X146.604 Y109.581 E5.85064
G1 X146.344 Y110.645 E5.88707
G1 X145.743 Y113.254 E5.97612
G1 X145.239 Y115.763 E6.06123
G1 X144.814 Y118.237 E6.14472
G1 X144.457 Y120.748 E6.22908
G1 X144.172 Y123.247 E6.31273
G1 X143.957 Y125.714 E6.3951
G1 X143.833 Y126.643 E6.42627
G1 X143.66 Y127.432 E6.45314
G1 X143.569 Y127.785 E6.46526
G1 X143.305 Y128.648 E6.49528
G1 X142.938 Y129.548 E6.52761
G1 X142.599 Y130.22 E6.55264
G1 X142.393 Y130.595 E6.56687
G1 X141.904 Y131.396 E6.59808
G1 X141.367 Y132.123 E6.62814
G1 X140.762 Y132.811 E6.65862
G1 X140.524 Y133.059 E6.67005
G1 X139.831 Y133.718 E6.70186
G1 X139.099 Y134.3 E6.73296
G1 X138.441 Y134.741 E6.75931
G1 X136.115 Y136.176 E6.85021
G1 X135.491 Y136.573 E6.87481
G1 X134.574 Y137.093 E6.90987
G1 X131.847 Y138.464 E7.01139
G1 X129.608 Y139.676 E7.09607
G1 X127.463 Y140.918 E7.1785
G1 X125.273 Y142.268 E7.26407
G1 X123.155 Y143.658 E7.34833
G1 X121.063 Y145.119 E7.4332
G1 X120.155 Y145.781 E7.47058
G1 X119.37 Y146.301 E7.50189
G1 X118.402 Y146.815 E7.53835
G1 X118.056 Y146.977 E7.55105
G1 X117.189 Y147.334 E7.58224
G1 X116.292 Y147.614 E7.61349
G1 X115.41 Y147.806 E7.64352
G1 X114.76 Y147.9 E7.66536
G1 X114.445 Y147.935 E7.6759
G1 X113.433 Y147.998 E7.70963
G1 X110.729 Y148.046 E7.79958
G1 X107.203 Y148.199 E7.91696
G1 X106.668 Y148.209 E7.93476
G1 X105.386 Y148.198 E7.9774
G0 F6000 X106.671 Y147.809
G1 F1200 X105.407 Y147.799 E8.01944
G1 X104.505 Y147.752 E8.04948
G1 X103.611 Y147.625 E8.07952
G1 X102.732 Y147.42 E8.10954
G1 X101.874 Y147.137 E8.13959
G1 X101.044 Y146.78 E8.16964
G1 X100.25 Y146.351 E8.19965
G1 X99.496 Y145.854 E8.22969
G1 X98.789 Y145.291 E8.25975
G1 X98.451 Y144.983 E8.27496
G1 X96.721 Y143.334 E8.35445
G1 X94.821 Y141.616 E8.43965
G1 X92.905 Y139.981 E8.52342
G1 X90.912 Y138.372 E8.60862
G1 X88.898 Y136.841 E8.69276
G1 X86.838 Y135.363 E8.77709
G1 X84.729 Y133.939 E8.86172
G1 X83.569 Y133.207 E8.90735
G1 X82.521 Y132.529 E8.94886
G1 X82.04 Y132.202 E8.96821
G1 X81.583 Y131.865 E8.98709
G1 X81.281 Y131.629 E8.99984
G1 X80.791 Y131.221 E9.02105
G1 X80.198 Y130.672 E9.04792
G1 X79.994 Y130.469 E9.0575
G1 X79.546 Y129.993 E9.07924
G1 X79.265 Y129.675 E9.09335
G1 X78.643 Y128.898 E9.12646
G1 X78.34 Y128.479 E9.14365
G1 X77.873 Y127.774 E9.17178
G1 X77.713 Y127.509 E9.18208
G1 X77.397 Y126.946 E9.20355
G1 X77.257 Y126.677 E9.21364
G1 X76.907 Y125.939 E9.2408
G1 X76.574 Y125.123 E9.27012
G1 X76.352 Y124.492 E9.29236
G1 X76.099 Y123.625 E9.3224
G1 X75.913 Y122.834 E9.34943
G1 X75.366 Y120.137 E9.44096
G1 X74.789 Y117.657 E9.52565
G1 X74.1 Y115.027 E9.61607
G1 X73.91 Y114.144 E9.64611
G1 X73.826 Y113.536 E9.66653
G1 X73.789 Y113.193 E9.678
G1 X73.731 Y112.252 E9.70936
G1 X73.684 Y109.551 E9.79921
G1 X73.531 Y106.034 E9.91629
G1 X73.521 Y105.503 E9.93396
G1 X73.532 Y104.233 E9.9762
G1 X73.58 Y103.331 E10.00624
G1 X73.708 Y102.437 E10.03628
G1 X73.857 Y101.765 E10.05918
G1 X74.51 Y99.243 E10.14582
G1 X75.08 Y96.756 E10.23069
G1 X75.581 Y94.248 E10.31575
G1 X76.01 Y91.734 E10.40058
G1 X76.333 Y89.475 E10.47647
G1 X76.426 Y88.901 E10.49581
G1 X76.61 Y88.016 E10.52588
G1 X76.871 Y87.152 E10.5559
G1 X77.205 Y86.321 E10.58569
G1 X77.365 Y85.968 E10.59858
G1 X77.774 Y85.163 E10.62861
G1 X78.252 Y84.397 E10.65864
G1 X78.797 Y83.676 E10.6887
G1 X79.468 Y82.942 E10.72178
G1 X79.757 Y82.655 E10.73532
G1 X80.425 Y82.047 E10.76537
G1 X81.144 Y81.501 E10.79539
G1 X81.889 Y81.033 E10.82466
G1 X82.25 Y80.827 E10.83848
G1 X83.053 Y80.414 E10.86851
G1 X83.89 Y80.075 E10.89855
G1 X85.04 Y79.741 E10.93838
G1 X85.321 Y79.677 E10.94797
G1 X86.146 Y79.524 E10.97587
G1 X88.644 Y79.168 E11.0598
G1 X91.18 Y78.735 E11.14536
G1 X93.626 Y78.247 E11.22832
G1 X96.156 Y77.665 E11.31467
G1 X98.594 Y77.033 E11.39844
G1 X101.02 Y76.329 E11.48245
G1 X103.442 Y75.552 E11.56705
G1 X105.84 Y74.707 E11.65162
G1 X108.234 Y73.788 E11.73691
G1 X109.621 Y73.22 E11.78676
G1 X110.471 Y72.915 E11.8168
G1 X111.345 Y72.686 E11.84685
G1 X112.381 Y72.519 E11.88175
G1 X112.702 Y72.484 E11.89249
G1 X113.648 Y72.425 E11.92401
G1 X116.372 Y72.377 E12.01463
G1 X119.889 Y72.224 E12.13171
G1 X120.413 Y72.214 E12.14915
G1 X121.678 Y72.224 E12.19122
G1 X122.58 Y72.271 E12.22126
G1 X123.474 Y72.398 E12.2513
G1 X124.353 Y72.603 E12.28132
G1 X125.211 Y72.886 E12.31137
G1 X126.041 Y73.243 E12.34142
G1 X126.835 Y73.672 E12.37143
G1 X127.589 Y74.169 E12.40147
G1 X128.295 Y74.732 E12.4315
G1 X128.95 Y75.354 E12.46155
G1 X129.546 Y76.033 E12.4916
G1 X129.88 Y76.471 E12.50992
G1 X130.215 Y76.938 E12.52903
G1 X131.778 Y79.047 E12.61634
G1 X133.318 Y81.005 E12.69919
G1 X134.956 Y82.974 E12.78438
G1 X136.628 Y84.87 E12.86846
G1 X138.397 Y86.765 E12.95468
G1 X140.128 Y88.519 E13.03665
G1 X142.235 Y90.529 E13.1335
G1 X142.669 Y90.93 E13.15315
G1 X143.304 Y91.572 E13.18319
G1 X143.874 Y92.259 E13.21288
G1 X144.062 Y92.507 E13.22323
G1 X144.576 Y93.25 E13.25328
G1 X145.173 Y94.347 E13.29482
G1 X145.311 Y94.642 E13.30565
G1 X145.657 Y95.476 E13.33568
G1 X145.928 Y96.338 E13.36573
G1 X146.122 Y97.22 E13.39577
G1 X146.24 Y98.106 E13.4255
G1 X146.306 Y99.11 E13.45896
G1 X146.354 Y101.837 E13.54968
G1 X146.507 Y105.357 E13.66686
G1 X146.517 Y105.881 E13.6843
G1 X146.507 Y107.146 E13.72637
G1 X146.46 Y108.048 E13.75641
G1 X146.333 Y108.942 E13.78645
G1 X146.215 Y109.486 E13.80496
G1 X145.955 Y110.55 E13.84139
G1 X145.353 Y113.164 E13.93061
G1 X144.847 Y115.684 E14.0161
G1 X144.42 Y118.169 E14.09996
G1 X144.061 Y120.692 E14.18472
G1 X143.775 Y123.202 E14.26874
G1 X143.56 Y125.662 E14.35087
G1 X143.442 Y126.558 E14.38093
G1 X143.273 Y127.332 E14.40728
G1 X143.186 Y127.668 E14.41883
G1 X142.922 Y128.531 E14.44884
G1 X142.581 Y129.368 E14.4789
G1 X142.249 Y130.027 E14.50345
G1 X142.051 Y130.387 E14.51711
G1 X141.582 Y131.158 E14.54713
G1 X141.045 Y131.885 E14.57719
G1 X140.473 Y132.534 E14.60596
G1 X140.235 Y132.782 E14.61739
G1 X139.582 Y133.405 E14.64741
G1 X138.876 Y133.968 E14.67745
G1 X138.231 Y134.401 E14.70328
G1 X135.905 Y135.836 E14.79419
G1 X135.294 Y136.225 E14.81828
G1 X134.394 Y136.736 E14.8527
G1 X131.656 Y138.112 E14.95462
G1 X129.417 Y139.325 E15.03931
G1 X127.253 Y140.577 E15.12247
G1 X125.063 Y141.927 E15.20803
G1 X122.935 Y143.324 E15.2927
G1 X120.834 Y144.791 E15.37793
G1 X119.934 Y145.448 E15.41499
G1 X119.182 Y145.948 E15.44503
G1 X118.233 Y146.453 E15.48078
G1 X117.903 Y146.607 E15.49289
G1 X117.069 Y146.952 E15.52291
G1 X116.207 Y147.223 E15.55297
G1 X115.325 Y147.415 E15.58299
G1 X114.716 Y147.502 E15.60345
G1 X114.401 Y147.537 E15.61399
G1 X113.426 Y147.598 E15.64648
G1 X110.712 Y147.646 E15.73676
G1 X107.195 Y147.799 E15.85385
G1 X106.671 Y147.809 E15.87128
G1 F2400 E15.37128
;MESH:Air Line Small.stl
G0 F6000 X97.006 Y129.368
G0 X97.006 Y123.262
G0 X97.071 Y118.805
G0 X95.443 Y113.887
G0 X92.655 Y113.883
G0 X92.257 Y113.287
G0 X92.16 Y112.88
G0 X92.371 Y104.606
G0 X86.056 Y94.113
G0 X85.826 Y93.63
G0 X85.77 Y93.146
G0 X85.773 Y90.74
G0 X85.846 Y90.332
G0 X86.11 Y89.752
G0 X86.558 Y89.324
G0 X87.064 Y89.049
G0 X87.818 Y88.938
G0 X89.285 Y88.949
G0 X89.285 Y91.055
G0 X87.887 Y91.055
G0 X86.834 Y90.267
;TYPE:WALL-OUTER
G1 F2400 E15.87128
G1 F1159.4 X86.681 Y90.594 E15.88371
G1 F1179.4 X86.638 Y90.807 E15.89106
G1 F1188.1 X86.633 Y93.088 E15.96769
G1 F1170.7 X86.676 Y93.385 E15.97792
G1 F1153.8 X86.799 Y93.65 E15.98803
G1 F1165 X86.96 Y93.849 E15.9968
G1 F1162.2 X87.152 Y94.004 E16.00527
G1 F1167.9 X87.384 Y94.121 E16.01415
G1 F1182.3 X87.618 Y94.174 E16.02225
G1 F1191.1 X99.375 Y94.186 E16.41622
G1 F1185.2 X99.679 Y94.295 E16.4271
G1 F1170.7 X99.887 Y94.478 E16.43654
G1 F1165 X100.023 Y94.818 E16.44909
G1 F1182.3 X100.032 Y95.984 E16.48845
G1 F1200 X100.431 Y95.984 E16.50172
G1 F1182.3 X100.422 Y94.718 E16.54446
G1 F1159.4 X100.322 Y94.43 E16.55496
G1 F1153.8 X100.155 Y94.157 E16.56603
G1 F1165 X99.899 Y93.949 E16.57733
G1 F1170.7 X99.601 Y93.824 E16.58834
G1 F1182.3 X99.335 Y93.785 E16.59742
G1 F1191.1 X87.685 Y93.777 E16.98781
G1 F1182.3 X87.429 Y93.693 E16.9969
G1 F1170.7 X87.177 Y93.496 E17.00781
G1 F1176.5 X87.035 Y93.132 E17.02106
G1 F1185.2 X87.036 Y90.874 E17.0971
G1 F1182.3 X87.083 Y90.677 E17.10394
G1 F1179.4 X87.253 Y90.41 E17.11465
G1 F1182.3 X87.508 Y90.251 E17.1248
G1 F1191.1 X87.684 Y90.204 E17.1309
G1 F1200 X88.432 Y90.2 E17.15578
G1 X88.432 Y89.8 E17.16908
G1 X87.649 Y89.8 E17.19513
G1 F1191.1 X87.373 Y89.868 E17.20465
G1 F1176.5 X87.075 Y90.032 E17.21619
G1 F1156.6 X86.834 Y90.267 E17.22781
G1 F2400 E16.72781
;MESH:Air Line Big.stl
G0 F6000 X87.887 Y91.055
G0 X89.285 Y91.055
G0 X96.882 Y90.71
G0 X105.147 Y90.229
G0 X106.408 Y90.184
G1 F2400 E17.22781
G1 F1194 X106.347 Y89.807 E17.24057
G1 F1182.3 X106.273 Y89.632 E17.24699
G1 X106.054 Y89.323 E17.25977
G1 X105.919 Y89.211 E17.26569
G1 F1185.2 X105.574 Y89.035 E17.27874
G1 F1188.1 X105.332 Y88.979 E17.28708
G1 F1191.1 X97.991 Y88.976 E17.53307
G1 F1200 X97.851 Y88.901 E17.53836
G1 X97.813 Y88.821 E17.5413
G1 X97.808 Y88.576 E17.54945
G1 X97.208 Y88.576 E17.56941
G1 X97.203 Y88.821 E17.57756
G1 X97.114 Y88.946 E17.58266
G1 X97.008 Y88.976 E17.58633
G1 X95.808 Y88.976 E17.62624
G1 X95.808 Y89.376 E17.63954
G1 X97.008 Y89.376 E17.67946
G1 X97.114 Y89.406 E17.68312
G1 X97.204 Y89.532 E17.68827
G1 X97.208 Y89.776 E17.69639
G1 X97.808 Y89.776 E17.71634
G1 X97.812 Y89.532 E17.72446
G1 X97.902 Y89.406 E17.72961
G1 X97.991 Y89.376 E17.73273
G1 F1191.1 X105.267 Y89.38 E17.97655
G1 F1206 X105.59 Y89.473 E17.98767
G1 F1218.3 X105.834 Y89.669 E17.99793
G1 F1209.1 X106.008 Y90.043 E18.01154
G1 F1206 X106.008 Y93.895 E18.13902
G1 F1200 X106.069 Y94.141 E18.14745
G1 F1194 X106.242 Y94.475 E18.16002
G1 F1200 X106.507 Y94.745 E18.17261
G1 F1203 X106.843 Y94.915 E18.1851
G1 F1200 X107.089 Y94.976 E18.19353
G1 X114.848 Y94.976 E18.45159
G1 X114.848 Y94.576 E18.4649
G1 F1206 X107.06 Y94.574 E18.72263
G1 F1212.1 X106.715 Y94.405 E18.73528
G1 X106.51 Y94.155 E18.74593
G1 X106.408 Y93.891 E18.75525
G1 F1203 X106.408 Y90.184 E18.87823
G1 F2400 E18.37823
G0 F6000 X105.147 Y90.229
G0 X98.664 Y90.229
G0 X97.568 Y89.176
;TYPE:WALL-INNER
G1 F2400 E18.87823
G1 F1000 X97.538 Y89.124 E18.88063
G1 X97.478 Y89.124 E18.88302
G1 X97.448 Y89.176 E18.88542
G1 X97.478 Y89.228 E18.88782
G1 X97.538 Y89.228 E18.89021
G1 X97.568 Y89.176 E18.89261
G1 F2400 E18.39261
G0 F6000 X97.501 Y89.176
G0 X97.587 Y89.552
G0 X98.664 Y90.229
G0 X98.664 Y90.629
G0 X96.358 Y90.629
G0 X94.958 Y90.229
G0 X94.958 Y88.123
G0 X96.358 Y87.723
G0 X98.664 Y87.723
G0 X105.437 Y88.112
G0 X125.101 Y93.723
G0 X125.101 Y95.829
G0 X124.601 Y95.829
G0 X124.248 Y94.976
;TYPE:WALL-OUTER
G1 F2400 E18.89261
G1 F1200 X124.248 Y94.576 E18.90591
G1 F1194 X123.879 Y94.577 E18.91825
G1 F1061.9 X123.548 Y94.626 E18.93082
G1 F1066.7 X123.148 Y94.576 E18.94591
G1 F1200 X115.648 Y94.576 E19.19536
G1 X115.648 Y94.976 E19.20866
G1 X123.148 Y94.976 E19.45811
G1 F1066.7 X123.348 Y95.026 E19.46583
G1 X123.348 Y95.976 E19.50137
G1 F1200 X123.748 Y95.976 E19.51468
G1 F1066.7 X123.748 Y95.026 E19.55022
G1 F1061.9 X123.913 Y94.977 E19.55669
G1 F1194 X124.248 Y94.976 E19.56789
G1 F2400 E19.06789
;MESH:Step (X4).stl(1)
G0 F6000 X124.248 Y93.711
G0 X122.255 Y87.961
G0 X114.06 Y84.073
G0 X113.318 Y83.457
G1 F2400 E19.56789
