;FLAVOR:Marlin
;TIME:2451
;Filament used: 2.50831m
;Layer height: 0.2
;MINX:78.9
;MINY:51.2
;MINZ:0.2
;MAXX:141.1
;MAXY:168.8
;MAXZ:5.2
;TARGET_MACHINE.NAME:Creality K1 Max
;POSTPROCESSED
;  [CreateThumbnail]
;Generated with Cura_SteamEngine 5.9.0
;
;

M82 ;absolute extrusion mode
;Nozzle diameter = 0.4
;Filament type = PLA
;Filament name = PLA
;Filament weight = [7.4811537109375]; M190 S50
; M109 S200
M140 S0
M104 S0
START_PRINT EXTRUDER_TEMP=200 BED_TEMP=50
G92 E0
G92 E0
G1 F2400 E-0.5
;LAYER_COUNT:26
;LAYER:0
M107
G0 F6000 X137.517 Y53.873 Z0.2
;TYPE:SKIRT
G1 F2400 E0
G1 F1200 X138.191 Y54.526 E0.03121
G1 X138.805 Y55.235 E0.06241
G1 X139.355 Y55.996 E0.09364
G1 X139.817 Y56.772 E0.12368
G1 X140.24 Y57.649 E0.15606
G1 X140.569 Y58.527 E0.18725
G1 X140.82 Y59.432 E0.21848
G1 X140.991 Y60.359 E0.24983
G1 X141.086 Y61.489 E0.28755
G1 X141.1 Y62.13 E0.30888
G1 X141.099 Y157.595 E3.48405
G1 X141.089 Y158.34 E3.50884
G1 X141.035 Y159.277 E3.54005
G1 X140.897 Y160.206 E3.57129
G1 X140.678 Y161.118 E3.60249
G1 X140.38 Y162.008 E3.6337
G1 X140.003 Y162.868 E3.66493
G1 X139.553 Y163.69 E3.6961
G1 X139.031 Y164.471 E3.72735
G1 X138.442 Y165.201 E3.75854
G1 X137.817 Y165.852 E3.78856
G1 X137.082 Y166.493 E3.821
G1 X136.322 Y167.043 E3.8522
G1 X135.516 Y167.524 E3.88342
G1 X134.671 Y167.932 E3.91463
G1 X133.793 Y168.263 E3.94584
G1 X132.889 Y168.516 E3.97706
G1 X131.962 Y168.688 E4.00842
G1 X130.811 Y168.786 E4.04684
G1 X130.17 Y168.8 E4.06816
G1 X90.07 Y168.799 E5.40189
G1 X89.354 Y168.789 E5.42571
G1 X88.418 Y168.735 E5.45689
G1 X87.489 Y168.596 E5.48814
G1 X86.577 Y168.377 E5.51933
G1 X85.687 Y168.078 E5.55056
G1 X84.828 Y167.701 E5.58176
G1 X84.005 Y167.25 E5.61297
G1 X83.225 Y166.728 E5.64419
G1 X82.521 Y166.162 E5.67423
G1 X81.819 Y165.487 E5.70663
G1 X81.204 Y164.778 E5.73784
G1 X80.674 Y164.047 E5.76787
G1 X80.174 Y163.211 E5.80027
G1 X79.766 Y162.366 E5.83148
G1 X79.435 Y161.488 E5.86269
G1 X79.183 Y160.584 E5.8939
G1 X79.011 Y159.655 E5.92533
G1 X78.913 Y158.476 E5.96468
G1 X78.9 Y157.858 E5.98524
G1 X78.901 Y62.331 E9.16248
G1 X78.911 Y61.648 E9.1852
G1 X78.966 Y60.711 E9.21641
G1 X79.105 Y59.783 E9.24762
G1 X79.325 Y58.871 E9.27883
G1 X79.625 Y57.981 E9.31007
G1 X80.002 Y57.122 E9.34127
G1 X80.453 Y56.3 E9.37245
G1 X80.976 Y55.52 E9.40369
G1 X81.543 Y54.816 E9.43375
G1 X82.218 Y54.115 E9.46612
G1 X82.927 Y53.5 E9.49734
G1 X83.659 Y52.97 E9.52739
G1 X84.495 Y52.471 E9.55978
G1 X85.34 Y52.064 E9.59097
G1 X86.219 Y51.733 E9.62221
G1 X87.122 Y51.482 E9.65338
G1 X88.05 Y51.31 E9.68477
G1 X89.189 Y51.214 E9.72279
G1 X89.821 Y51.2 E9.74382
G1 X129.798 Y51.2 E11.07346
G1 X130.66 Y51.212 E11.10213
G1 X131.597 Y51.268 E11.13335
G1 X132.525 Y51.407 E11.16456
G1 X133.438 Y51.628 E11.1958
G1 X134.294 Y51.916 E11.22584
G1 X135.186 Y52.306 E11.25822
G1 X136.007 Y52.759 E11.28941
G1 X136.758 Y53.261 E11.31945
G1 X137.517 Y53.873 E11.35188
G0 F6000 X137.889 Y54.788
G1 F1200 X138.481 Y55.47 E11.38192
G1 X139.011 Y56.201 E11.41195
G1 X139.473 Y56.977 E11.44199
G1 X139.866 Y57.79 E11.47202
G1 X140.184 Y58.635 E11.50205
G1 X140.427 Y59.505 E11.5321
G1 X140.592 Y60.393 E11.56214
G1 X140.687 Y61.523 E11.59985
G1 X140.7 Y62.13 E11.62005
G1 X140.699 Y157.59 E14.79506
G1 X140.69 Y158.317 E14.81924
G1 X140.639 Y159.219 E14.84929
G1 X140.508 Y160.113 E14.87934
G1 X140.299 Y160.991 E14.90936
G1 X140.013 Y161.848 E14.93941
G1 X139.652 Y162.676 E14.96945
G1 X139.22 Y163.468 E14.99946
G1 X138.719 Y164.22 E15.02951
G1 X138.153 Y164.924 E15.05956
G1 X137.528 Y165.575 E15.08957
G1 X136.847 Y166.169 E15.11963
G1 X136.116 Y166.7 E15.14968
G1 X135.342 Y167.164 E15.17969
G1 X134.529 Y167.558 E15.20974
G1 X133.685 Y167.878 E15.23976
G1 X132.815 Y168.123 E15.26983
G1 X131.928 Y168.289 E15.29984
G1 X130.777 Y168.387 E15.33826
G1 X130.17 Y168.4 E15.35845
G1 X90.075 Y168.399 E16.69202
G1 X89.377 Y168.39 E16.71524
G1 X88.476 Y168.339 E16.74525
G1 X87.582 Y168.207 E16.77531
G1 X86.704 Y167.998 E16.80533
G1 X85.847 Y167.711 E16.83539
G1 X85.02 Y167.35 E16.8654
G1 X84.227 Y166.917 E16.89545
G1 X83.476 Y166.416 E16.92548
G1 X82.772 Y165.85 E16.95552
G1 X82.121 Y165.224 E16.98556
G1 X81.528 Y164.543 E17.01559
G1 X80.998 Y163.812 E17.04563
G1 X80.534 Y163.037 E17.07567
G1 X80.14 Y162.224 E17.10572
G1 X79.82 Y161.38 E17.13574
G1 X79.576 Y160.51 E17.16579
G1 X79.41 Y159.622 E17.19584
G1 X79.313 Y158.467 E17.23439
G1 X79.3 Y157.858 E17.25465
G1 X79.301 Y62.336 E20.43172
G1 X79.31 Y61.671 E20.45384
G1 X79.362 Y60.769 E20.48389
G1 X79.494 Y59.876 E20.51392
G1 X79.704 Y58.998 E20.54394
G1 X79.991 Y58.141 E20.574
G1 X80.353 Y57.314 E20.60403
G1 X80.786 Y56.522 E20.63405
G1 X81.288 Y55.771 E20.6641
G1 X81.855 Y55.067 E20.69416
G1 X82.481 Y54.417 E20.72418
G1 X83.162 Y53.824 E20.75421
G1 X83.894 Y53.294 E20.78427
G1 X84.669 Y52.831 E20.8143
G1 X85.482 Y52.438 E20.84433
G1 X86.327 Y52.118 E20.87438
G1 X87.196 Y51.875 E20.90439
G1 X88.084 Y51.709 E20.93444
G1 X89.223 Y51.613 E20.97246
G1 X89.83 Y51.6 E20.99265
G1 X129.793 Y51.6 E22.32183
G1 X130.637 Y51.611 E22.3499
G1 X131.539 Y51.664 E22.37995
G1 X132.432 Y51.796 E22.40998
G1 X133.31 Y52.007 E22.44001
G1 X134.166 Y52.295 E22.47005
G1 X134.993 Y52.657 E22.50008
G1 X135.785 Y53.092 E22.53013
G1 X136.536 Y53.594 E22.56017
G1 X137.239 Y54.161 E22.59021
G1 X137.889 Y54.788 E22.62025
G1 F2400 E22.12025
;MESH:Chassis.stl
G0 F6000 X110.501 Y72.034
G0 X109.665 Y72.59
;TYPE:WALL-OUTER
G1 F2400 E22.62025
G1 F1200 X110.001 Y72.545 E22.63153
G1 X110.349 Y72.594 E22.64322
G1 X110.677 Y72.73 E22.65503
G1 X110.955 Y72.94 E22.66661
G1 X111.166 Y73.224 E22.67838
G1 X111.308 Y73.559 E22.69048
G1 X111.348 Y73.9 E22.7019
G1 X111.301 Y74.264 E22.71411
G1 X111.17 Y74.569 E22.72515
G1 X110.951 Y74.857 E22.73718
G1 X110.678 Y75.065 E22.7486
G1 X110.35 Y75.207 E22.76049
G1 X110.018 Y75.248 E22.77161
G1 X109.648 Y75.206 E22.784
G1 X109.322 Y75.065 E22.79581
G1 X109.045 Y74.857 E22.80733
G1 X108.826 Y74.568 E22.81939
G1 X108.699 Y74.263 E22.83038
G1 X108.645 Y73.901 E22.84255
G1 X108.696 Y73.541 E22.85465
G1 X108.843 Y73.204 E22.86688
G1 X109.041 Y72.943 E22.87777
G1 X109.324 Y72.73 E22.88955
G1 X109.665 Y72.59 E22.90181
G1 F2400 E22.40181
G0 F6000 X109.627 Y72.285
G0 X108.867 Y72.767
G0 X108.612 Y73.098
G0 X108.452 Y73.485
G0 X108.397 Y73.9
G0 X108.452 Y74.315
G0 X108.612 Y74.702
G0 X109.618 Y75.789
G0 X109.965 Y83.115
G0 X108.863 Y85.627
G1 F2400 E22.90181
G1 F1200 X108.74 Y85.337 E22.91229
G1 X108.701 Y84.974 E22.92443
G1 X108.741 Y84.662 E22.9349
G1 X108.888 Y84.327 E22.94706
G1 X109.08 Y84.076 E22.95757
G1 X109.345 Y83.876 E22.96862
G1 X109.663 Y83.74 E22.98012
G1 X109.982 Y83.7 E22.99081
G1 X110.338 Y83.74 E23.00273
G1 X110.651 Y83.876 E23.01408
G1 X110.916 Y84.076 E23.02512
G1 X111.124 Y84.344 E23.0364
G1 X111.26 Y84.663 E23.04794
G1 X111.299 Y84.974 E23.05836
G1 X111.26 Y85.339 E23.07057
G1 X111.111 Y85.671 E23.08268
G1 X110.899 Y85.935 E23.09394
G1 X110.626 Y86.136 E23.10521
G1 F1233.9 X110.358 Y86.239 E23.1145
G1 F1311.5 X109.978 Y86.276 E23.12612
G1 X109.643 Y86.239 E23.13638
G1 F1250 X109.344 Y86.126 E23.14658
G1 F1224.5 X109.076 Y85.919 E23.15762
G1 F1209.1 X108.863 Y85.627 E23.16955
G1 F2400 E22.66955
G0 F6000 X108.576 Y85.745
G0 X108.447 Y85
G0 X108.499 Y84.598
G0 X108.655 Y84.223
G0 X108.902 Y83.902
G0 X109.223 Y83.655
G0 X109.598 Y83.499
G0 X110 Y83.447
G0 X110.402 Y83.499
G0 X110.777 Y83.655
G0 X111.098 Y83.902
G0 X111.345 Y84.223
G0 X111.501 Y84.598
G0 X111.597 Y86.025
G0 X119.493 Y86.36
G0 X119.41 Y86.67
G1 F2400 E23.16955
G1 F1200 X123.536 Y92.637 E23.41084
G1 X123.538 Y127.356 E24.5656
G1 X119.4 Y133.336 E24.80747
G1 X119.298 Y133.389 E24.81129
G1 X110.722 Y133.392 E25.09653
G1 F1276.6 X110 Y133.369 E25.11912
G1 X109.276 Y133.391 E25.14176
G1 F1203 X100.712 Y133.391 E25.42589
G1 F1200 X100.599 Y133.347 E25.42992
G1 X96.462 Y127.356 E25.67208
G1 X96.464 Y92.637 E26.82683
G1 X100.586 Y86.67 E27.06805
G1 X100.719 Y86.604 E27.07299
G1 X109.277 Y86.605 E27.35763
G1 F1276.6 X110 Y86.628 E27.38024
G1 X110.721 Y86.604 E27.4028
G1 F1200 X119.288 Y86.605 E27.68774
G1 X119.41 Y86.67 E27.69233
G1 F2400 E27.19233
G0 F6000 X119.665 Y86.495
G0 X123.788 Y92.564
G0 X123.788 Y127.436
G0 X119.492 Y133.639
G0 X111.098 Y133.902
G0 X111.345 Y134.223
G0 X111.501 Y134.598
G0 X111.553 Y135
G0 X111.501 Y135.402
G0 X111.345 Y135.777
G0 X111.145 Y136.037
G0 X110.457 Y136.544
G0 X110.338 Y136.257
G1 F2400 E27.69233
G1 F1200 X110.018 Y136.3 E27.70307
G1 X109.662 Y136.257 E27.715
G1 X109.346 Y136.125 E27.72639
G1 X109.08 Y135.92 E27.73756
G1 X108.863 Y135.627 E27.74969
G1 X108.74 Y135.337 E27.76016
G1 X108.701 Y134.974 E27.77231
G1 X108.741 Y134.662 E27.78277
G1 X108.888 Y134.327 E27.79494
G1 X109.077 Y134.077 E27.80536
G1 X109.327 Y133.888 E27.81578
G1 F1250 X109.665 Y133.752 E27.82742
G1 F1326 X110.023 Y133.723 E27.83823
G1 F1304.3 X110.358 Y133.761 E27.84854
G1 F1230.8 X110.669 Y133.888 E27.85944
G1 F1200 X110.935 Y134.097 E27.87069
G1 X111.137 Y134.37 E27.88198
G1 X111.26 Y134.665 E27.89261
G1 X111.299 Y135.026 E27.90469
G1 X111.259 Y135.34 E27.91522
G1 X111.111 Y135.671 E27.92728
G1 X110.927 Y135.909 E27.93728
G1 X110.651 Y136.124 E27.94892
G1 X110.338 Y136.257 E27.96023
G1 F2400 E27.46023
G0 F6000 X110.457 Y136.544
G0 X110 Y136.88
G0 X110 Y144.161
G0 X110.678 Y147.265
G1 F2400 E27.96023
G1 F1200 X110.349 Y147.406 E27.97214
G1 X109.99 Y147.448 E27.98416
G1 X109.649 Y147.406 E27.99559
G1 X109.314 Y147.26 E28.00774
G1 X109.042 Y147.057 E28.01903
G1 X108.844 Y146.798 E28.02987
G1 X108.694 Y146.447 E28.04257
G1 X108.645 Y146.1 E28.05422
G1 X108.695 Y145.745 E28.06615
G1 X108.844 Y145.398 E28.07871
G1 X109.045 Y145.139 E28.08961
G1 X109.322 Y144.931 E28.10113
G1 X109.647 Y144.795 E28.11285
G1 X109.982 Y144.748 E28.1241
G1 X110.35 Y144.795 E28.13644
G1 X110.678 Y144.931 E28.14825
G1 X110.955 Y145.14 E28.15979
G1 X111.152 Y145.398 E28.17059
G1 X111.309 Y145.762 E28.18378
G1 X111.348 Y146.089 E28.19473
G1 X111.302 Y146.461 E28.2072
G1 X111.16 Y146.786 E28.21899
G1 X110.955 Y147.056 E28.23027
G1 X110.678 Y147.265 E28.24181
G1 F2400 E27.74181
G0 F6000 X110.869 Y147.513
G0 X110.087 Y147.684
G0 X108.63 Y147.474
G0 X105.108 Y149.47
G0 X104.524 Y149.642
G1 F2400 E28.24181
G1 F1200 X104.598 Y149.768 E28.24667
G1 X104.597 Y152.631 E28.34189
G1 X104.48 Y152.776 E28.34809
G1 X104.087 Y152.946 E28.36233
G1 X103.763 Y153.194 E28.3759
G1 X103.457 Y153.559 E28.39174
G1 X103.363 Y153.598 E28.39513
G1 X99.554 Y153.6 E28.52182
G1 X99.44 Y153.52 E28.52645
G1 X99.403 Y153.437 E28.52947
G1 X99.401 Y149.771 E28.6514
G1 X99.456 Y149.66 E28.65552
G1 X99.567 Y149.602 E28.65969
G1 X104.434 Y149.602 E28.82157
G1 X104.524 Y149.642 E28.82484
G1 F2400 E28.32484
G0 F6000 X104.524 Y149.29
G0 X99.509 Y149.019
G0 X95.981 Y145.58
G0 X94.163 Y139.303
G1 F2400 E28.82484
G1 F1200 X95.23 Y139.302 E28.86033
G1 X95.323 Y139.341 E28.86368
G1 X95.399 Y139.474 E28.86878
G1 X95.399 Y145.529 E29.07017
G1 X95.344 Y145.64 E29.07429
G1 X95.254 Y145.698 E29.07785
G1 X94.163 Y145.697 E29.11414
G1 X94.079 Y145.66 E29.11719
G1 X94 Y145.551 E29.12167
G1 X94 Y139.454 E29.32445
G1 X94.079 Y139.34 E29.32907
G1 X94.163 Y139.303 E29.33212
G1 F2400 E28.83212
G0 F6000 X94.163 Y138.99
G0 X95.638 Y139.062
G0 X95.975 Y139.398
G0 X122.419 Y139.289
G0 X125.798 Y139.235
G1 F2400 E29.33212
G1 F1200 X125.721 Y139.361 E29.33703
G1 X125.637 Y139.397 E29.34007
G1 X123.159 Y139.4 E29.42249
G1 X123.078 Y139.36 E29.42549
G1 X123.004 Y139.245 E29.43004
G1 X123.003 Y137.96 E29.47278
G1 X123.06 Y137.856 E29.47673
G1 X123.161 Y137.803 E29.48052
G1 X125.637 Y137.803 E29.56287
G1 X125.721 Y137.839 E29.56591
G1 X125.8 Y137.949 E29.57042
G1 X125.798 Y139.235 E29.61319
G1 F2400 E29.11319
G0 F6000 X126.11 Y139.235
G0 X126.038 Y139.638
G0 X123.127 Y139.978
G0 X123.132 Y152.422
G0 X123.046 Y153.071
G1 F2400 E29.61319
G1 F1200 X123.146 Y153 E29.61727
G1 X125.637 Y153.003 E29.70012
G1 X125.721 Y153.039 E29.70316
G1 X125.8 Y153.149 E29.70766
G1 X125.798 Y154.435 E29.75044
G1 X125.739 Y154.544 E29.75456
G1 X125.635 Y154.597 E29.75844
G1 X123.146 Y154.6 E29.84123
G1 X123.004 Y154.444 E29.84824
G1 X123.002 Y153.168 E29.89068
G1 X123.046 Y153.071 E29.89422
G1 F2400 E29.39422
G0 F6000 X122.69 Y153.071
G0 X122.762 Y154.838
G0 X126.208 Y154.874
G0 X126.208 Y157.4
G0 X130.3 Y158
G1 F2400 E29.89422
G1 F1200 X130.3 Y62 E33.0872
G1 X89.7 Y62 E34.43756
G1 X89.7 Y158 E37.63053
G1 X130.3 Y158 E38.98089
G0 F6000 X129.9 Y157.6
;TYPE:WALL-INNER
G1 F1200 X129.9 Y62.4 E42.14726
G1 X90.1 Y62.4 E43.47101
G1 X90.1 Y157.6 E46.63738
G1 X129.9 Y157.6 E47.96113
G1 F2400 E47.46113
G0 F6000 X126.08 Y157.4
G0 X125.694 Y155.181
G0 X126.017 Y154.832
G1 F2400 E47.96113
G1 F1200 X125.833 Y154.953 E47.96845
G1 X125.673 Y155 E47.974
G1 X123.2 Y155 E48.05625
G1 X122.969 Y154.954 E48.06409
G1 X122.786 Y154.835 E48.07135
G1 X122.67 Y154.683 E48.07771
G1 X122.6 Y154.494 E48.08441
G1 X122.6 Y153.135 E48.12961
G1 X122.66 Y152.937 E48.13649
G1 X122.798 Y152.754 E48.14411
G1 X122.986 Y152.639 E48.15144
G1 X123.147 Y152.602 E48.15694
G1 X125.679 Y152.6 E48.24115
G1 X125.961 Y152.719 E48.25133
G1 X126.081 Y152.839 E48.25698
G1 X126.168 Y153.005 E48.26321
G1 X126.2 Y153.2 E48.26978
G1 X126.2 Y154.502 E48.31309
G1 X126.017 Y154.832 E48.32564
G1 F2400 E47.82564
G0 F6000 X126.08 Y154.88
G0 X126.038 Y152.762
G0 X125.702 Y152.419
G0 X131.165 Y152.419
G0 X131.165 Y139.981
G0 X125.961 Y139.681
G1 F2400 E48.32564
G1 F1200 X125.679 Y139.8 E48.33582
G1 X123.143 Y139.798 E48.42017
G1 X122.942 Y139.742 E48.42711
G1 X122.697 Y139.529 E48.43791
G1 X122.6 Y139.3 E48.44618
G1 X122.6 Y137.918 E48.49214
G1 X122.713 Y137.649 E48.50185
G1 X122.861 Y137.504 E48.50874
G1 X123.118 Y137.4 E48.51796
G1 X125.679 Y137.4 E48.60314
G1 X125.961 Y137.519 E48.61332
G1 X126.081 Y137.639 E48.61896
G1 X126.168 Y137.805 E48.6252
G1 X126.2 Y138 E48.63177
G1 X126.2 Y139.272 E48.67408
G1 X126.081 Y139.56 E48.68444
G1 X125.961 Y139.681 E48.69011
G1 F2400 E48.19011
G0 F6000 X125.961 Y139.71
G0 X126.038 Y137.562
G0 X122.758 Y137.355
G0 X119.839 Y133.728
G0 X119.705 Y133.605
G1 F2400 E48.69011
G1 F1200 X119.509 Y133.739 E48.69801
G1 X119.341 Y133.792 E48.70386
G1 X111.204 Y133.793 E48.9745
G1 X111.475 Y134.141 E48.98917
G1 X111.65 Y134.56 E49.00428
G1 X111.706 Y135 E49.01903
G1 X111.649 Y135.447 E49.03402
G1 X111.466 Y135.859 E49.04901
G1 X111.201 Y136.208 E49.06358
G1 X110.856 Y136.467 E49.07793
G1 X110.445 Y136.649 E49.09288
G1 X109.991 Y136.706 E49.1081
G1 X109.555 Y136.643 E49.12275
G1 X109.141 Y136.475 E49.13761
G1 X108.776 Y136.186 E49.1531
G1 X108.523 Y135.848 E49.16714
G1 X108.351 Y135.443 E49.18178
G1 X108.294 Y135 E49.19663
G1 X108.35 Y134.56 E49.21138
G1 X108.524 Y134.144 E49.22638
G1 X108.789 Y133.793 E49.24101
G1 X100.666 Y133.788 E49.51118
G1 X100.38 Y133.676 E49.5214
G1 X100.242 Y133.534 E49.52798
G1 X96.119 Y127.571 E49.76911
G1 X96.06 Y127.373 E49.77598
G1 X96.06 Y92.614 E50.93207
G1 X96.121 Y92.424 E50.9387
G1 X100.288 Y86.403 E51.18224
G1 X100.447 Y86.277 E51.18899
G1 X100.654 Y86.209 E51.19624
G1 X108.789 Y86.203 E51.46681
G1 X108.524 Y85.852 E51.48144
G1 X108.351 Y85.442 E51.49624
G1 X108.294 Y85 E51.51106
G1 X108.35 Y84.56 E51.52581
G1 X108.524 Y84.143 E51.54084
G1 X108.795 Y83.788 E51.5557
G1 X109.14 Y83.532 E51.56999
G1 X109.556 Y83.35 E51.58509
G1 X110.009 Y83.294 E51.60027
G1 X110.444 Y83.357 E51.61489
G1 X110.852 Y83.523 E51.62954
G1 X111.196 Y83.79 E51.64402
G1 X111.467 Y84.138 E51.65869
G1 X111.649 Y84.555 E51.67383
G1 X111.706 Y85 E51.68875
G1 X111.649 Y85.443 E51.7036
G1 X111.474 Y85.855 E51.71849
