;FLAVOR:Marlin
;TIME:5623
;Filament used: 1.81632m
;Layer height: 0.1
;MINX:88.667
;MINY:87.381
;MINZ:0.24
;MAXX:129.117
;MAXY:132.887
;MAXZ:14.34
;TARGET_MACHINE.NAME:Creality K1 Max
;POSTPROCESSED
;  [CreateThumbnail]
;Generated with Cura_SteamEngine 5.9.0
;
;

M82 ;absolute extrusion mode
;Nozzle diameter = 0.4
;Filament type = PLA
;Filament name = PLA
;Filament weight = [5.417276035156251]; M190 S50
; M109 S200
M140 S0
M104 S0
START_PRINT EXTRUDER_TEMP=200 BED_TEMP=50
G92 E0
G92 E0
G1 F2400 E-0.5
;LAYER_COUNT:134
;LAYER:-7
M107
G0 F15000 X93.451 Y89.837 Z0.24
;TYPE:SUPPORT-INTERFACE
G1 F2400 E0
G1 F4500 X93.182 Y90.129 E0.03169
G1 X93.029 Y90.419 E0.05787
G1 X92.762 Y91.2 E0.12375
G1 X92.486 Y91.78 E0.17502
G1 X92.33 Y92.084 E0.2023
G1 X92.146 Y92.505 E0.23897
G1 X92.046 Y92.851 E0.26772
G1 X92.012 Y93.147 E0.29151
G1 X92.008 Y96.202 E0.53537
G1 X92.095 Y96.701 E0.5758
G1 X92.248 Y97.06 E0.60695
G1 X92.263 Y97.119 E0.61181
G1 X92.484 Y97.675 E0.65957
G1 X92.668 Y98.388 E0.71835
G1 X92.735 Y99.012 E0.76845
G1 X92.723 Y99.741 E0.82665
G1 X92.625 Y100.423 E0.88165
G1 X92.45 Y101.05 E0.93361
G1 X92.184 Y101.688 E0.98879
G1 X91.865 Y102.256 E1.04079
G1 X91.455 Y102.799 E1.0951
G1 X90.947 Y103.323 E1.15336
G1 X90.273 Y103.851 E1.22171
G1 X90.063 Y104.08 E1.24651
G1 X89.884 Y104.384 E1.27467
G1 X89.793 Y104.635 E1.29598
G1 X89.747 Y104.909 E1.31816
G1 X89.732 Y105.164 E1.33855
G1 X89.732 Y115.037 E2.12665
G1 X89.824 Y115.563 E2.16928
G1 X89.947 Y115.825 E2.19238
G1 X90.187 Y116.16 E2.22528
G1 X90.635 Y116.528 E2.27156
G1 X90.953 Y116.77 E2.30346
G1 X91.451 Y117.277 E2.36019
G1 X91.819 Y117.761 E2.40872
G1 X92.193 Y118.403 E2.46803
G1 X92.458 Y119.037 E2.52288
G1 X92.64 Y119.705 E2.57815
G1 X92.732 Y120.339 E2.62929
G1 X92.748 Y120.996 E2.68175
G1 X92.676 Y121.688 E2.73728
G1 X92.513 Y122.378 E2.79388
G1 X92.279 Y123.003 E2.84715
G1 X92.072 Y123.513 E2.89109
G1 X92.027 Y123.787 E2.91325
G1 X92.012 Y124.063 E2.93531
G1 X92.012 Y126.968 E3.1672
G1 X92.078 Y127.447 E3.2058
G1 X92.271 Y127.851 E3.24154
G1 X92.56 Y128.365 E3.28861
G1 X92.741 Y128.722 E3.32056
G1 X93.025 Y129.45 E3.38294
G1 X93.165 Y129.72 E3.40722
G1 X93.365 Y129.968 E3.43265
G1 X93.589 Y130.161 E3.45625
G1 X93.927 Y130.346 E3.48701
G1 X94.754 Y130.572 E3.55544
G1 X95.006 Y130.614 E3.57584
G1 X95.289 Y130.632 E3.59847
G1 X99.078 Y130.632 E3.90093
G1 X99.597 Y130.545 E3.94293
G1 X100.137 Y130.386 E3.98787
G1 X100.817 Y130.274 E4.04288
G1 X101.496 Y130.252 E4.09711
G1 X102.167 Y130.308 E4.15086
G1 X102.849 Y130.458 E4.2066
G1 X103.527 Y130.703 E4.26415
G1 X104.103 Y131 E4.31588
G1 X104.807 Y131.46 E4.38301
G1 X105.235 Y131.6 E4.41895
G1 X105.652 Y131.632 E4.45234
G1 X108.575 Y131.632 E4.68566
G1 X109.094 Y131.538 E4.72777
G1 X109.5 Y131.492 E4.76038
G1 X110.154 Y131.471 E4.81261
G1 X110.869 Y131.541 E4.86996
G1 X111.268 Y131.606 E4.90223
G1 X111.604 Y131.632 E4.92913
G1 X114.523 Y131.632 E5.16214
G1 X115.034 Y131.538 E5.20361
G1 X115.32 Y131.413 E5.22853
G1 X115.64 Y131.192 E5.25957
G1 X116.084 Y130.918 E5.30122
G1 X116.685 Y130.632 E5.35435
G1 X117.336 Y130.415 E5.40913
G1 X118.048 Y130.274 E5.46707
G1 X118.691 Y130.24 E5.51846
G1 X119.341 Y130.278 E5.57044
G1 X120.004 Y130.399 E5.62424
G1 X120.704 Y130.603 E5.68244
G1 X121.118 Y130.632 E5.71557
G1 X124.893 Y130.632 E6.0169
G1 X125.397 Y130.544 E6.05774
G1 X126.034 Y130.373 E6.11039
G1 X126.349 Y130.234 E6.13788
G1 X126.697 Y129.988 E6.17189
G1 X126.979 Y129.591 E6.21077
G1 X127.244 Y128.884 E6.27104
G1 X127.519 Y128.322 E6.32098
G1 X127.85 Y127.738 E6.37456
G1 X127.988 Y127.394 E6.40415
G1 X128.033 Y127.128 E6.42569
G1 X128.048 Y126.857 E6.44735
G1 X128.051 Y124.291 E6.65218
G1 X128.023 Y123.907 E6.68291
G1 X127.935 Y123.464 E6.71897
G1 X127.805 Y123.02 E6.7559
G1 X127.572 Y122.536 E6.79878
G1 X127.235 Y122.193 E6.83716
G1 X126.87 Y121.863 E6.87644
G1 X126.415 Y121.489 E6.92345
G1 X125.993 Y121.104 E6.96905
G1 X125.59 Y120.694 E7.01494
G1 X125.243 Y120.413 E7.05058
G1 X124.878 Y120.16 E7.08604
G1 X124.07 Y119.841 E7.15538
G1 X123.483 Y119.526 E7.20856
G1 X122.93 Y119.134 E7.26266
G1 X122.398 Y118.636 E7.32083
G1 X121.982 Y118.14 E7.37251
G1 X121.606 Y117.552 E7.42822
G1 X121.314 Y116.938 E7.48249
G1 X121.09 Y116.247 E7.54048
G1 X120.97 Y115.6 E7.593
G1 X120.932 Y114.968 E7.64354
G1 X120.928 Y105.102 E8.43109
G1 X120.958 Y104.567 E8.47386
G1 X121.083 Y103.859 E8.53125
G1 X121.259 Y103.257 E8.58132
G1 X121.534 Y102.637 E8.63546
G1 X121.893 Y102.042 E8.69093
G1 X122.312 Y101.515 E8.74468
G1 X122.819 Y101.019 E8.80129
G1 X123.331 Y100.627 E8.85277
G1 X123.963 Y100.265 E8.9109
G1 X124.781 Y99.925 E8.98162
G1 X125.13 Y99.72 E9.01393
G1 X125.441 Y99.497 E9.04447
G1 X126.305 Y98.686 E9.13907
G1 X126.866 Y98.212 E9.19769
G1 X127.178 Y97.923 E9.23164
G1 X127.536 Y97.543 E9.27331
G1 X127.743 Y97.152 E9.30863
G1 X127.854 Y96.903 E9.33039
G1 X127.987 Y96.556 E9.36005
G1 X128.029 Y96.285 E9.38195
G1 X128.048 Y95.979 E9.40642
G1 X128.051 Y93.494 E9.60478
G1 X128.03 Y93.173 E9.63046
G1 X127.945 Y92.69 E9.66961
G1 X127.87 Y92.426 E9.69152
G1 X127.728 Y92.025 E9.72547
G1 X127.291 Y91.217 E9.7988
G1 X127.059 Y90.669 E9.8463
G1 X126.923 Y90.384 E9.87151
G1 X126.682 Y90.088 E9.90198
G1 X126.446 Y89.893 E9.92642
G1 X126.126 Y89.716 E9.95561
G1 X125.164 Y89.457 E10.03513
G1 X124.775 Y89.432 E10.06625
G1 X120.979 Y89.432 E10.36926
G1 X120.497 Y89.515 E10.4083
G1 X119.884 Y89.688 E10.45915
G1 X119.223 Y89.794 E10.51258
G1 X118.53 Y89.816 E10.56793
G1 X117.861 Y89.753 E10.62157
G1 X117.214 Y89.606 E10.67453
G1 X116.552 Y89.371 E10.73061
G1 X115.894 Y89.031 E10.78973
G1 X115.648 Y88.863 E10.81351
G1 X115.268 Y88.622 E10.84943
G1 X115.035 Y88.527 E10.86951
G1 X114.727 Y88.457 E10.89473
G1 X114.404 Y88.432 E10.92059
G1 X111.487 Y88.433 E11.15343
G1 X110.558 Y88.576 E11.22846
G1 X109.879 Y88.592 E11.28268
G1 X109.193 Y88.524 E11.33771
G1 X108.731 Y88.45 E11.37506
G1 X108.458 Y88.432 E11.3969
G1 X105.533 Y88.432 E11.63038
G1 X105.008 Y88.529 E11.673
G1 X104.736 Y88.655 E11.69693
G1 X104.092 Y89.076 E11.75834
G1 X103.548 Y89.356 E11.80718
G1 X102.898 Y89.598 E11.86255
G1 X102.201 Y89.757 E11.91961
G1 X101.524 Y89.82 E11.97389
G1 X100.824 Y89.795 E12.0298
G1 X100.212 Y89.699 E12.07925
G1 X99.363 Y89.464 E12.14957
G1 X98.948 Y89.432 E12.1828
G1 X94.505 Y89.432 E12.53746
G1 X93.975 Y89.53 E12.58048
G1 X93.717 Y89.645 E12.60303
G1 X93.451 Y89.837 E12.62921
G1 F2400 E12.12921
G0 F15000 X95.713 Y89.832
G1 F2400 E12.62921
G1 F4500 X92.412 Y93.132 E13.0018
G1 F2400 E12.5018
G0 F15000 X92.409 Y95.399
G1 F2400 E13.0018
G1 F4500 X97.976 Y89.832 E13.63025
G1 F2400 E13.13025
G0 F15000 X100.012 Y90.058
G1 F2400 E13.63025
G1 F4500 X92.767 Y97.304 E14.44819
G1 F2400 E13.94819
G0 F15000 X93.133 Y99.2
G1 F2400 E14.44819
G1 F4500 X102.173 Y90.16 E15.4687
G1 F2400 E14.9687
G0 F15000 X105.764 Y88.832
G1 F2400 E15.4687
G1 F4500 X92.304 Y102.292 E16.98818
G1 F2400 E16.48818
G0 F15000 X90.956 Y101.699
G0 X88.985 Y103.61
G0 X88.694 Y104.742
G0 X88.667 Y106.726
G0 X90.132 Y106.726
G1 F2400 E16.98818
G1 F4500 X108.027 Y88.832 E19.00827
G1 F2400 E18.50827
G0 F15000 X110.136 Y88.985
G1 F2400 E19.00827
G1 F4500 X90.132 Y108.989 E21.26649
G1 F2400 E20.76649
G0 F15000 X90.132 Y111.252
G1 F2400 E21.26649
G1 F4500 X112.552 Y88.832 E23.79746
G1 F2400 E23.29746
G0 F15000 X114.771 Y88.876
G1 F2400 E23.79746
G1 F4500 X90.132 Y113.515 E26.57892
G1 F2400 E26.07892
G0 F15000 X90.291 Y115.618
G1 F2400 E26.57892
G1 F4500 X116.246 Y89.664 E29.50889
G1 F2400 E29.00889
G0 F15000 X118.005 Y90.167
G1 F2400 E29.50889
G1 F4500 X91.46 Y116.712 E32.50552
G1 F2400 E32.00552
G0 F15000 X92.428 Y118.007
G1 F2400 E32.50552
G1 F4500 X120.507 Y89.928 E35.67532
G1 F2400 E35.17532
G0 F15000 X122.865 Y89.832
G1 F2400 E35.67532
G1 F4500 X93.036 Y119.662 E39.04273
G1 F2400 E38.54273
G0 F15000 X93.029 Y121.931
G1 F2400 E39.04273
G1 F4500 X125.091 Y89.87 E42.66211
G1 F2400 E42.16211
G0 F15000 X126.595 Y90.628
G1 F2400 E42.66211
G1 F4500 X92.412 Y124.811 E46.52098
G1 F2400 E46.02098
G0 F15000 X92.428 Y127.058
G1 F2400 E46.52098
G1 F4500 X127.339 Y92.147 E50.46204
G1 F2400 E49.96204
G0 F15000 X127.65 Y94.099
G1 F2400 E50.46204
G1 F4500 X93.131 Y128.618 E54.35884
G1 F2400 E53.85884
G0 F15000 X94.052 Y129.96
G1 F2400 E54.35884
G1 F4500 X120.879 Y103.132 E57.38736
G1 F2400 E56.88736
G0 F15000 X120.528 Y105.746
G1 F2400 E57.38736
G1 F4500 X96.042 Y130.232 E60.15155
G1 F2400 E59.65155
G0 F15000 X98.305 Y130.232
G1 F2400 E60.15155
G1 F4500 X120.529 Y108.008 E62.66039
G1 F2400 E62.16039
G0 F15000 X120.531 Y110.269
G1 F2400 E62.66039
G1 F4500 X100.928 Y129.871 E64.87329
G1 F2400 E64.37329
G0 F15000 X102.98 Y130.082
G1 F2400 E64.87329
G1 F4500 X120.532 Y112.53 E66.85471
G1 F2400 E66.35471
G0 F15000 X120.533 Y114.792
G1 F2400 E66.85471
G1 F4500 X104.527 Y130.798 E68.6616
G1 F2400 E68.1616
G0 F15000 X106.356 Y131.232
G1 F2400 E68.6616
G1 F4500 X120.833 Y116.755 E70.29589
G1 F2400 E69.79589
G0 F15000 X121.587 Y118.264
G1 F2400 E70.29589
G1 F4500 X108.636 Y131.214 E71.75786
G1 F2400 E71.25786
G0 F15000 X110.963 Y131.151
G1 F2400 E71.75786
G1 F4500 X122.674 Y119.44 E73.0799
G1 F2400 E72.5799
G0 F15000 X124.096 Y120.28
G1 F2400 E73.0799
G1 F4500 X113.143 Y131.233 E74.31637
G1 F2400 E73.81637
G0 F15000 X116.234 Y130.405
G1 F2400 E74.31637
G1 F4500 X125.482 Y121.156 E75.36042
G1 F2400 E74.86042
G0 F15000 X126.676 Y122.226
G1 F2400 E75.36042
G1 F4500 X119.039 Y129.863 E76.22255
G1 F2400 E75.72255
G0 F15000 X120.945 Y130.219
G1 F2400 E76.22255
G1 F4500 X127.556 Y123.609 E76.9688
G1 F2400 E76.4688
G0 F15000 X127.649 Y125.778
G1 F2400 E76.9688
G1 F4500 X123.195 Y130.232 E77.4716
G1 F2400 E76.9716
G0 F15000 X125.619 Y130.071
G1 F2400 E77.4716
G1 F4500 X126.821 Y128.869 E77.6073
G1 F2400 E77.1073
G0 F15000 X128.219 Y129.315
G0 X128.991 Y127.752
G0 X129.115 Y126.866
G0 X129.084 Y123.821
G0 X124.85 Y101.049
G0 X124.333 Y99.679
G1 F2400 E77.6073
G1 F4500 X127.622 Y96.389 E77.97864
M104 S200
G1 F2400 E77.47864
G0 F300 X127.622 Y96.389 Z0.39
G0 F15000 X129.113 Y96.028
G0 X129.091 Y93.061
G0 X128.877 Y92.072
G0 X128.023 Y90.215
G0 X127.601 Y89.515
G0 X127.235 Y89.153
G0 X126.555 Y88.64
G0 X125.786 Y88.529
G0 X125.255 Y89.9
;TIME_ELAPSED:28.271359
;LAYER:-6
;TYPE:SUPPORT
G1 F2400 E77.97864
G1 F4500 X127.154 Y91.799 E78.11263
G1 X126.943 Y91.409 E78.13475
G1 X126.699 Y90.842 E78.16555
G1 X126.569 Y90.581 E78.18009
G1 X126.422 Y90.392 E78.19204
G1 X126.206 Y90.214 E78.206
G1 X125.997 Y90.099 E78.2179
G1 X125.335 Y89.925 E78.25205
G1 X125.118 Y89.857 E78.2634
G1 X124.761 Y89.835 E78.28124
G1 X123.776 Y89.835 E78.33038
G1 X127.653 Y93.712 E78.60393
G1 X127.652 Y95.125 E78.67442
G1 X122.362 Y89.835 E79.04766
G1 X120.947 Y89.834 E79.11826
G1 X127.59 Y96.478 E79.58699
G1 X127.434 Y96.883 E79.60864
G1 X127.209 Y97.315 E79.63294
G1 X127.114 Y97.415 E79.63983
G1 X119.807 Y90.109 E80.15534
G1 X119.212 Y90.198 E80.18535
G1 X118.499 Y90.215 E80.22093
G1 X126.383 Y98.099 E80.77719
G1 X126.03 Y98.398 E80.80027
G1 X125.639 Y98.769 E80.82716
G1 X116.736 Y89.866 E81.45532
G1 X116.395 Y89.74 E81.47346
G1 X115.345 Y89.205 E81.53225
G1 X115.345 Y89.147 E81.53514
G1 X115.071 Y88.969 E81.55144
G1 X114.757 Y88.857 E81.56808
G1 X114.29 Y88.835 E81.5914
G1 X124.87 Y99.414 E82.33784
G1 X124.622 Y99.559 E82.35217
G1 X123.903 Y99.862 E82.3911
G1 X112.876 Y88.835 E83.16911
G1 X111.468 Y88.841 E83.23936
G1 X123.005 Y100.377 E84.05332
G1 X122.531 Y100.739 E84.08308
G1 X122.239 Y101.026 E84.1035
G1 X110.199 Y88.986 E84.95299
G1 X109.884 Y88.995 E84.96871
G1 X109.174 Y88.927 E85.0043
G1 X108.637 Y88.838 E85.03145
G1 X121.588 Y101.789 E85.94522
G1 X121.199 Y102.418 E85.98211
G1 X121.078 Y102.693 E85.9971
G1 X107.219 Y88.834 E86.97493
G1 X105.804 Y88.834 E87.04553
G1 X120.703 Y103.733 E88.09673
G1 X120.561 Y104.521 E88.13668
G1 X120.538 Y104.981 E88.15966
G1 X104.71 Y89.153 E89.27641
G1 X104.319 Y89.413 E89.29983
G1 X103.812 Y89.67 E89.32819
G1 X120.532 Y106.39 E90.50788
G1 X120.532 Y107.804 E90.57842
G1 X102.767 Y90.039 E91.83184
G1 X102.239 Y90.158 E91.85884
G1 X101.533 Y90.219 E91.8942
G1 X120.532 Y109.218 E93.23468
G1 X120.532 Y110.633 E93.30527
G1 X99.945 Y90.045 E94.75783
G1 X99.301 Y89.858 E94.79129
G1 X98.938 Y89.835 E94.80943
G1 X98.32 Y89.835 E94.84027
G1 X120.532 Y112.047 E96.40744
G1 X120.532 Y113.461 E96.47799
G1 X96.906 Y89.835 E98.14493
G1 X95.491 Y89.834 E98.21552
G1 X120.524 Y114.867 E99.98174
G1 X120.582 Y115.694 E100.0231
G1 X120.709 Y116.368 E100.05732
G1 X120.932 Y117.055 E100.09335
G1 X121.272 Y117.774 E100.13303
G1 X121.637 Y118.351 E100.16709
G1 X122.109 Y118.916 E100.20382
G1 X122.677 Y119.443 E100.24248
G1 X123.282 Y119.872 E100.27948
G1 X123.904 Y120.207 E100.31473
G1 X124.696 Y120.52 E100.35721
G1 X124.911 Y120.668 E100.37024
G1 X127.435 Y123.192 E100.54832
G1 F2400 E100.04832
G0 F15000 X128.562 Y122.139
G0 X127.976 Y121.426
G0 X126.782 Y120.364
G0 X122.305 Y116.542
G0 X120.757 Y116.514
G1 F2400 E100.54832
G1 F4500 X94.146 Y89.903 E102.42587
G1 X93.884 Y90.018 E102.44014
G1 X93.709 Y90.147 E102.45099
G1 X93.392 Y90.563 E102.47708
G1 X127.652 Y124.823 E104.89431
G1 X127.65 Y126.236 E104.96481
G1 X93.115 Y91.7 E107.40147
G1 X92.777 Y92.086 E107.42707
G1 X92.562 Y92.562 E107.45313
G1 X127.519 Y127.519 E109.91953
G1 X127.172 Y128.13 E109.95459
G1 X127.023 Y128.437 E109.97161
G1 X92.412 Y93.827 E112.41357
G1 X92.415 Y95.243 E112.48421
G1 X126.598 Y129.427 E114.89605
G1 X126.506 Y129.578 E114.90487
G1 X126.17 Y129.881 E114.92744
G1 X125.805 Y130.047 E114.94744
G1 X92.582 Y96.825 E117.29147
G1 X92.871 Y97.552 E117.3305
G1 X93.05 Y98.273 E117.36756
G1 X93.106 Y98.763 E117.39217
G1 X124.577 Y130.234 E119.61262
G1 X123.162 Y130.234 E119.68321
G1 X93.072 Y100.143 E121.80626
G1 X93.027 Y100.464 E121.82243
G1 X92.803 Y101.288 E121.86503
G1 X121.748 Y130.234 E123.90729
G1 X121.133 Y130.234 E123.93798
G1 X120.77 Y130.21 E123.95613
G1 X120.118 Y130.018 E123.99004
G1 X92.335 Y102.235 E125.95028
G1 X92.177 Y102.512 E125.96619
G1 X91.756 Y103.069 E126.00102
G1 X118.535 Y129.849 E127.89046
G1 X117.919 Y129.894 E127.92127
G1 X117.29 Y130.018 E127.95326
G1 X91.035 Y103.763 E129.80569
G1 X90.525 Y104.167 E129.83815
G1 X90.313 Y104.455 E129.85599
G1 X116.224 Y130.366 E131.68415
G1 X116.048 Y130.424 E131.6934
G1 X116.048 Y130.497 E131.69704
G1 X115.858 Y130.588 E131.70755
G1 X115.353 Y130.91 E131.73743
G1 X90.133 Y105.689 E133.51687
G1 X90.133 Y107.103 E133.58742
G1 X114.263 Y131.233 E135.28992
G1 X112.848 Y131.233 E135.36051
G1 X90.133 Y108.518 E136.96318
G1 X90.133 Y109.932 E137.03372
G1 X111.432 Y131.231 E138.53648
G1 X110.908 Y131.144 E138.56298
G1 X110.179 Y131.073 E138.59953
G1 X109.868 Y131.081 E138.61505
G1 X90.132 Y111.345 E140.00753
G1 X90.132 Y112.759 E140.07807
G1 X108.605 Y131.233 E141.38148
G1 X107.191 Y131.233 E141.45202
G1 X90.132 Y114.174 E142.65563
G1 X90.132 Y115.015 E142.69759
G1 X90.23 Y115.541 E142.72428
G1 X90.475 Y115.879 E142.74511
G1 X91.185 Y116.441 E142.79028
G1 X91.744 Y117.005 E142.8299
G1 X92.159 Y117.548 E142.864
G1 X92.253 Y117.709 E142.8733
G1 X105.777 Y131.233 E143.82749
G1 X105.302 Y131.21 E143.85121
G1 X104.989 Y131.1 E143.86777
G1 X104.279 Y130.64 E143.90997
G1 X103.639 Y130.315 E143.94578
G1 X103.339 Y130.209 E143.96166
G1 X93.08 Y119.95 E144.68549
G1 X93.131 Y120.289 E144.70259
G1 X93.148 Y121.008 E144.73847
G1 X93.109 Y121.393 E144.75778
G1 X101.568 Y129.852 E145.3546
G1 X100.775 Y129.877 E145.39419
G1 X100.262 Y129.961 E145.42012
G1 X92.869 Y122.567 E145.94177
G1 X92.684 Y123.083 E145.96912
G1 X92.579 Y123.317 E145.98192
