;FLAVOR:Marlin
;TIME:7436
;Filament used: 9.20738m
;Layer height: 0.2
;MINX:36.994
;MINY:60.007
;MINZ:0.2
;MAXX:182.944
;MAXY:159.918
;MAXZ:10.8
;TARGET_MACHINE.NAME:Creality Ender-3 S1
;POSTPROCESSED
;  [CreateThumbnail]
;  [CreateThumbnail]
;  [KlipperPreprocessor]
;Generated with Cura_SteamEngine 5.7.1
;
;

;
;

M82 ;absolute extrusion mode
;Nozzle diameter = 0.4
;Filament type = PLA
;Filament name = PLA
;Filament weight = [27.461475937499998]
; M190 S50
; M109 S200
M140 S0
M104 S0
START_PRINT EXTRUDER_TEMP=200 BED_TEMP=50
G92 E0
G92 E0
G10
;LAYER_COUNT:54
;LAYER:0
M107
G0 F9000 X60.956 Y61.296 Z0.2
;TYPE:SKIRT
G11
G1 F3000 X60.485 Y61.769 E0.0222
G1 X60.089 Y62.592 E0.05258
G1 X60.089 Y108.718 E1.58674
G1 X54.203 Y108.718 E1.7825
G1 X53.366 Y109.126 E1.81347
G1 X52.937 Y109.668 E1.83647
G1 X38.555 Y109.668 E2.31481
G1 X37.861 Y110.007 E2.3405
G1 X37.39 Y110.48 E2.3627
G1 X36.994 Y111.303 E2.39308
G1 X36.994 Y157.402 E3.92634
G1 X37.401 Y158.243 E3.95741
G1 X38.253 Y158.924 E3.99369
G1 X38.45 Y158.968 E4.00041
G1 X52.941 Y158.968 E4.48238
G1 X53.121 Y159.249 E4.49348
G1 X53.903 Y159.874 E4.52677
G1 X54.1 Y159.918 E4.53349
G1 X63.078 Y159.918 E4.8321
G1 X63.918 Y159.511 E4.86314
G1 X64.352 Y158.968 E4.88626
G1 X70.441 Y158.968 E5.08878
G1 X70.621 Y159.249 E5.09988
G1 X71.403 Y159.874 E5.13318
G1 X71.6 Y159.918 E5.13989
G1 X74.578 Y159.918 E5.23894
G1 X75.418 Y159.511 E5.26999
G1 X75.852 Y158.968 E5.29311
G1 X85.241 Y158.968 E5.60538
G1 X85.421 Y159.249 E5.61648
G1 X86.203 Y159.874 E5.64978
G1 X86.4 Y159.918 E5.65649
G1 X90.578 Y159.918 E5.79545
G1 X91.418 Y159.511 E5.8265
G1 X91.852 Y158.968 E5.84962
G1 X101.241 Y158.968 E6.1619
G1 X101.421 Y159.249 E6.173
G1 X102.203 Y159.874 E6.20629
G1 X102.4 Y159.918 E6.21301
G1 X105.378 Y159.918 E6.31206
G1 X106.218 Y159.511 E6.3431
G1 X106.652 Y158.968 E6.36622
G1 X116.641 Y158.968 E6.69846
G1 X116.821 Y159.249 E6.70956
G1 X117.603 Y159.874 E6.74285
G1 X117.8 Y159.918 E6.74957
G1 X120.778 Y159.918 E6.84861
G1 X121.618 Y159.511 E6.87966
G1 X122.052 Y158.968 E6.90278
G1 X131.441 Y158.968 E7.21506
G1 X131.621 Y159.249 E7.22616
G1 X132.403 Y159.874 E7.25945
G1 X132.6 Y159.918 E7.26617
G1 X136.778 Y159.918 E7.40513
G1 X137.618 Y159.511 E7.43617
G1 X138.052 Y158.968 E7.45929
G1 X147.441 Y158.968 E7.77157
G1 X147.621 Y159.249 E7.78267
G1 X148.403 Y159.874 E7.81597
G1 X148.6 Y159.918 E7.82268
G1 X151.578 Y159.918 E7.92173
G1 X152.418 Y159.511 E7.95278
G1 X152.852 Y158.968 E7.9759
G1 X162.841 Y158.968 E8.30813
G1 X163.021 Y159.249 E8.31923
G1 X163.803 Y159.874 E8.35253
G1 X164 Y159.918 E8.35924
G1 X166.978 Y159.918 E8.45829
G1 X167.818 Y159.511 E8.48933
G1 X168.252 Y158.968 E8.51245
G1 X177.641 Y158.968 E8.82473
G1 X177.821 Y159.249 E8.83583
G1 X178.603 Y159.874 E8.86913
G1 X178.8 Y159.918 E8.87584
G1 X181.378 Y159.918 E8.96159
G1 X182.219 Y159.511 E8.99266
G1 X182.9 Y158.659 E9.02894
G1 X182.944 Y158.462 E9.03565
G1 X182.944 Y110.277 E10.63829
G1 X182.536 Y109.44 E10.66926
G1 X181.899 Y108.936 E10.69628
G1 X181.27 Y108.718 E10.71842
G1 X178.903 Y108.718 E10.79715
G1 X178.066 Y109.126 E10.82812
G1 X177.637 Y109.668 E10.85111
G1 X168.246 Y109.668 E11.16345
G1 X168.064 Y109.383 E11.1747
G1 X167.499 Y108.936 E11.19866
G1 X166.87 Y108.718 E11.2208
G1 X164.103 Y108.718 E11.31284
G1 X163.266 Y109.126 E11.34381
G1 X162.837 Y109.668 E11.3668
G1 X159.839 Y109.668 E11.46651
G1 X159.839 Y61.566 E13.06639
G1 X159.431 Y60.729 E13.09736
G1 X158.794 Y60.225 E13.12438
G1 X158.165 Y60.007 E13.14652
G1 X155.798 Y60.007 E13.22524
G1 X154.961 Y60.415 E13.25621
G1 X154.532 Y60.957 E13.2792
G1 X145.141 Y60.957 E13.59155
G1 X144.959 Y60.672 E13.6028
G1 X144.394 Y60.225 E13.62676
G1 X143.765 Y60.007 E13.6489
G1 X140.998 Y60.007 E13.74093
G1 X140.161 Y60.415 E13.7719
G1 X139.732 Y60.957 E13.79489
G1 X129.741 Y60.957 E14.12719
G1 X129.559 Y60.672 E14.13844
G1 X128.994 Y60.225 E14.1624
G1 X128.365 Y60.007 E14.18454
G1 X125.598 Y60.007 E14.27658
G1 X124.761 Y60.415 E14.30755
G1 X124.332 Y60.957 E14.33054
G1 X114.941 Y60.957 E14.64288
G1 X114.759 Y60.672 E14.65413
G1 X114.194 Y60.225 E14.67809
G1 X113.565 Y60.007 E14.70023
G1 X109.598 Y60.007 E14.83218
G1 X108.761 Y60.415 E14.86315
G1 X108.332 Y60.957 E14.88614
G1 X98.941 Y60.957 E15.19848
G1 X98.759 Y60.672 E15.20973
G1 X98.194 Y60.225 E15.23369
G1 X97.565 Y60.007 E15.25583
G1 X94.798 Y60.007 E15.34786
G1 X93.961 Y60.415 E15.37883
G1 X93.532 Y60.957 E15.40182
G1 X87.484 Y60.957 E15.60298
G1 X86.927 Y60.403 E15.62911
G1 X86.104 Y60.007 E15.65949
G1 X77.298 Y60.007 E15.95238
G1 X76.461 Y60.415 E15.98335
G1 X76.032 Y60.957 E16.00634
G1 X61.65 Y60.957 E16.48468
G1 X60.956 Y61.296 E16.51037
G0 F9000 X61.194 Y61.624
G1 F3000 X61.741 Y61.357 E16.53062
G1 X76.226 Y61.357 E17.01239
G1 X76.718 Y60.735 E17.03877
G1 X77.391 Y60.407 E17.06367
G1 X86.013 Y60.407 E17.35044
G1 X86.692 Y60.734 E17.3755
G1 X87.072 Y61.112 E17.39333
G1 X87.192 Y61.357 E17.40241
G1 X93.726 Y61.357 E17.61973
G1 X94.218 Y60.735 E17.6461
G1 X94.891 Y60.407 E17.67101
G1 X97.497 Y60.407 E17.75768
G1 X97.999 Y60.581 E17.77535
G1 X98.511 Y60.986 E17.79706
G1 X98.692 Y61.357 E17.81079
G1 X108.526 Y61.357 E18.13787
G1 X109.018 Y60.735 E18.16425
G1 X109.691 Y60.407 E18.18915
G1 X113.497 Y60.407 E18.31574
G1 X113.999 Y60.581 E18.33341
G1 X114.511 Y60.986 E18.35513
G1 X114.692 Y61.357 E18.36885
G1 X124.526 Y61.357 E18.69594
G1 X125.018 Y60.735 E18.72231
G1 X125.691 Y60.407 E18.74721
G1 X128.297 Y60.407 E18.83389
G1 X128.799 Y60.581 E18.85156
G1 X129.311 Y60.986 E18.87327
G1 X129.492 Y61.357 E18.887
G1 X139.926 Y61.357 E19.23404
G1 X140.418 Y60.735 E19.26042
G1 X141.091 Y60.407 E19.28532
G1 X143.697 Y60.407 E19.37199
G1 X144.199 Y60.581 E19.38966
G1 X144.711 Y60.986 E19.41138
G1 X144.892 Y61.357 E19.42511
G1 X154.726 Y61.357 E19.75219
G1 X155.218 Y60.735 E19.77856
G1 X155.891 Y60.407 E19.80347
G1 X158.097 Y60.407 E19.87684
G1 X158.599 Y60.581 E19.89451
G1 X159.111 Y60.986 E19.91622
G1 X159.439 Y61.659 E19.94112
G1 X159.439 Y109.751 E21.54067
G1 X159.186 Y110.068 E21.55416
G1 X163.031 Y110.068 E21.68204
G1 X163.523 Y109.446 E21.70842
G1 X164.196 Y109.118 E21.73332
G1 X166.802 Y109.118 E21.82
G1 X167.304 Y109.292 E21.83767
G1 X167.816 Y109.697 E21.85938
G1 X167.997 Y110.068 E21.87311
G1 X177.831 Y110.068 E22.20019
G1 X178.323 Y109.446 E22.22657
G1 X178.996 Y109.118 E22.25147
G1 X181.202 Y109.118 E22.32484
G1 X181.704 Y109.292 E22.34251
G1 X182.216 Y109.697 E22.36423
G1 X182.544 Y110.37 E22.38913
G1 X182.544 Y158.462 E23.98867
G1 X181.962 Y159.191 E24.0197
G1 X181.287 Y159.518 E24.04465
G1 X178.8 Y159.518 E24.12736
G1 X178.071 Y158.936 E24.15839
G1 X177.892 Y158.568 E24.172
G1 X168.059 Y158.568 E24.49905
G1 X167.562 Y159.191 E24.52555
G1 X166.887 Y159.518 E24.5505
G1 X164 Y159.518 E24.64652
G1 X163.271 Y158.936 E24.67755
G1 X163.092 Y158.568 E24.69116
G1 X152.659 Y158.568 E25.03816
G1 X152.162 Y159.191 E25.06467
G1 X151.487 Y159.518 E25.08962
G1 X148.6 Y159.518 E25.18564
G1 X147.871 Y158.936 E25.21666
G1 X147.692 Y158.568 E25.23027
G1 X137.859 Y158.568 E25.55732
G1 X137.362 Y159.191 E25.58383
G1 X136.687 Y159.518 E25.60877
G1 X132.6 Y159.518 E25.74471
G1 X131.871 Y158.936 E25.77573
G1 X131.692 Y158.568 E25.78935
G1 X121.859 Y158.568 E26.11639
G1 X121.362 Y159.191 E26.1429
G1 X120.687 Y159.518 E26.16785
G1 X117.8 Y159.518 E26.26387
G1 X117.071 Y158.936 E26.29489
G1 X116.892 Y158.568 E26.3085
G1 X106.459 Y158.568 E26.65551
G1 X105.962 Y159.191 E26.68201
G1 X105.287 Y159.518 E26.70696
G1 X102.4 Y159.518 E26.80298
G1 X101.671 Y158.936 E26.83401
G1 X101.492 Y158.568 E26.84762
G1 X91.659 Y158.568 E27.17467
G1 X91.162 Y159.191 E27.20117
G1 X90.487 Y159.518 E27.22612
G1 X86.4 Y159.518 E27.36205
G1 X85.671 Y158.936 E27.39308
G1 X85.492 Y158.568 E27.40669
G1 X75.659 Y158.568 E27.73374
G1 X75.162 Y159.191 E27.76024
G1 X74.487 Y159.518 E27.78519
G1 X71.6 Y159.518 E27.88121
G1 X70.871 Y158.936 E27.91224
G1 X70.692 Y158.568 E27.92585
G1 X64.159 Y158.568 E28.14314
G1 X63.662 Y159.191 E28.16964
G1 X62.987 Y159.518 E28.19459
G1 X54.1 Y159.518 E28.49017
G1 X53.371 Y158.936 E28.5212
G1 X53.192 Y158.568 E28.53481
G1 X38.45 Y158.568 E29.02513
G1 X37.721 Y157.986 E29.05616
G1 X37.394 Y157.311 E29.0811
G1 X37.394 Y111.394 E30.60831
G1 X37.721 Y110.715 E30.63337
G1 X38.099 Y110.335 E30.6512
G1 X38.646 Y110.068 E30.67145
G1 X53.131 Y110.068 E31.15322
G1 X53.623 Y109.446 E31.1796
G1 X54.296 Y109.118 E31.2045
G1 X60.74 Y109.118 E31.41883
G1 X60.489 Y108.601 E31.43794
G1 X60.489 Y62.683 E32.96518
G1 X60.816 Y62.004 E32.99025
G1 X61.194 Y61.624 E33.00807
G10
G0 F9000 X61.436 Y108.91
G0 X63.988 Y109.857
G11
G1 F3000 X64.097 Y110.068 E33.01597
G1 X70.68 Y110.068 E33.23492
G1 X70.798 Y109.857 E33.24296
G1 X63.988 Y109.857 E33.46947
G10
G0 F9000 X75.494 Y109.857
G11
G1 F3000 X75.597 Y110.068 E33.47728
G1 X76.39 Y110.068 E33.50365
G1 X76.287 Y109.857 E33.51146
G1 X75.494 Y109.857 E33.53784
G10
G0 F9000 X91.494 Y109.857
G11
G1 F3000 X91.597 Y110.068 E33.54565
G1 X93.89 Y110.068 E33.62191
G1 X93.787 Y109.857 E33.62972
G1 X91.494 Y109.857 E33.70599
G10
G0 F9000 X98.586 Y110.068
G11
G1 F3000 X101.48 Y110.068 E33.80224
G1 X101.598 Y109.857 E33.81028
G1 X98.736 Y109.857 E33.90547
G1 X98.586 Y110.068 E33.91408
G10
G0 F9000 X106.294 Y109.857
G11
G1 F3000 X106.397 Y110.068 E33.92189
G1 X108.69 Y110.068 E33.99816
G1 X108.587 Y109.857 E34.00597
G1 X106.294 Y109.857 E34.08223
G10
G0 F9000 X114.586 Y110.068
G11
G1 F3000 X116.88 Y110.068 E34.15853
G1 X116.998 Y109.857 E34.16657
G1 X114.736 Y109.857 E34.24181
G1 X114.586 Y110.068 E34.25042
G10
G0 F9000 X121.694 Y109.857
G11
G1 F3000 X124.587 Y109.857 E34.34664
G1 X124.69 Y110.068 E34.35445
G1 X121.797 Y110.068 E34.45067
G1 X121.694 Y109.857 E34.45848
G10
G0 F9000 X129.386 Y110.068
G11
G1 F3000 X131.68 Y110.068 E34.53478
G1 X131.798 Y109.857 E34.54282
G1 X129.536 Y109.857 E34.61805
G1 X129.386 Y110.068 E34.62666
G10
G0 F9000 X137.694 Y109.857
G11
G1 F3000 X137.797 Y110.068 E34.63447
G1 X140.09 Y110.068 E34.71074
G1 X139.987 Y109.857 E34.71855
G1 X137.694 Y109.857 E34.79481
G10
G0 F9000 X144.786 Y110.068
G11
G1 F3000 X147.68 Y110.068 E34.89107
G1 X147.798 Y109.857 E34.89911
G1 X144.936 Y109.857 E34.9943
G1 X144.786 Y110.068 E35.00291
G10
G0 F9000 X152.494 Y109.857
G11
G1 F3000 X152.597 Y110.068 E35.01072
G1 X154.89 Y110.068 E35.08698
G1 X154.787 Y109.857 E35.09479
G1 X152.494 Y109.857 E35.17106
G0 F9000 X152.096 Y109.954
G1 F3000 X151.709 Y109.648 E35.18747
G1 X151.334 Y109.518 E35.20067
G1 X148.889 Y109.518 E35.28199
G1 X148.38 Y109.766 E35.30082
G1 X148.074 Y110.153 E35.31723
G1 X147.965 Y110.468 E35.32832
G1 X137.546 Y110.468 E35.67486
G1 X137.296 Y109.954 E35.69387
G1 X136.909 Y109.648 E35.71027
G1 X136.534 Y109.518 E35.72348
G1 X132.889 Y109.518 E35.84471
G1 X132.38 Y109.766 E35.86354
G1 X132.074 Y110.153 E35.87995
G1 X131.965 Y110.468 E35.89104
G1 X121.546 Y110.468 E36.23757
G1 X121.296 Y109.954 E36.25658
G1 X120.909 Y109.648 E36.27299
G1 X120.534 Y109.518 E36.28619
G1 X118.089 Y109.518 E36.36752
G1 X117.58 Y109.766 E36.38635
G1 X117.274 Y110.153 E36.40276
G1 X117.165 Y110.468 E36.41384
G1 X106.146 Y110.468 E36.78034
G1 X105.896 Y109.954 E36.79935
G1 X105.509 Y109.648 E36.81576
G1 X105.134 Y109.518 E36.82896
G1 X102.689 Y109.518 E36.91028
G1 X102.18 Y109.766 E36.92911
G1 X101.874 Y110.153 E36.94552
G1 X101.765 Y110.468 E36.95661
G1 X91.346 Y110.468 E37.30314
G1 X91.096 Y109.954 E37.32215
G1 X90.709 Y109.648 E37.33856
G1 X90.334 Y109.518 E37.35176
G1 X86.928 Y109.518 E37.46505
G1 X86.939 Y109.457 E37.46711
G1 X94.038 Y109.457 E37.70322
G1 X94.286 Y109.969 E37.72214
G1 X94.835 Y110.407 E37.7455
G1 X97.491 Y110.407 E37.83384
G1 X98.001 Y110.16 E37.85269
G1 X98.396 Y109.665 E37.87375
G1 X98.439 Y109.457 E37.88082
G1 X108.838 Y109.457 E38.22669
G1 X109.086 Y109.969 E38.24561
G1 X109.635 Y110.407 E38.26897
G1 X113.491 Y110.407 E38.39722
G1 X114.001 Y110.16 E38.41607
G1 X114.396 Y109.665 E38.43713
G1 X114.439 Y109.457 E38.4442
G1 X124.838 Y109.457 E38.79007
G1 X125.086 Y109.969 E38.80899
G1 X125.635 Y110.407 E38.83235
G1 X128.291 Y110.407 E38.92069
G1 X128.801 Y110.16 E38.93954
G1 X129.196 Y109.665 E38.9606
G1 X129.239 Y109.457 E38.96766
G1 X140.238 Y109.457 E39.33349
G1 X140.486 Y109.969 E39.35241
G1 X141.035 Y110.407 E39.37577
G1 X143.691 Y110.407 E39.46411
G1 X144.201 Y110.16 E39.48296
G1 X144.596 Y109.665 E39.50402
G1 X144.639 Y109.457 E39.51109
G1 X155.038 Y109.457 E39.85696
G1 X155.286 Y109.969 E39.87588
G1 X155.835 Y110.407 E39.89924
G1 X158.091 Y110.407 E39.97427
G1 X158.601 Y110.16 E39.99312
G1 X159.039 Y109.611 E40.01648
G1 X159.039 Y61.752 E41.60828
G1 X158.791 Y61.243 E41.62711
G1 X158.404 Y60.937 E41.64352
G1 X158.029 Y60.807 E41.65672
G1 X155.984 Y60.807 E41.72474
G1 X155.475 Y61.055 E41.74357
G1 X155.169 Y61.442 E41.75998
G1 X155.06 Y61.757 E41.77106
G1 X144.641 Y61.757 E42.1176
G1 X144.391 Y61.243 E42.13661
G1 X144.004 Y60.937 E42.15302
G1 X143.629 Y60.807 E42.16622
G1 X141.184 Y60.807 E42.24754
G1 X140.675 Y61.055 E42.26637
G1 X140.369 Y61.442 E42.28278
G1 X140.26 Y61.757 E42.29387
G1 X129.241 Y61.757 E42.66036
G1 X128.991 Y61.243 E42.67937
G1 X128.604 Y60.937 E42.69578
G1 X128.229 Y60.807 E42.70898
G1 X125.784 Y60.807 E42.79031
G1 X125.275 Y61.055 E42.80914
G1 X124.969 Y61.442 E42.82555
G1 X124.86 Y61.757 E42.83663
G1 X114.441 Y61.757 E43.18317
G1 X114.191 Y61.243 E43.20218
G1 X113.804 Y60.937 E43.21859
G1 X113.429 Y60.807 E43.23179
G1 X109.784 Y60.807 E43.35302
G1 X109.275 Y61.055 E43.37186
G1 X108.969 Y61.442 E43.38827
G1 X108.86 Y61.757 E43.39935
G1 X98.441 Y61.757 E43.74589
G1 X98.191 Y61.243 E43.7649
G1 X97.804 Y60.937 E43.78131
G1 X97.429 Y60.807 E43.79451
G1 X94.984 Y60.807 E43.87583
G1 X94.475 Y61.055 E43.89466
G1 X94.169 Y61.442 E43.91107
G1 X94.06 Y61.757 E43.92216
G1 X86.941 Y61.757 E44.15894
G1 X86.741 Y61.346 E44.17414
G1 X86.46 Y61.066 E44.18733
G1 X85.921 Y60.807 E44.20722
G1 X77.484 Y60.807 E44.48784
G1 X76.975 Y61.055 E44.50667
G1 X76.669 Y61.442 E44.52308
G1 X76.56 Y61.757 E44.53417
G1 X61.834 Y61.757 E45.02396
G1 X61.428 Y61.955 E45.03898
G1 X61.148 Y62.236 E45.05217
G1 X60.889 Y62.775 E45.07206
G1 X60.889 Y108.509 E46.59318
G1 X61.136 Y109.019 E46.61203
G1 X61.685 Y109.457 E46.63539
G1 X76.538 Y109.457 E47.1294
G1 X76.786 Y109.969 E47.14832
G1 X77.335 Y110.407 E47.17168
G1 X85.786 Y110.407 E47.45276
G1 X85.765 Y110.468 E47.45491
G1 X75.346 Y110.468 E47.80145
G1 X75.096 Y109.954 E47.82046
G1 X74.709 Y109.648 E47.83687
G1 X74.334 Y109.518 E47.85007
G1 X71.889 Y109.518 E47.93139
G1 X71.38 Y109.766 E47.95022
G1 X71.074 Y110.153 E47.96663
G1 X70.965 Y110.468 E47.97772
G1 X63.846 Y110.468 E48.21449
G1 X63.646 Y110.057 E48.2297
G1 X63.365 Y109.777 E48.24289
G1 X62.826 Y109.518 E48.26278
G1 X54.389 Y109.518 E48.5434
G1 X53.88 Y109.766 E48.56223
G1 X53.574 Y110.153 E48.57864
G1 X53.465 Y110.468 E48.58972
G1 X38.739 Y110.468 E49.07951
G1 X38.333 Y110.666 E49.09454
G1 X38.053 Y110.947 E49.10773
G1 X37.794 Y111.486 E49.12762
G1 X37.794 Y157.22 E50.64874
G1 X38.041 Y157.73 E50.66759
G1 X38.59 Y158.168 E50.69095
G1 X53.443 Y158.168 E51.18496
G1 X53.691 Y158.68 E51.20388
G1 X54.24 Y159.118 E51.22724
G1 X62.896 Y159.118 E51.51514
G1 X63.406 Y158.871 E51.53399
G1 X63.801 Y158.376 E51.55505
G1 X63.844 Y158.168 E51.56211
G1 X70.943 Y158.168 E51.79823
G1 X71.191 Y158.68 E51.81715
G1 X71.74 Y159.118 E51.84051
G1 X74.396 Y159.118 E51.92885
G1 X74.906 Y158.871 E51.94769
G1 X75.301 Y158.376 E51.96876
G1 X75.344 Y158.168 E51.97582
G1 X85.743 Y158.168 E52.32169
G1 X85.991 Y158.68 E52.34062
G1 X86.54 Y159.118 E52.36397
