;FLAVOR:Marlin
;TIME:265
;Filament used: 0.0783489m
;Layer height: 0.1
;MINX:87.8
;MINY:93.95
;MINZ:0.2
;MAXX:132.2
;MAXY:126.101
;MAXZ:0.7
;TARGET_MACHINE.NAME:Creality Ender-3 S1
;POSTPROCESSED
;  [CreateThumbnail]
;  [CreateThumbnail]
;  [KlipperPreprocessor]
;Generated with Cura_SteamEngine 5.7.1
;
;

;
;

M82 ;absolute extrusion mode
;Nozzle diameter = 0.4
;Filament type = PLA
;Filament name = PLA
;Filament weight = [0.23367937744140624]
; M190 S50
; M109 S200
M140 S0
M104 S0
START_PRINT EXTRUDER_TEMP=200 BED_TEMP=50
G92 E0
G92 E0
G10
;LAYER_COUNT:6
;LAYER:0
M107
G0 F9000 X90.993 Y96.756 Z0.2
;TYPE:SKIRT
G11
G1 F3000 X91.675 Y96.164 E0.03004
G1 X92.407 Y95.635 E0.06008
G1 X93.183 Y95.173 E0.09011
G1 X93.997 Y94.782 E0.12015
G1 X94.842 Y94.463 E0.15019
G1 X95.712 Y94.221 E0.18022
G1 X96.6 Y94.057 E0.21026
G1 X97.723 Y93.963 E0.24774
G1 X98.33 Y93.95 E0.26793
G1 X121.293 Y93.95 E1.03169
G1 X122.137 Y93.961 E1.05976
G1 X123.039 Y94.014 E1.08981
G1 X123.932 Y94.146 E1.11984
G1 X124.81 Y94.357 E1.14987
G1 X125.666 Y94.645 E1.17991
G1 X126.493 Y95.007 E1.20994
G1 X127.285 Y95.442 E1.23999
G1 X128.036 Y95.944 E1.27003
G1 X128.739 Y96.511 E1.30007
G1 X129.389 Y97.138 E1.33011
G1 X129.981 Y97.82 E1.36015
G1 X130.511 Y98.551 E1.39018
G1 X130.973 Y99.327 E1.42022
G1 X131.366 Y100.14 E1.45025
G1 X131.684 Y100.985 E1.48028
G1 X131.927 Y101.855 E1.51032
G1 X132.092 Y102.743 E1.54037
G1 X132.187 Y103.873 E1.57808
G1 X132.2 Y104.48 E1.59828
G1 X132.199 Y115.291 E1.95785
G1 X132.19 Y116.018 E1.98203
G1 X132.139 Y116.92 E2.01208
G1 X132.008 Y117.814 E2.04213
G1 X131.799 Y118.692 E2.07215
G1 X131.513 Y119.549 E2.1022
G1 X131.152 Y120.377 E2.13224
G1 X130.72 Y121.169 E2.16225
G1 X130.219 Y121.921 E2.1923
G1 X129.653 Y122.625 E2.22235
G1 X129.028 Y123.276 E2.25236
G1 X128.347 Y123.87 E2.28242
G1 X127.616 Y124.401 E2.31247
G1 X126.842 Y124.865 E2.34249
G1 X126.029 Y125.259 E2.37253
G1 X125.185 Y125.579 E2.40256
G1 X124.315 Y125.824 E2.43262
G1 X123.428 Y125.99 E2.46263
G1 X122.277 Y126.088 E2.50105
G1 X121.67 Y126.101 E2.52125
G1 X98.573 Y126.099 E3.28945
G1 X97.878 Y126.09 E3.31257
G1 X96.976 Y126.038 E3.34262
G1 X96.083 Y125.907 E3.37264
G1 X95.204 Y125.698 E3.40269
G1 X94.348 Y125.411 E3.43272
G1 X93.52 Y125.05 E3.46276
G1 X92.728 Y124.617 E3.49279
G1 X91.977 Y124.115 E3.52283
G1 X91.273 Y123.549 E3.55288
G1 X90.622 Y122.923 E3.58291
G1 X90.029 Y122.242 E3.61295
G1 X89.498 Y121.511 E3.643
G1 X89.034 Y120.737 E3.67301
G1 X88.641 Y119.924 E3.70305
G1 X88.321 Y119.079 E3.7331
G1 X88.077 Y118.21 E3.76312
G1 X87.911 Y117.322 E3.79317
G1 X87.815 Y116.196 E3.83075
G1 X87.8 Y115.557 E3.85201
G1 X87.801 Y104.671 E4.21408
G1 X87.811 Y104.006 E4.2362
G1 X87.865 Y103.104 E4.26626
G1 X87.998 Y102.211 E4.29629
G1 X88.209 Y101.333 E4.32632
G1 X88.498 Y100.477 E4.35637
G1 X88.861 Y99.65 E4.38641
G1 X89.295 Y98.859 E4.41642
G1 X89.798 Y98.108 E4.44648
G1 X90.366 Y97.406 E4.47652
G1 X90.993 Y96.756 E4.50655
G10
;MESH:Crossover Platform Rear.stl
G0 F9000 X97.335 Y106.573
G0 X98.525 Y106.573
;TYPE:WALL-OUTER
G11
G1 F2537 X99.9 Y106.573 E4.56063
G1 F2255.6 X99.9 Y107.423 E4.59823
G1 F2597.4 X98.526 Y107.423 E4.65102
G1 F2970.3 X98.525 Y106.573 E4.67957
G0 F9000 X98.725 Y106.573
G0 X99.9 Y106.223
G1 F2597.4 X98.526 Y106.223 E4.73235
G1 F3234.5 X98.525 Y105.548 E4.75318
G1 F3200 X98.7 Y105.348 E4.76146
G1 F3000 X99.7 Y105.348 E4.79472
G1 F2771.4 X99.9 Y105.443 E4.80269
G1 F2404.8 X99.9 Y106.223 E4.83506
G0 F9000 X99.7 Y106.223
G0 X100.3 Y107.423
G1 F2255.6 X100.3 Y106.573 E4.87266
G1 X101.7 Y106.573 E4.93459
G1 X101.7 Y107.423 E4.97219
G1 X100.3 Y107.423 E5.03412
G0 F9000 X100.3 Y107.223
G0 X100.3 Y108.598
G1 F2325.6 X100.3 Y107.773 E5.06952
G1 F2255.6 X101.7 Y107.773 E5.13145
G1 F2444 X101.7 Y108.647 E5.16713
G1 F2823.5 X100.5 Y108.648 E5.20954
G1 F2666.7 X100.3 Y108.598 E5.21725
G0 F9000 X100.3 Y108.398
G0 X98.526 Y108.648
G1 F2992.5 X98.525 Y107.773 E5.24643
G1 F2591.8 X99.9 Y107.773 E5.29936
G1 F2434.1 X99.9 Y108.647 E5.33519
G1 F2784.2 X98.526 Y108.648 E5.38443
G0 F9000 X98.526 Y108.448
G10
G0 X102.1 Y106.573
G11
G1 F2255.6 X103.5 Y106.573 E5.44636
G1 X103.5 Y107.423 E5.48396
G1 X102.1 Y107.423 E5.54589
G1 X102.1 Y106.573 E5.58349
G0 F9000 X102.3 Y106.573
G0 X102.1 Y106.223
G1 F2404.8 X102.1 Y105.448 E5.61565
G1 F2771.4 X102.265 Y105.35 E5.62256
G1 F3000 X103.3 Y105.348 E5.65698
G1 F2771.4 X103.5 Y105.443 E5.66495
G1 F2404.8 X103.5 Y106.223 E5.69732
G1 F2255.6 X102.1 Y106.223 E5.75925
G0 F9000 X102.1 Y106.023
G0 X101.7 Y105.443
G1 F2404.8 X101.7 Y106.223 E5.79161
G1 F2255.6 X100.3 Y106.223 E5.85354
G1 F2404.8 X100.3 Y105.448 E5.8857
G1 F2771.4 X100.465 Y105.35 E5.89261
G1 F3000 X101.5 Y105.348 E5.92703
G1 F2771.4 X101.7 Y105.443 E5.935
G0 F9000 X101.7 Y105.643
G0 X101.7 Y105.05
G0 X104.065 Y105.05
G0 X104.065 Y105.35
G1 F3000 X105.1 Y105.348 E5.96943
G1 F2771.4 X105.3 Y105.443 E5.9774
G1 F2404.8 X105.3 Y106.223 E6.00976
G1 F2255.6 X103.9 Y106.223 E6.0717
G1 F2404.8 X103.9 Y105.448 E6.10385
G1 F2771.4 X104.065 Y105.35 E6.11076
G0 F9000 X104.265 Y105.35
G0 X104.265 Y105.05
G0 X105.7 Y105.13
G0 X105.7 Y106.573
G1 F2255.6 X107.1 Y106.573 E6.17269
G1 X107.1 Y107.423 E6.21029
G1 X105.7 Y107.423 E6.27222
G1 X105.7 Y106.573 E6.30982
G0 F9000 X105.9 Y106.573
G0 X105.3 Y107.423
G1 F2255.6 X103.9 Y107.423 E6.37175
G1 X103.9 Y106.573 E6.40935
G1 X105.3 Y106.573 E6.47128
G1 X105.3 Y107.423 E6.50888
G0 F9000 X105.1 Y107.423
G0 X105.9 Y108.648
G1 F2666.7 X105.7 Y108.598 E6.5166
G1 F2325.6 X105.7 Y107.773 E6.552
G1 F2255.6 X107.1 Y107.773 E6.61393
G1 F2444 X107.1 Y108.647 E6.64961
G1 F2823.5 X105.9 Y108.648 E6.69202
G0 F9000 X105.706 Y108.6
G0 X107.7 Y108.648
G1 F2666.7 X107.5 Y108.598 E6.69973
G1 F2325.6 X107.5 Y107.773 E6.73513
G1 F2255.6 X108.9 Y107.773 E6.79706
G1 F2444 X108.9 Y108.647 E6.83274
G1 F2823.5 X107.7 Y108.648 E6.87515
G0 F9000 X107.506 Y108.6
G0 X109.5 Y108.648
G1 F2666.7 X109.3 Y108.598 E6.88286
G1 F2325.6 X109.3 Y107.773 E6.91826
G1 F2255.6 X110.7 Y107.773 E6.98019
G1 F2444 X110.7 Y108.647 E7.01587
G1 F2823.5 X109.5 Y108.648 E7.05828
G0 F9000 X109.306 Y108.6
G0 X111.1 Y107.773
G1 F2255.6 X112.5 Y107.773 E7.12021
G1 F2444 X112.5 Y108.647 E7.15589
G1 F2823.5 X111.3 Y108.648 E7.1983
G1 F2666.7 X111.1 Y108.598 E7.20601
G1 F2325.6 X111.1 Y107.773 E7.24141
G0 F9000 X111.3 Y107.773
G0 X112.9 Y107.773
G1 F2255.6 X114.3 Y107.773 E7.30334
G1 F2444 X114.3 Y108.647 E7.33902
G1 F2823.5 X113.1 Y108.648 E7.38143
G1 F2666.7 X112.9 Y108.598 E7.38914
G1 F2325.6 X112.9 Y107.773 E7.42454
G0 F9000 X113.1 Y107.773
G0 X112.9 Y106.573
G1 F2255.6 X114.3 Y106.573 E7.48647
G1 X114.3 Y107.423 E7.52407
G1 X112.9 Y107.423 E7.586
G1 X112.9 Y106.573 E7.6236
G0 F9000 X113.1 Y106.573
G0 X112.9 Y106.223
G1 F2404.8 X112.9 Y105.448 E7.65576
G1 F2771.4 X113.065 Y105.35 E7.66267
G1 F3000 X114.1 Y105.348 E7.69709
G1 F2771.4 X114.3 Y105.443 E7.70506
G1 F2404.8 X114.3 Y106.223 E7.73743
G1 F2255.6 X112.9 Y106.223 E7.79936
G0 F9000 X112.9 Y106.023
G0 X112.5 Y106.223
G1 F2255.6 X111.1 Y106.223 E7.86129
G1 F2404.8 X111.1 Y105.448 E7.89344
G1 F2771.4 X111.265 Y105.35 E7.90035
G1 F3000 X112.3 Y105.348 E7.93478
G1 F2771.4 X112.5 Y105.443 E7.94275
G1 F2404.8 X112.5 Y106.223 E7.97511
G0 F9000 X112.3 Y106.223
G0 X112.5 Y106.573
G1 F2255.6 X112.5 Y107.423 E8.01271
G1 X111.1 Y107.423 E8.07464
G1 X111.1 Y106.573 E8.11224
G1 X112.5 Y106.573 E8.17417
G0 F9000 X112.5 Y106.773
G10
G0 X112.5 Y105.13
G0 X114.865 Y105.35
G11
G1 F3000 X115.9 Y105.348 E8.2086
G1 F2771.4 X116.1 Y105.443 E8.21657
G1 F2404.8 X116.1 Y106.223 E8.24893
G1 F2255.6 X114.7 Y106.223 E8.31086
G1 F2404.8 X114.7 Y105.448 E8.34302
G1 F2771.4 X114.865 Y105.35 E8.34993
G0 F9000 X115.065 Y105.35
G10
G0 X115.065 Y105.05
G0 X116.1 Y105.13
G0 X116.1 Y107.423
G11
G1 F2255.6 X114.7 Y107.423 E8.41186
G1 X114.7 Y106.573 E8.44946
G1 X116.1 Y106.573 E8.51139
G1 X116.1 Y107.423 E8.54899
G0 F9000 X115.9 Y107.423
G0 X116.5 Y107.423
G1 F2255.6 X116.5 Y106.573 E8.58659
G1 F2424.2 X117.793 Y106.573 E8.63981
G1 F2797.2 X117.9 Y106.667 E8.64489
G1 F3000 X117.899 Y107.276 E8.66515
G1 F2816.9 X117.771 Y107.423 E8.67205
G1 F2439 X116.5 Y107.423 E8.72405
G0 F9000 X116.5 Y107.223
G0 X117.9 Y108.647
G1 F2823.5 X116.7 Y108.648 E8.76646
G1 F2666.7 X116.5 Y108.598 E8.77417
G1 F2325.6 X116.5 Y107.773 E8.80957
G1 F2439 X117.771 Y107.773 E8.86156
G1 F2816.9 X117.9 Y107.948 E8.86926
G1 F2823.5 X117.9 Y108.647 E8.89397
G0 F9000 X117.7 Y108.647
G0 X119.7 Y108.647
G1 F2823.5 X118.5 Y108.648 E8.93637
G1 F2666.7 X118.3 Y108.598 E8.94409
G1 F2526.3 X118.3 Y107.847 E8.97375
G1 F2823.5 X118.446 Y107.755 E8.97985
G1 X118.9 Y107.723 E8.99593
G1 F2666.7 X119.5 Y107.723 E9.01838
G1 F2444 X119.7 Y107.773 E9.0268
G1 X119.7 Y108.647 E9.06248
G0 F9000 X119.5 Y108.647
G0 X120.3 Y108.648
G1 F2666.7 X120.1 Y108.598 E9.07019
G1 F2325.6 X120.1 Y107.773 E9.10559
G1 F2591.8 X121.475 Y107.773 E9.15853
G1 F3000 X121.474 Y108.647 E9.1876
G1 F2977.7 X120.3 Y108.648 E9.22694
G0 F9000 X120.106 Y108.6
G0 X119.886 Y107.536
G0 X120.2 Y107.065
G1 F6000 X120.2 Y106.748 E9.23221
G0 F9000 X120.2 Y106.065
G1 F5970.1 X120.2 Y105.848 E9.23584
G0 F9000 X119.83 Y105.38
G0 X119.868 Y105.148
G0 X121.475 Y105.05
G0 X121.475 Y105.548
G1 F3234.5 X121.474 Y106.223 E9.25666
G1 F3200 X120.33 Y106.223 E9.29233
G1 F4285.7 X120.2 Y106.065 E9.29709
G1 F4347.8 X120.275 Y106.398 E9.30493
G1 F4363.6 X120.2 Y106.748 E9.31311
G1 F4285.7 X120.323 Y106.573 E9.31809
G1 F3183 X121.475 Y106.573 E9.3542
G1 F2970.3 X121.474 Y107.423 E9.38276
G1 F2672.6 X120.091 Y107.423 E9.43439
G1 F2803.7 X120.114 Y107.248 E9.44067
G1 F4195.8 X120.2 Y107.065 E9.44548
G1 X120.1 Y107.234 E9.45015
G1 F2654.9 X119.884 Y107.314 E9.45881
G1 F2444 X119.5 Y107.273 E9.47458
G1 F2666.7 X118.9 Y107.273 E9.49703
G1 F2823.5 X118.702 Y107.083 E9.50672
G1 F3000 X118.7 Y105.77 E9.55039
G1 X118.865 Y105.651 E9.55716
G1 X119.652 Y105.648 E9.58334
G1 F3183 X120.078 Y105.659 E9.59669
G1 F4332.1 X120.2 Y105.848 E9.60188
G1 F4123.7 X120.109 Y105.548 E9.60946
G1 F3069.1 X120.265 Y105.35 E9.61766
G1 F3000 X121.3 Y105.348 E9.65208
G1 F3200 X121.475 Y105.548 E9.66037
G0 F9000 X121.475 Y105.748
G0 X121.475 Y105.05
G0 X117.7 Y105.05
G0 X117.7 Y105.348
G1 F3000 X117.902 Y105.457 E9.668
G1 X117.898 Y106.083 E9.68882
G1 F2797.2 X117.803 Y106.223 E9.69486
G1 F2424.2 X116.5 Y106.223 E9.74849
G1 F2404.8 X116.5 Y105.448 E9.78065
G1 F2771.4 X116.665 Y105.35 E9.78756
G1 F3000 X117.7 Y105.348 E9.82198
G0 F9000 X117.875 Y105.442
G10
G0 X117.875 Y105.05
G0 X114.7 Y105.13
G0 X114.7 Y103.485
G0 X122.653 Y103.497
G0 X122.653 Y109.903
G0 X114.7 Y109.915
G0 X114.7 Y108.598
G11
G1 F2325.6 X114.7 Y107.773 E9.85738
G1 F2255.6 X116.1 Y107.773 E9.91931
G1 F2444 X116.1 Y108.647 E9.95499
G1 F2823.5 X114.9 Y108.648 E9.9974
G1 F2666.7 X114.7 Y108.598 E10.00511
G0 F9000 X114.7 Y108.398
G0 X114.9 Y109.048
G1 F2985.1 X115.969 Y109.047 E10.04084
G1 F2654.9 X116.3 Y108.998 E10.05342
G1 F2666.7 X116.7 Y109.048 E10.0685
G1 F2985.1 X117.769 Y109.047 E10.10424
G1 F2654.9 X118.1 Y108.998 E10.11681
G1 F2666.7 X118.5 Y109.048 E10.13189
G1 F2985.1 X119.569 Y109.047 E10.16763
G1 F2654.9 X119.9 Y108.998 E10.1802
G1 F2666.7 X120.3 Y109.048 E10.19529
G1 F2985.1 X121.369 Y109.047 E10.23102
G1 F2836.9 X121.558 Y109.027 E10.2377
G1 F2714.9 X121.779 Y109.027 E10.24583
G1 X121.779 Y108.806 E10.25395
G1 F3022.7 X121.824 Y108.508 E10.2639
G1 F3418.8 X121.825 Y107.948 E10.28024
G1 F3053.4 X121.782 Y107.598 E10.29177
G1 F3045.7 X121.824 Y107.308 E10.30137
G1 F3418.8 X121.825 Y106.748 E10.31771
G1 F3053.4 X121.782 Y106.398 E10.32923
G1 F3045.7 X121.824 Y106.108 E10.33883
G1 F3418.8 X121.825 Y105.548 E10.35518
G1 F3200 X121.8 Y104.848 E10.37702
G1 F3000 X121.8 Y104.348 E10.39365
G1 X98.2 Y104.348 E11.17859
G1 X98.2 Y104.848 E11.19522
G1 F3200 X98.175 Y105.548 E11.21706
G1 F3418.8 X98.176 Y106.108 E11.2334
G1 F3038 X98.219 Y106.398 E11.24303
G1 F3053.4 X98.175 Y106.748 E11.25456
G1 F3418.8 X98.176 Y107.308 E11.2709
G1 F3038 X98.219 Y107.598 E11.28053
G1 F3053.4 X98.175 Y107.948 E11.29206
G1 F3418.8 X98.176 Y108.508 E11.3084
G1 F3022.7 X98.221 Y108.806 E11.31835
G1 F2721.1 X98.221 Y109.027 E11.32646
G1 X98.442 Y109.027 E11.33456
G1 F2857.1 X98.7 Y109.048 E11.3436
G1 F2985.1 X99.769 Y109.047 E11.37933
G1 F2654.9 X100.1 Y108.998 E11.39191
G1 F2666.7 X100.5 Y109.048 E11.40699
G1 F2985.1 X101.569 Y109.047 E11.44272
G1 F2654.9 X101.9 Y108.998 E11.4553
G1 F2666.7 X102.3 Y109.048 E11.47038
G1 F2985.1 X103.369 Y109.047 E11.50612
G1 F2654.9 X103.7 Y108.998 E11.51869
G1 F2666.7 X104.1 Y109.048 E11.53378
G1 F2985.1 X105.169 Y109.047 E11.56951
G1 F2654.9 X105.5 Y108.998 E11.58208
G1 F2666.7 X105.9 Y109.048 E11.59717
G1 F2985.1 X106.969 Y109.047 E11.6329
G1 F2654.9 X107.3 Y108.998 E11.64548
G1 F2666.7 X107.7 Y109.048 E11.66056
G1 F2985.1 X108.769 Y109.047 E11.69629
G1 F2654.9 X109.1 Y108.998 E11.70887
G1 F2666.7 X109.5 Y109.048 E11.72395
G1 F2985.1 X110.569 Y109.047 E11.75969
G1 F2654.9 X110.9 Y108.998 E11.77226
G1 F2666.7 X111.3 Y109.048 E11.78734
G1 F2985.1 X112.369 Y109.047 E11.82308
G1 F2654.9 X112.7 Y108.998 E11.83565
G1 F2666.7 X113.1 Y109.048 E11.85074
G1 F2985.1 X114.169 Y109.047 E11.88647
G1 F2654.9 X114.5 Y108.998 E11.89905
G1 F2666.7 X114.9 Y109.048 E11.91413
G0 F9000 X115.1 Y109.048
G10
G0 X115.1 Y109.915
G0 X122.653 Y109.903
G0 X122.653 Y103.497
G0 X109.3 Y103.485
G0 X109.3 Y106.573
G11
G1 F2255.6 X110.7 Y106.573 E11.97606
G1 X110.7 Y107.423 E12.01366
G1 X109.3 Y107.423 E12.07559
G1 X109.3 Y106.573 E12.11319
G0 F9000 X109.5 Y106.573
G0 X109.3 Y106.223
G1 F2404.8 X109.3 Y105.448 E12.14535
G1 F2771.4 X109.465 Y105.35 E12.15226
G1 F3000 X110.5 Y105.348 E12.18668
G1 F2771.4 X110.7 Y105.443 E12.19465
G1 F2404.8 X110.7 Y106.223 E12.22702
G1 F2255.6 X109.3 Y106.223 E12.28895
G0 F9000 X109.3 Y106.023
G0 X108.9 Y106.573
G1 F2255.6 X108.9 Y107.423 E12.32655
G1 X107.5 Y107.423 E12.38848
G1 X107.5 Y106.573 E12.42608
G1 X108.9 Y106.573 E12.48801
G0 F9000 X108.9 Y106.773
G0 X108.9 Y105.13
G0 X107.5 Y105.448
G1 F2771.4 X107.665 Y105.35 E12.49492
G1 F3000 X108.7 Y105.348 E12.52934
G1 F2771.4 X108.9 Y105.443 E12.53732
G1 F2404.8 X108.9 Y106.223 E12.56968
G1 F2255.6 X107.5 Y106.223 E12.63161
G1 F2404.8 X107.5 Y105.448 E12.66377
G0 F9000 X107.665 Y105.35
G0 X107.673 Y105.35
G0 X107.673 Y105.05
G0 X107.1 Y105.13
G0 X107.1 Y106.223
G1 F2255.6 X105.7 Y106.223 E12.7257
G1 F2404.8 X105.7 Y105.448 E12.75785
G1 F2771.4 X105.865 Y105.35 E12.76476
G1 F3000 X106.9 Y105.348 E12.79919
G1 F2771.4 X107.1 Y105.443 E12.80716
G1 F2404.8 X107.1 Y106.223 E12.83952
G0 F9000 X106.9 Y106.223
G10
G0 X104.1 Y108.648
G11
G1 F2666.7 X103.9 Y108.598 E12.84724
G1 F2325.6 X103.9 Y107.773 E12.88263
G1 F2255.6 X105.3 Y107.773 E12.94456
G1 F2444 X105.3 Y108.647 E12.98025
G1 F2823.5 X104.1 Y108.648 E13.02265
G0 F9000 X103.906 Y108.6
G0 X103.5 Y108.647
G1 F2823.5 X102.3 Y108.648 E13.06506
G1 F2666.7 X102.1 Y108.598 E13.07277
G1 F2325.6 X102.1 Y107.773 E13.10817
G1 F2255.6 X103.5 Y107.773 E13.1701
G1 F2444 X103.5 Y108.647 E13.20578
G0 F9000 X103.3 Y108.647
G10
G0 X103.3 Y109.915
G0 X97.347 Y109.903
G0 X97.347 Y103.497
G0 X103.3 Y103.485
G0 X98.7 Y104.848
;TYPE:WALL-INNER
G11
G1 F2000 X99.7 Y104.848 E13.25567
G1 F1826.5 X100.1 Y104.905 E13.27775
G1 F1812.7 X100.379 Y104.853 E13.29337
G1 F1983.5 X101.5 Y104.848 E13.34976
G1 F1826.5 X101.9 Y104.905 E13.37183
G1 F1812.7 X102.179 Y104.853 E13.38746
G1 F1983.5 X103.3 Y104.848 E13.44385
G1 F1826.5 X103.7 Y104.905 E13.46592
G1 F1812.7 X103.979 Y104.853 E13.48154
G1 F1983.5 X105.1 Y104.848 E13.53794
G1 F1826.5 X105.5 Y104.905 E13.56001
G1 F1812.7 X105.779 Y104.853 E13.57563
