;FLAVOR:Marlin
;TIME:3444
;Filament used: 2.7447m
;Layer height: 0.1
;MINX:47.378
;MINY:57.536
;MINZ:0.2
;MAXX:172.622
;MAXY:163.465
;MAXZ:1.5
;TARGET_MACHINE.NAME:Creality Ender-3 S1
;POSTPROCESSED
;  [CreateThumbnail]
;  [CreateThumbnail]
;  [KlipperPreprocessor]
;Generated with Cura_SteamEngine 5.7.1
;
;

;
;

M82 ;absolute extrusion mode
;Nozzle diameter = 0.4
;Filament type = PLA
;Filament name = PLA
;Filament weight = [8.186196640625]
; M190 S50
; M109 S200
M140 S0
M104 S0
START_PRINT EXTRUDER_TEMP=200 BED_TEMP=50
G92 E0
G92 E0
G10
;LAYER_COUNT:14
;LAYER:0
M107
G0 F9000 X51.719 Y60.201 Z0.2
;TYPE:SKIRT
G11
G1 F3000 X52.413 Y59.624 E0.03002
G1 X53.155 Y59.11 E0.06004
G1 X53.94 Y58.663 E0.09009
G1 X54.762 Y58.288 E0.12014
G1 X55.613 Y57.987 E0.15016
G1 X56.488 Y57.763 E0.1802
G1 X57.379 Y57.616 E0.21024
G1 X58.301 Y57.549 E0.24098
G1 X58.908 Y57.536 E0.26118
G1 X107.87 Y57.536 E1.88966
G1 X109.012 Y57.555 E1.92765
G1 X110.858 Y57.645 E1.98912
G1 X113.434 Y57.719 E2.07483
G1 X114.753 Y57.728 E2.1187
G1 X160.859 Y57.729 E3.65219
G1 X161.56 Y57.739 E3.67551
G1 X162.462 Y57.792 E3.70556
G1 X163.355 Y57.924 E3.73559
G1 X164.234 Y58.135 E3.76565
G1 X165.09 Y58.423 E3.79569
G1 X165.917 Y58.785 E3.82572
G1 X166.709 Y59.219 E3.85576
G1 X167.459 Y59.722 E3.88579
G1 X168.162 Y60.289 E3.91583
G1 X168.812 Y60.915 E3.94585
G1 X169.405 Y61.597 E3.97591
G1 X170.018 Y62.458 E4.01106
G1 X170.584 Y63.348 E4.04614
G1 X171.093 Y64.173 E4.07838
G1 X171.532 Y64.962 E4.10841
G1 X171.901 Y65.787 E4.13847
G1 X172.195 Y66.641 E4.16851
G1 X172.412 Y67.517 E4.19853
G1 X172.55 Y68.41 E4.22858
G1 X172.607 Y69.218 E4.25552
G1 X172.622 Y69.857 E4.27678
G1 X172.619 Y152.641 E7.03019
G1 X172.609 Y153.391 E7.05514
G1 X172.557 Y154.293 E7.08519
G1 X172.426 Y155.186 E7.11521
G1 X172.215 Y156.064 E7.14524
G1 X171.929 Y156.921 E7.17529
G1 X171.567 Y157.748 E7.20532
G1 X171.134 Y158.541 E7.23537
G1 X170.632 Y159.292 E7.26541
G1 X170.066 Y159.995 E7.29543
G1 X169.44 Y160.646 E7.32547
G1 X168.758 Y161.239 E7.35553
G1 X168.027 Y161.769 E7.38556
G1 X167.252 Y162.232 E7.41558
G1 X166.439 Y162.626 E7.44563
G1 X165.594 Y162.945 E7.47567
G1 X164.725 Y163.189 E7.5057
G1 X163.837 Y163.355 E7.53574
G1 X162.733 Y163.45 E7.5726
G1 X162.094 Y163.465 E7.59386
G1 X111.02 Y163.464 E9.29258
G1 X108.286 Y163.435 E9.38352
G1 X58.154 Y163.434 E11.05092
G1 X57.456 Y163.425 E11.07414
G1 X56.555 Y163.374 E11.10415
G1 X55.661 Y163.242 E11.13421
G1 X54.783 Y163.033 E11.16423
G1 X53.926 Y162.746 E11.19429
G1 X53.099 Y162.385 E11.2243
G1 X52.306 Y161.952 E11.25435
G1 X51.555 Y161.451 E11.28438
G1 X50.851 Y160.885 E11.31442
G1 X50.2 Y160.259 E11.34446
G1 X49.607 Y159.578 E11.37449
G1 X49.077 Y158.847 E11.40453
G1 X48.613 Y158.072 E11.43457
G1 X48.219 Y157.259 E11.46462
G1 X47.899 Y156.415 E11.49464
G1 X47.655 Y155.545 E11.52469
G1 X47.489 Y154.657 E11.55474
G1 X47.392 Y153.502 E11.59329
G1 X47.379 Y152.893 E11.61355
G1 X47.378 Y70.042 E14.36918
G1 X47.389 Y69.193 E14.39742
G1 X47.442 Y68.292 E14.42744
G1 X47.574 Y67.398 E14.4575
G1 X47.785 Y66.52 E14.48753
G1 X48.073 Y65.664 E14.51757
G1 X48.435 Y64.837 E14.5476
G1 X48.901 Y63.992 E14.57969
G1 X49.421 Y63.147 E14.61269
G1 X49.979 Y62.269 E14.6473
G1 X50.497 Y61.529 E14.67734
G1 X51.078 Y60.838 E14.70737
G1 X51.719 Y60.201 E14.73742
G10
G0 F9000 X56.925 Y150.888
G0 X57.779 Y151.635
G11
G1 F3000 X109.377 Y151.635 E16.45358
G1 X109.378 Y153.035 E16.50014
G1 X57.779 Y153.035 E18.21633
G1 X57.779 Y151.635 E18.2629
G0 F9000 X58.179 Y152.035
G1 F3000 X108.977 Y152.035 E19.95245
G1 X108.978 Y152.635 E19.9724
G1 X58.179 Y152.635 E21.66198
G1 X58.179 Y152.035 E21.68194
G10
G0 F9000 X110.621 Y151.665
G11
G1 F3000 X162.219 Y151.665 E23.3981
G1 X162.22 Y153.065 E23.44466
G1 X110.621 Y153.065 E25.16085
G1 X110.621 Y151.665 E25.20741
G0 F9000 X111.021 Y152.065
G1 F3000 X161.819 Y152.065 E26.89696
G1 X161.82 Y152.665 E26.91692
G1 X111.021 Y152.665 E28.6065
G1 X111.021 Y152.065 E28.62646
G10
;MESH:Door Right (X2).stl
G0 F9000 X162.073 Y151.318
G0 X163.073 Y150.918
G0 X163.073 Y110.212
G0 X109.171 Y110.169
G0 X109.164 Y108.921
G0 X108.708 Y108.465
G0 X108.976 Y108.732
;TYPE:WALL-INNER
G11
G1 F3000 X108.976 Y69.932 E29.91695
G1 X108.576 Y69.932 E29.93025
G1 X108.237 Y69.828 E29.94205
G1 X108.03 Y69.583 E29.95272
G1 X107.976 Y69.332 E29.96125
G1 X107.976 Y68.336 E29.99438
G1 X59.176 Y68.336 E31.61748
G1 X59.176 Y69.332 E31.6506
G1 X59.122 Y69.583 E31.65914
G1 X58.915 Y69.828 E31.66981
G1 X58.576 Y69.932 E31.6816
G1 X58.176 Y69.932 E31.69491
G1 X58.176 Y108.732 E32.9854
G1 X108.976 Y108.732 E34.67502
G10
G0 F9000 X108.708 Y108.465
G0 X109.108 Y69.805
G0 X109.376 Y69.532
;TYPE:WALL-OUTER
G11
G1 F3000 X108.492 Y69.532 E34.70442
G1 X108.376 Y69.395 E34.71039
G1 X108.376 Y67.936 E34.75892
G1 X58.776 Y67.936 E36.40862
G1 X58.776 Y69.395 E36.45714
G1 X58.66 Y69.532 E36.46312
G1 X57.776 Y69.532 E36.49252
G1 X57.776 Y109.132 E37.80962
G1 X109.376 Y109.132 E39.52584
G1 X109.376 Y69.532 E40.84294
G0 F9000 X109.176 Y69.532
G0 X108.708 Y70.205
G0 X107.751 Y70.163
G0 X107.62 Y69.366
;TYPE:SKIN
G1 F3000 X107.721 Y69.844 E40.85919
G1 X108.042 Y70.134 E40.87358
G1 X108.616 Y70.315 E40.8936
G1 X108.616 Y108.372 E42.15938
G1 X58.536 Y108.372 E43.82505
G1 X58.536 Y70.314 E45.09086
G1 X59.106 Y70.134 E45.11074
G1 X59.427 Y69.843 E45.12515
G1 X59.532 Y69.368 E45.14133
G1 X59.536 Y68.696 E45.16368
G1 X107.616 Y68.696 E46.76283
G1 X107.62 Y69.366 E46.78512
G0 F9000 X106.797 Y68.896
G1 F3000 X107.455 Y69.555 E46.81609
G0 F9000 X107.751 Y70.163
G0 X108.338 Y70.437
G1 F3000 X108.416 Y70.516 E46.81978
G0 F9000 X108.416 Y71.081
G1 F3000 X106.231 Y68.896 E46.92256
G0 F9000 X105.666 Y68.896
G1 F3000 X108.416 Y71.647 E47.05193
G0 F9000 X108.416 Y72.213
G1 F3000 X105.1 Y68.896 E47.20793
G0 F9000 X104.534 Y68.896
G1 F3000 X108.416 Y72.778 E47.39053
G0 F9000 X108.416 Y73.344
G1 F3000 X103.969 Y68.896 E47.59973
G0 F9000 X103.403 Y68.896
G1 F3000 X108.416 Y73.91 E47.83555
G0 F9000 X108.416 Y74.475
G1 F3000 X102.837 Y68.896 E48.09796
G0 F9000 X102.272 Y68.896
G1 F3000 X108.416 Y75.041 E48.38698
G0 F9000 X108.416 Y75.607
G1 F3000 X101.706 Y68.896 E48.70262
G0 F9000 X101.14 Y68.896
G1 F3000 X108.416 Y76.172 E49.04486
G0 F9000 X108.416 Y76.738
G1 F3000 X100.575 Y68.896 E49.4137
G0 F9000 X100.009 Y68.896
G1 F3000 X108.416 Y77.304 E49.80917
G0 F9000 X108.416 Y77.869
G1 F3000 X99.443 Y68.896 E50.23123
G0 F9000 X98.878 Y68.896
G1 F3000 X108.416 Y78.435 E50.67989
G0 F9000 X108.416 Y79.001
G1 F3000 X98.312 Y68.896 E51.15518
G0 F9000 X97.746 Y68.896
G1 F3000 X108.416 Y79.566 E51.65706
G0 F9000 X108.416 Y80.132
G1 F3000 X97.181 Y68.896 E52.18554
G0 F9000 X96.615 Y68.896
G1 F3000 X108.416 Y80.698 E52.74065
G0 F9000 X108.416 Y81.264
G1 F3000 X96.049 Y68.896 E53.32238
G0 F9000 X95.483 Y68.896
G1 F3000 X108.416 Y81.829 E53.93071
G0 F9000 X108.416 Y82.395
G1 F3000 X94.918 Y68.896 E54.56564
G0 F9000 X94.352 Y68.896
G1 F3000 X108.416 Y82.961 E55.22719
G0 F9000 X108.416 Y83.526
G1 F3000 X93.786 Y68.896 E55.91534
G0 F9000 X93.221 Y68.896
G1 F3000 X108.416 Y84.092 E56.63009
G0 F9000 X108.416 Y84.658
G1 F3000 X92.655 Y68.896 E57.37146
G0 F9000 X92.089 Y68.896
G1 F3000 X108.416 Y85.223 E58.13943
G0 F9000 X108.416 Y85.789
G1 F3000 X91.524 Y68.896 E58.934
G0 F9000 X90.958 Y68.896
G1 F3000 X108.416 Y86.355 E59.7552
G0 F9000 X108.416 Y86.92
G1 F3000 X90.392 Y68.896 E60.60299
G0 F9000 X89.827 Y68.896
G1 F3000 X108.416 Y87.486 E61.47739
G0 F9000 X108.416 Y88.052
G1 F3000 X89.261 Y68.896 E62.3784
G0 F9000 X88.695 Y68.896
G1 F3000 X108.416 Y88.617 E63.30602
G0 F9000 X108.416 Y89.183
G1 F3000 X88.13 Y68.896 E64.26023
G0 F9000 X87.564 Y68.896
G1 F3000 X108.416 Y89.749 E65.24107
G0 F9000 X108.416 Y90.315
G1 F3000 X86.998 Y68.896 E66.24853
G0 F9000 X86.432 Y68.896
G1 F3000 X108.416 Y90.88 E67.28259
G0 F9000 X108.416 Y91.446
G1 F3000 X85.867 Y68.896 E68.34325
G0 F9000 X85.301 Y68.896
G1 F3000 X108.416 Y92.012 E69.43053
G0 F9000 X108.416 Y92.577
G1 F3000 X84.735 Y68.896 E70.54441
G0 F9000 X84.17 Y68.896
G1 F3000 X108.416 Y93.143 E71.68489
G0 F9000 X108.416 Y93.709
G1 F3000 X83.604 Y68.896 E72.852
G0 F9000 X83.038 Y68.896
G1 F3000 X108.416 Y94.274 E74.0457
G0 F9000 X108.416 Y94.84
G1 F3000 X82.473 Y68.896 E75.266
G0 F9000 X81.907 Y68.896
G1 F3000 X108.416 Y95.406 E76.51293
G0 F9000 X108.416 Y95.971
G1 F3000 X81.341 Y68.896 E77.78645
G0 F9000 X80.776 Y68.896
G1 F3000 X108.416 Y96.537 E79.08658
G0 F9000 X108.416 Y97.103
G1 F3000 X80.21 Y68.896 E80.41333
G0 F9000 X79.644 Y68.896
G1 F3000 X108.416 Y97.668 E81.76667
G0 F9000 X108.416 Y98.234
G1 F3000 X79.079 Y68.896 E83.14662
G0 F9000 X78.513 Y68.896
G1 F3000 X108.416 Y98.8 E84.55319
G0 F9000 X108.416 Y99.365
G1 F3000 X77.947 Y68.896 E85.98636
G0 F9000 X77.382 Y68.896
G1 F3000 X108.416 Y99.931 E87.44612
G0 F9000 X108.416 Y100.497
G1 F3000 X76.816 Y68.896 E88.93251
G0 F9000 X76.25 Y68.896
G1 F3000 X108.416 Y101.063 E90.44553
G0 F9000 X108.416 Y101.628
G1 F3000 X75.684 Y68.896 E91.98514
G0 F9000 X75.119 Y68.896
G1 F3000 X108.416 Y102.194 E93.55135
G0 F9000 X108.416 Y102.76
G1 F3000 X74.553 Y68.896 E95.14419
G0 F9000 X73.987 Y68.896
G1 F3000 X108.416 Y103.325 E96.76362
G0 F9000 X108.416 Y103.891
G1 F3000 X73.422 Y68.896 E98.40966
G0 F9000 X72.856 Y68.896
G1 F3000 X108.416 Y104.457 E100.08231
G0 F9000 X108.416 Y105.022
G1 F3000 X72.29 Y68.896 E101.78157
G0 F9000 X71.725 Y68.896
G1 F3000 X108.416 Y105.588 E103.50743
G0 F9000 X108.416 Y106.154
G1 F3000 X71.159 Y68.896 E105.2599
G0 F9000 X70.593 Y68.896
G1 F3000 X108.416 Y106.719 E107.03898
G0 F9000 X108.416 Y107.285
G1 F3000 X70.028 Y68.896 E108.84466
G0 F9000 X69.462 Y68.896
G1 F3000 X108.416 Y107.851 E110.67696
G0 F9000 X108.172 Y108.172
G1 F3000 X68.896 Y68.896 E112.52438
G0 F9000 X68.331 Y68.896
G1 F3000 X107.606 Y108.172 E114.37178
G0 F9000 X107.04 Y108.172
G1 F3000 X67.765 Y68.896 E116.21918
G0 F9000 X67.199 Y68.896
G1 F3000 X106.475 Y108.172 E118.0666
G0 F9000 X105.909 Y108.172
G1 F3000 X66.634 Y68.896 E119.914
G0 F9000 X66.068 Y68.896
G1 F3000 X105.343 Y108.172 E121.7614
G0 F9000 X104.778 Y108.172
G1 F3000 X65.502 Y68.896 E123.60882
G0 F9000 X64.936 Y68.896
G1 F3000 X104.212 Y108.172 E125.45625
G0 F9000 X103.646 Y108.172
G1 F3000 X64.371 Y68.896 E127.30365
G0 F9000 X63.805 Y68.896
G1 F3000 X103.081 Y108.172 E129.15107
G0 F9000 X102.515 Y108.172
G1 F3000 X63.239 Y68.896 E130.99849
G0 F9000 X62.674 Y68.896
G1 F3000 X101.949 Y108.172 E132.84589
G0 F9000 X101.384 Y108.172
G1 F3000 X62.108 Y68.896 E134.69331
G0 F9000 X61.542 Y68.896
G1 F3000 X100.818 Y108.172 E136.54074
G0 F9000 X100.252 Y108.172
G1 F3000 X60.977 Y68.896 E138.38813
G0 F9000 X60.411 Y68.896
G1 F3000 X99.686 Y108.172 E140.23553
G0 F9000 X99.121 Y108.172
G1 F3000 X59.845 Y68.896 E142.08296
G0 F9000 X59.736 Y69.353
G1 F3000 X98.555 Y108.172 E143.90888
G0 F9000 X97.989 Y108.172
G1 F3000 X59.637 Y69.819 E145.71287
G0 F9000 X59.394 Y70.142
G1 F3000 X97.424 Y108.172 E147.50168
G0 F9000 X96.858 Y108.172
G1 F3000 X59.048 Y70.362 E149.28015
G0 F9000 X58.736 Y70.615
G1 F3000 X96.292 Y108.172 E151.04669
G0 F9000 X95.727 Y108.172
G1 F3000 X58.736 Y71.181 E152.78663
G0 F9000 X58.736 Y71.747
G1 F3000 X95.161 Y108.172 E154.49995
G0 F9000 X94.595 Y108.172
G1 F3000 X58.736 Y72.312 E156.18668
G0 F9000 X58.736 Y72.878
G1 F3000 X94.03 Y108.172 E157.8468
G0 F9000 X93.464 Y108.172
G1 F3000 X58.736 Y73.444 E159.4803
G0 F9000 X58.736 Y74.009
G1 F3000 X92.898 Y108.172 E161.08719
G0 F9000 X92.333 Y108.172
G1 F3000 X58.736 Y74.575 E162.66749
G0 F9000 X58.736 Y75.141
G1 F3000 X91.767 Y108.172 E164.22117
G0 F9000 X91.201 Y108.172
G1 F3000 X58.736 Y75.706 E165.74825
G0 F9000 X58.736 Y76.272
G1 F3000 X90.636 Y108.172 E167.24873
G0 F9000 X90.07 Y108.172
G1 F3000 X58.736 Y76.838 E168.72258
G0 F9000 X58.736 Y77.403
G1 F3000 X89.504 Y108.172 E170.16984
G0 F9000 X88.938 Y108.172
G1 F3000 X58.736 Y77.969 E171.59047
G0 F9000 X58.736 Y78.535
G1 F3000 X88.373 Y108.172 E172.9845
G0 F9000 X87.807 Y108.172
G1 F3000 X58.736 Y79.101 E174.35192
G0 F9000 X58.736 Y79.666
G1 F3000 X87.241 Y108.172 E175.69273
G0 F9000 X86.676 Y108.172
G1 F3000 X58.736 Y80.232 E177.00694
G0 F9000 X58.736 Y80.798
G1 F3000 X86.11 Y108.172 E178.29453
G0 F9000 X85.544 Y108.172
G1 F3000 X58.736 Y81.363 E179.55552
G0 F9000 X58.736 Y81.929
G1 F3000 X84.979 Y108.172 E180.78991
G0 F9000 X84.413 Y108.172
G1 F3000 X58.736 Y82.495 E181.99768
G0 F9000 X58.736 Y83.06
G1 F3000 X83.847 Y108.172 E183.17884
G0 F9000 X83.282 Y108.172
G1 F3000 X58.736 Y83.626 E184.33341
G0 F9000 X58.736 Y84.192
G1 F3000 X82.716 Y108.172 E185.46136
G0 F9000 X82.15 Y108.172
G1 F3000 X58.736 Y84.757 E186.5627
G0 F9000 X58.736 Y85.323
G1 F3000 X81.585 Y108.172 E187.63745
G0 F9000 X81.019 Y108.172
G1 F3000 X58.736 Y85.889 E188.68557
G0 F9000 X58.736 Y86.454
G1 F3000 X80.453 Y108.172 E189.7071
G0 F9000 X79.888 Y108.172
G1 F3000 X58.736 Y87.02 E190.70202
G0 F9000 X58.736 Y87.586
G1 F3000 X79.322 Y108.172 E191.67033
G0 F9000 X78.756 Y108.172
G1 F3000 X58.736 Y88.151 E192.61203
G0 F9000 X58.736 Y88.717
G1 F3000 X78.19 Y108.172 E193.52711
G0 F9000 X77.625 Y108.172
G1 F3000 X58.736 Y89.283 E194.41559
G0 F9000 X58.736 Y89.849
G1 F3000 X77.059 Y108.172 E195.27745
G0 F9000 X76.493 Y108.172
G1 F3000 X58.736 Y90.414 E196.11271
G0 F9000 X58.736 Y90.98
G1 F3000 X75.928 Y108.172 E196.92137
G0 F9000 X75.362 Y108.172
G1 F3000 X58.736 Y91.546 E197.7034
G0 F9000 X58.736 Y92.111
G1 F3000 X74.796 Y108.172 E198.45884
G0 F9000 X74.231 Y108.172
G1 F3000 X58.736 Y92.677 E199.18768
G0 F9000 X58.736 Y93.243
G1 F3000 X73.665 Y108.172 E199.88989
G0 F9000 X73.099 Y108.172
G1 F3000 X58.736 Y93.808 E200.5655
G0 F9000 X58.736 Y94.374
G1 F3000 X72.534 Y108.172 E201.21452
G0 F9000 X71.968 Y108.172
G1 F3000 X58.736 Y94.94 E201.83691
G0 F9000 X58.736 Y95.505
G1 F3000 X71.402 Y108.172 E202.43271
G0 F9000 X70.837 Y108.172
G1 F3000 X58.736 Y96.071 E203.0019
G0 F9000 X58.736 Y96.637
G1 F3000 X70.271 Y108.172 E203.54447
G0 F9000 X69.705 Y108.172
G1 F3000 X58.736 Y97.202 E204.06044
G0 F9000 X58.736 Y97.768
G1 F3000 X69.139 Y108.172 E204.54979
G0 F9000 X68.574 Y108.172
G1 F3000 X58.736 Y98.334 E205.01254
G0 F9000 X58.736 Y98.899
G1 F3000 X68.008 Y108.172 E205.44869
G0 F9000 X67.442 Y108.172
G1 F3000 X58.736 Y99.465 E205.85822
G0 F9000 X58.736 Y100.031
G1 F3000 X66.877 Y108.172 E206.24115
G0 F9000 X66.311 Y108.172
G1 F3000 X58.736 Y100.597 E206.59745
G0 F9000 X58.736 Y101.162
G1 F3000 X65.745 Y108.172 E206.92716
G0 F9000 X65.18 Y108.172
G1 F3000 X58.736 Y101.728 E207.23026
G0 F9000 X58.736 Y102.294
G1 F3000 X64.614 Y108.172 E207.50675
G0 F9000 X64.048 Y108.172
G1 F3000 X58.736 Y102.859 E207.75663
G0 F9000 X58.736 Y103.425
G1 F3000 X63.483 Y108.172 E207.97991
G0 F9000 X62.917 Y108.172
G1 F3000 X58.736 Y103.991 E208.17657
G0 F9000 X58.736 Y104.556
G1 F3000 X62.351 Y108.172 E208.34664
G0 F9000 X61.786 Y108.172
G1 F3000 X58.736 Y105.122 E208.4901
G0 F9000 X58.736 Y105.688
G1 F3000 X61.22 Y108.172 E208.60694
G0 F9000 X60.654 Y108.172
G1 F3000 X58.736 Y106.253 E208.69718
G0 F9000 X58.736 Y106.819
G1 F3000 X60.089 Y108.172 E208.76082
G0 F9000 X59.523 Y108.172
G1 F3000 X58.736 Y107.385 E208.79784
G0 F9000 X58.736 Y107.95
G1 F3000 X58.957 Y108.172 E208.80826
G0 F9000 X58.957 Y108.135
G10
;MESH:Door Left (X2).stl
G0 X58.448 Y108.915
G0 X58.448 Y111.255
G0 X58.448 Y111.705
G0 X58.176 Y111.432
;TYPE:WALL-INNER
G11
G1 F3000 X58.176 Y149.632 E210.07879
G1 X58.576 Y149.632 E210.0921
G1 X58.915 Y149.736 E210.10389
G1 X59.071 Y150.032 E210.11502
G1 X108.081 Y150.032 E211.7451
G1 X108.237 Y149.736 E211.75623
G1 X108.576 Y149.632 E211.76802
G1 X108.976 Y149.632 E211.78133
