;FLAVOR:Marlin
;TIME:203
;Filament used: 0.0578744m
;Layer height: 0.1
;MINX:90.561
;MINY:91.9
;MINZ:0.2
;MAXX:129.4
;MAXY:129
;MAXZ:2.3
;TARGET_MACHINE.NAME:Creality Ender-3 S1
;POSTPROCESSED
;  [CreateThumbnail]
;  [CreateThumbnail]
;  [KlipperPreprocessor]
;Generated with Cura_SteamEngine 5.7.1
;
;

;
;

M82 ;absolute extrusion mode
;Nozzle diameter = 0.4
;Filament type = PLA
;Filament name = PLA
;Filament weight = [0.17261335083007814]
; M190 S50
; M109 S200
M140 S0
M104 S0
START_PRINT EXTRUDER_TEMP=200 BED_TEMP=50
G92 E0
G92 E0
G10
;LAYER_COUNT:22
;LAYER:0
M107
G0 F9000 X95.047 Y99.223 Z0.2
;TYPE:SKIRT
G11
G1 F3000 X95.668 Y98.64 E0.02833
G1 X96.168 Y98.216 E0.05013
G1 X96.544 Y97.918 E0.06609
G1 X97.531 Y97.227 E0.10617
G1 X97.945 Y96.972 E0.12234
G1 X98.696 Y96.548 E0.15102
G1 X99.491 Y96.16 E0.18044
G1 X100.03 Y95.93 E0.19994
G1 X100.585 Y95.715 E0.21973
G1 X104.004 Y94.461 E0.34086
G1 X106.332 Y93.527 E0.42428
G1 X107.441 Y93.045 E0.4645
G1 X108.301 Y92.688 E0.49547
G1 X109.15 Y92.379 E0.52552
G1 X110.023 Y92.147 E0.55557
G1 X110.912 Y91.992 E0.58558
G1 X111.923 Y91.913 E0.61931
G1 X112.53 Y91.9 E0.6395
G1 X118.493 Y91.9 E0.83783
G1 X119.337 Y91.911 E0.86591
G1 X120.239 Y91.964 E0.89596
G1 X121.132 Y92.096 E0.92598
G1 X122.01 Y92.307 E0.95602
G1 X122.866 Y92.595 E0.98606
G1 X123.693 Y92.957 E1.01608
G1 X124.485 Y93.392 E1.04614
G1 X125.236 Y93.894 E1.07618
G1 X125.939 Y94.461 E1.10622
G1 X126.589 Y95.088 E1.13626
G1 X127.181 Y95.77 E1.1663
G1 X127.711 Y96.501 E1.19633
G1 X128.173 Y97.277 E1.22637
G1 X128.566 Y98.09 E1.2564
G1 X128.884 Y98.935 E1.28643
G1 X129.127 Y99.805 E1.31647
G1 X129.292 Y100.693 E1.34651
G1 X129.387 Y101.823 E1.38423
G1 X129.4 Y102.43 E1.40442
G1 X129.399 Y110.527 E1.67373
G1 X129.388 Y111.257 E1.69801
G1 X129.334 Y112.158 E1.72803
G1 X129.245 Y112.81 E1.74992
G1 X128.852 Y115.127 E1.82808
G1 X128.489 Y117.672 E1.91359
G1 X128.223 Y119.966 E1.9904
G1 X128.079 Y120.858 E2.02045
G1 X127.857 Y121.733 E2.05048
G1 X127.559 Y122.586 E2.08053
G1 X127.186 Y123.408 E2.11055
G1 X126.742 Y124.195 E2.1406
G1 X126.23 Y124.939 E2.17064
G1 X125.654 Y125.635 E2.20069
G1 X125.02 Y126.277 E2.2307
G1 X124.33 Y126.86 E2.26075
G1 X123.592 Y127.38 E2.29077
G1 X122.811 Y127.833 E2.3208
G1 X121.992 Y128.215 E2.35086
G1 X121.143 Y128.524 E2.38091
G1 X120.271 Y128.755 E2.41091
G1 X119.381 Y128.909 E2.44096
G1 X118.377 Y128.987 E2.47445
G1 X117.77 Y129 E2.49464
G1 X115.85 Y128.999 E2.5585
G1 X115.142 Y128.988 E2.58205
G1 X114.24 Y128.934 E2.61211
G1 X113.347 Y128.8 E2.64214
G1 X112.469 Y128.588 E2.67218
G1 X111.373 Y128.203 E2.71082
G1 X109.09 Y127.251 E2.79309
G1 X106.741 Y126.345 E2.87683
G1 X104.352 Y125.499 E2.96112
G1 X100.817 Y124.363 E3.08462
G1 X99.684 Y123.922 E3.12506
G1 X99.246 Y123.721 E3.14108
G1 X98.673 Y123.436 E3.16237
G1 X98.418 Y123.299 E3.172
G1 X97.787 Y122.933 E3.19626
G1 X97.186 Y122.54 E3.22014
G1 X96.847 Y122.301 E3.23394
G1 X96.314 Y121.899 E3.25614
G1 X95.651 Y121.343 E3.28492
G1 X95.451 Y121.162 E3.29389
G1 X94.909 Y120.636 E3.31901
G1 X94.457 Y120.152 E3.34104
G1 X94.13 Y119.777 E3.35759
G1 X93.409 Y118.846 E3.39675
G1 X93.074 Y118.358 E3.41644
G1 X92.531 Y117.474 E3.45095
G1 X92.324 Y117.095 E3.46531
G1 X91.969 Y116.381 E3.49183
G1 X91.812 Y116.031 E3.50459
G1 X91.479 Y115.198 E3.53443
G1 X91.289 Y114.639 E3.55407
G1 X91.032 Y113.751 E3.58481
G1 X90.841 Y112.894 E3.61402
G1 X90.782 Y112.569 E3.625
G1 X90.655 Y111.662 E3.65546
G1 X90.6 Y111.059 E3.6756
G1 X90.581 Y110.743 E3.68613
G1 X90.561 Y110.008 E3.71059
G1 X90.576 Y109.357 E3.73224
G1 X90.593 Y109.046 E3.7426
G1 X90.656 Y108.343 E3.76608
G1 X90.719 Y107.837 E3.78304
G1 X90.933 Y106.675 E3.82234
G1 X91.065 Y106.135 E3.84083
G1 X91.364 Y105.136 E3.87551
G1 X91.526 Y104.681 E3.89157
G1 X91.819 Y103.949 E3.9178
G1 X92.199 Y103.142 E3.94747
G1 X92.412 Y102.733 E3.9628
G1 X93.018 Y101.717 E4.00215
G1 X93.286 Y101.322 E4.01803
G1 X93.687 Y100.772 E4.04067
G1 X94.192 Y100.146 E4.06742
G1 X94.372 Y99.938 E4.07657
G1 X94.824 Y99.449 E4.09871
G1 X95.047 Y99.223 E4.10927
G10
G0 F9000 X115.5 Y105.3
G11
G1 F3000 X115.9 Y105.3 E4.12258
G1 X115.9 Y107.7 E4.2024
G1 X115.5 Y107.7 E4.21571
G1 X115.5 Y105.3 E4.29553
G10
G0 F9000 X115.669 Y112.1
G11
G1 F3000 X115.7 Y112.1 E4.29656
G1 X115.701 Y118.2 E4.49945
G1 X115.74 Y118.319 E4.50361
G1 X115.901 Y118.4 E4.50961
G1 X117.5 Y118.4 E4.56279
G1 X117.619 Y118.361 E4.56696
G1 X117.7 Y118.2 E4.57295
G1 X117.7 Y112.1 E4.77584
G1 X117.739 Y112.219 E4.78
G1 X117.9 Y112.3 E4.786
G1 X117.9 Y118.6 E4.99554
G1 X115.501 Y118.6 E5.07533
G1 X115.5 Y112.289 E5.28523
G1 X115.586 Y112.261 E5.28824
G1 X115.664 Y112.133 E5.29322
G1 X115.669 Y112.1 E5.29433
G0 F9000 X116.1 Y112.1
;TYPE:SUPPORT-INTERFACE
G1 F3000 X117.3 Y112.1 E5.33425
G1 X117.3 Y118 E5.53048
G1 X116.101 Y118 E5.57036
G1 X116.1 Y112.1 E5.7666
G0 F9000 X116.5 Y112.5
G1 F3000 X116.9 Y112.5 E5.7799
G1 X116.9 Y117.6 E5.94953
G1 X116.5 Y117.6 E5.96283
G1 X116.5 Y112.5 E6.13246
G10
;MESH:Brake Wheel.stl
G0 F9000 X115.236 Y112.501
G0 X109.77 Y113.987
G0 X108.987 Y113.215
G0 X103.695 Y110.434
G0 X103.404 Y110.504
;TYPE:WALL-INNER
G11
G1 F3000 X103.5 Y110.837 E6.14398
G1 X103.641 Y111.145 E6.15525
G1 X103.969 Y111.654 E6.17539
G1 X103.916 Y111.828 E6.18144
G1 X104.093 Y111.774 E6.18759
G1 X104.449 Y112.013 E6.20186
G1 X104.75 Y112.181 E6.21332
G1 X105.162 Y112.328 E6.22787
G1 X105.658 Y112.421 E6.24466
G1 X105.748 Y112.591 E6.25105
G1 X105.838 Y112.421 E6.25745
G1 X106.334 Y112.328 E6.27424
G1 X106.69 Y112.209 E6.28672
G1 X106.906 Y112.1 E6.29477
G1 X107.405 Y111.774 E6.31459
G1 X107.58 Y111.828 E6.32068
G1 X107.526 Y111.651 E6.32684
G1 X107.757 Y111.307 E6.34062
G1 X107.97 Y110.924 E6.3552
G1 X108.097 Y110.498 E6.36998
G1 X108.18 Y110.079 E6.38419
G1 X108.326 Y109.998 E6.38974
G1 X108.143 Y109.777 E6.39928
G1 X108.083 Y109.42 E6.41132
G1 X107.962 Y109.058 E6.42402
G1 X107.756 Y108.687 E6.43813
G1 X107.523 Y108.331 E6.45228
G1 X107.565 Y108.179 E6.45753
G1 X107.287 Y108.147 E6.46684
G1 X106.988 Y107.938 E6.47897
G1 X106.583 Y107.75 E6.49382
G1 X106.251 Y107.652 E6.50533
G1 X105.832 Y107.567 E6.51955
G1 X105.748 Y107.42 E6.52519
G1 X105.665 Y107.565 E6.53074
G1 X104.999 Y107.71 E6.55341
G1 X104.508 Y107.938 E6.57142
G1 X104.209 Y108.147 E6.58355
G1 X103.931 Y108.179 E6.59286
G1 X103.973 Y108.331 E6.5981
G1 X103.74 Y108.687 E6.61226
G1 X103.532 Y109.061 E6.62649
G1 X103.416 Y109.42 E6.63904
G1 X103.32 Y109.913 E6.65574
G1 X103.16 Y109.996 E6.66174
G1 X103.319 Y110.079 E6.6677
G1 X103.404 Y110.504 E6.68212
G0 F9000 X103.124 Y110.975
;TYPE:WALL-OUTER
G1 F3000 X103.238 Y111.251 E6.69205
G1 X103.404 Y111.526 E6.70273
G1 X103.567 Y111.76 E6.71222
G1 F3007.5 X103.505 Y111.957 E6.71907
G1 F2649 X102.541 Y112.92 E6.7704
G1 F2614.4 X102.404 Y112.851 E6.77625
G1 F2963 X102.191 Y112.588 E6.78765
G1 F3015.1 X102.04 Y112.365 E6.79656
G1 X101.79 Y111.918 E6.81351
G1 X101.678 Y111.667 E6.82261
G1 X101.59 Y111.437 E6.83076
G1 X101.506 Y111.171 E6.83999
G1 X101.448 Y110.928 E6.84825
G1 F3007.5 X101.397 Y110.652 E6.85757
G1 F2985.1 X101.37 Y110.372 E6.86697
G1 F2625.8 X101.415 Y110.196 E6.87387
G1 F2643.2 X102.776 Y110.196 E6.92525
G1 F3000 X102.958 Y110.29 E6.93206
G1 X103.028 Y110.675 E6.94508
G1 X103.124 Y110.975 E6.95556
G0 F9000 X103.2 Y111.159
G0 X103.839 Y110.871
G0 X104.143 Y108.634
G0 X103.568 Y108.229
G1 F3000 X103.404 Y108.469 E6.96522
G1 X103.202 Y108.832 E6.97904
G1 X103.124 Y109.021 E6.98584
G1 X103.027 Y109.324 E6.99642
G1 X102.958 Y109.702 E7.0092
G1 X102.776 Y109.796 E7.01602
G1 F2643.2 X101.415 Y109.796 E7.06739
G1 F2625.8 X101.37 Y109.615 E7.07448
G1 F2985.1 X101.4 Y109.322 E7.08433
G1 F3007.5 X101.457 Y109.034 E7.09407
G1 F3000 X101.517 Y108.791 E7.10239
G1 F3007.5 X101.601 Y108.531 E7.11146
G1 F3015.1 X101.796 Y108.067 E7.12811
G1 F3000 X101.939 Y107.795 E7.13833
G1 F2992.5 X102.058 Y107.602 E7.14589
G1 F3000 X102.375 Y107.174 E7.16361
G1 F2649 X102.54 Y107.073 E7.1709
G1 F2654.9 X103.517 Y108.047 E7.22275
G1 F3000 X103.568 Y108.229 E7.22903
G0 F9000 X103.456 Y108.393
G0 X103.981 Y107.816
G1 F3000 X103.799 Y107.765 E7.23532
G1 F2654.9 X102.821 Y106.789 E7.28725
G1 F2649 X102.915 Y106.63 E7.2942
G1 F2992.5 X103.166 Y106.435 E7.3048
G1 F3000 X103.369 Y106.294 E7.31302
G1 X103.833 Y106.035 E7.3307
G1 F2992.5 X104.306 Y105.84 E7.34776
G1 X104.542 Y105.765 E7.35601
G1 F3000 X104.816 Y105.697 E7.3654
G1 X105.081 Y105.649 E7.37436
G1 X105.34 Y105.62 E7.38303
G1 F2643.2 X105.548 Y105.664 E7.39105
G1 X105.548 Y107.041 E7.44304
G1 F3000 X105.453 Y107.206 E7.44937
G1 X105.046 Y107.282 E7.46314
G1 X104.68 Y107.407 E7.476
G1 X104.303 Y107.593 E7.48999
G1 X103.981 Y107.816 E7.50301
G0 F9000 X103.799 Y107.765
G0 X103.792 Y107.758
G0 X104.286 Y108.462
G0 X105.926 Y107.9
G0 X106.043 Y107.206
G1 F3000 X105.948 Y107.041 E7.50935
G1 F2643.2 X105.948 Y105.664 E7.56133
G1 F2631.6 X106.126 Y105.618 E7.5683
G1 F2985.1 X106.428 Y105.651 E7.57845
G1 F2977.7 X106.913 Y105.751 E7.59505
G1 X107.428 Y105.932 E7.61334
G1 F3007.5 X107.683 Y106.044 E7.62258
G1 X107.899 Y106.159 E7.6307
G1 F3000 X108.126 Y106.294 E7.63948
G1 X108.336 Y106.44 E7.64799
G1 F3007.5 X108.581 Y106.629 E7.65826
G1 F2654.9 X108.675 Y106.789 E7.66523
G1 F2649 X107.697 Y107.765 E7.71727
G1 F3000 X107.515 Y107.816 E7.72356
G1 X107.193 Y107.593 E7.73659
G1 X106.81 Y107.405 E7.75078
G1 X106.441 Y107.28 E7.76374
G1 X106.043 Y107.206 E7.7772
G0 F9000 X105.948 Y107.041
G0 X105.948 Y107.031
G10
G0 X105.804 Y107.879
G0 X108.276 Y109.47
G0 X110.364 Y109.438
G0 X110.081 Y109.796
G11
G1 F2637.4 X108.704 Y109.796 E7.8293
G1 F2992.5 X108.537 Y109.702 E7.83569
G1 F3000 X108.473 Y109.324 E7.84844
G1 X108.372 Y109.022 E7.85903
G1 X108.294 Y108.832 E7.86586
G1 X108.092 Y108.469 E7.87968
G1 X107.928 Y108.229 E7.88935
G1 X107.979 Y108.047 E7.89563
G1 F2649 X108.956 Y107.073 E7.9476
G1 F2643.2 X109.119 Y107.17 E7.95476
G1 F3000 X109.446 Y107.615 E7.97312
G1 F3015.1 X109.59 Y107.849 E7.98222
G1 F3007.5 X109.708 Y108.082 E7.99088
G1 F3000 X109.9 Y108.534 E8.00722
G1 X109.982 Y108.804 E8.0166
G1 X110.048 Y109.074 E8.02585
G1 X110.099 Y109.34 E8.03485
G1 F2985.1 X110.126 Y109.615 E8.04409
G1 F2631.6 X110.081 Y109.796 E8.05116
G0 F9000 X109.881 Y109.796
G10
G0 X110.364 Y109.438
G0 X108.365 Y109.999
G0 X107.288 Y111.46
G0 X107.991 Y111.957
G11
G1 F3007.5 X107.929 Y111.76 E8.05801
G1 F3000 X108.092 Y111.526 E8.0675
G1 X108.263 Y111.239 E8.07861
G1 X108.372 Y110.975 E8.08811
G1 X108.488 Y110.584 E8.10168
G1 X108.542 Y110.29 E8.11162
G1 F2992.5 X108.706 Y110.196 E8.11792
G1 F2637.4 X110.081 Y110.196 E8.16994
G1 F2625.8 X110.126 Y110.373 E8.17688
G1 F2985.1 X110.096 Y110.668 E8.18679
G1 F3015.1 X110.046 Y110.939 E8.19591
G1 F3007.5 X109.936 Y111.348 E8.20996
G1 X109.814 Y111.678 E8.22164
G1 F3015.1 X109.701 Y111.928 E8.23072
G1 X109.583 Y112.155 E8.23918
G1 X109.449 Y112.376 E8.24774
G1 X109.301 Y112.595 E8.25648
G1 F2970.3 X109.092 Y112.851 E8.26759
G1 F2620.1 X108.955 Y112.92 E8.27343
G1 F2654.9 X107.991 Y111.957 E8.32464
G0 F9000 X107.932 Y111.767
G0 X107.512 Y112.177
G1 F3007.5 X107.709 Y112.239 E8.33149
G1 F2654.9 X108.676 Y113.204 E8.38284
G1 F2625.8 X108.598 Y113.344 E8.38893
G1 F2977.7 X108.34 Y113.553 E8.40005
G1 F3007.5 X108.131 Y113.695 E8.40843
G1 F3000 X107.891 Y113.84 E8.41776
G1 F3015.1 X107.667 Y113.959 E8.42616
G1 F3022.7 X107.181 Y114.159 E8.4435
G1 F3007.5 X106.932 Y114.234 E8.45213
G1 F3000 X106.678 Y114.297 E8.46084
G1 F2992.5 X106.415 Y114.347 E8.46976
G1 F2970.3 X106.113 Y114.382 E8.47997
G1 F2625.8 X105.948 Y114.332 E8.48653
G1 F2649 X105.948 Y112.968 E8.5379
G1 F3000 X106.045 Y112.785 E8.54479
G1 X106.431 Y112.717 E8.55783
G1 X106.845 Y112.579 E8.57234
G1 X107.173 Y112.413 E8.58457
G1 X107.512 Y112.177 E8.59831
G0 F9000 X107.702 Y112.236
G10
G0 X107.212 Y111.537
G0 X105.222 Y112.525
G0 X104.869 Y114.562
G0 X105.066 Y114.345
G11
G1 F3007.5 X104.818 Y114.297 E8.60669
G1 X104.554 Y114.231 E8.61572
G1 F3015.1 X104.299 Y114.153 E8.62454
G1 F3022.7 X103.813 Y113.951 E8.64192
G1 F3015.1 X103.595 Y113.834 E8.6501
G1 X103.146 Y113.546 E8.66776
G1 F2977.7 X102.898 Y113.344 E8.67848
G1 F2620.1 X102.82 Y113.204 E8.68458
G1 F2649 X103.787 Y112.239 E8.73604
G1 F3007.5 X103.987 Y112.176 E8.74299
G1 F3000 X104.305 Y112.401 E8.75595
G1 X104.65 Y112.579 E8.76886
G1 X105.065 Y112.717 E8.78341
G1 X105.451 Y112.785 E8.79644
G1 X105.548 Y112.968 E8.80333
G1 F2649 X105.548 Y114.332 E8.85471
G1 F2631.6 X105.366 Y114.378 E8.86183
G1 F2985.1 X105.066 Y114.345 E8.87192
G0 F9000 X104.87 Y114.308
G0 X104.625 Y114.662
G1 F2992.5 X104.9 Y114.723 E8.88131
G1 F2985.1 X105.185 Y114.764 E8.89093
G1 F2941.2 X105.458 Y114.781 E8.90021
G1 F2608.7 X105.754 Y114.742 E8.91163
G1 X106.049 Y114.781 E8.92302
G1 F2941.2 X106.327 Y114.763 E8.93247
G1 F2977.7 X106.603 Y114.722 E8.94182
G1 F2985.1 X106.879 Y114.66 E8.95127
G1 F2992.5 X107.178 Y114.578 E8.96161
G1 F3000 X107.429 Y114.491 E8.97045
G1 X107.696 Y114.383 E8.98002
G1 X107.974 Y114.25 E8.99027
G1 F2992.5 X108.22 Y114.11 E8.99971
G1 F2985.1 X108.46 Y113.958 E9.00921
G1 F2992.5 X108.68 Y113.796 E9.01832
G1 F2970.3 X108.909 Y113.602 E9.0284
G1 F2625.8 X109.109 Y113.348 E9.04069
G1 F2586.2 X109.31 Y113.2 E9.05032
G1 F2912.6 X109.497 Y112.993 E9.05987
G1 F2992.5 X109.674 Y112.756 E9.06973
G1 F3000 X109.832 Y112.515 E9.07932
G1 X109.982 Y112.256 E9.08927
G1 X110.1 Y112.018 E9.09811
G1 X110.219 Y111.738 E9.10823
G1 X110.319 Y111.463 E9.11796
G1 X110.391 Y111.21 E9.12671
G1 X110.46 Y110.907 E9.13705
G1 X110.505 Y110.627 E9.14648
G1 F2977.7 X110.529 Y110.36 E9.15546
G1 F2784.2 X110.5 Y109.953 E9.17008
G1 F2684.6 X110.527 Y109.8 E9.17586
G1 F2857.1 X110.519 Y109.48 E9.18704
G1 F2985.1 X110.481 Y109.205 E9.19632
G1 F2992.5 X110.427 Y108.936 E9.20547
G1 X110.35 Y108.639 E9.2157
G1 F3000 X110.27 Y108.382 E9.22465
G1 F2985.1 X110.159 Y108.107 E9.23456
G1 F2977.7 X110.034 Y107.838 E9.2445
G1 F2985.1 X109.859 Y107.518 E9.25669
G1 F2977.7 X109.577 Y107.107 E9.2734
G1 X109.398 Y106.882 E9.28303
G1 F2765 X109.183 Y106.693 E9.29336
G1 F2777.8 X108.869 Y106.354 E9.30996
G1 F3007.5 X108.557 Y106.107 E9.32316
G1 F3000 X108.327 Y105.949 E9.33244
G1 X108.077 Y105.801 E9.3421
G1 X107.826 Y105.671 E9.35151
G1 X107.557 Y105.553 E9.36128
G1 F2985.1 X107.005 Y105.355 E9.38088
G1 X106.474 Y105.254 E9.39895
G1 X106.117 Y105.217 E9.41094
G1 F2790.7 X105.873 Y105.228 E9.41968
G1 F2803.7 X105.321 Y105.219 E9.43932
G1 F3000 X104.999 Y105.258 E9.45011
G1 X104.743 Y105.303 E9.45876
G1 F2970.3 X104.361 Y105.399 E9.47199
G1 F2941.2 X104.352 Y105.392 E9.47238
G1 F2970.3 X103.909 Y105.566 E9.48836
G1 F3007.5 X103.657 Y105.677 E9.4975
G1 X103.388 Y105.82 E9.50761
G1 F3000 X103.15 Y105.96 E9.51679
G1 X102.918 Y106.122 E9.5262
G1 F2992.5 X102.628 Y106.354 E9.53859
G1 F2765 X102.315 Y106.691 E9.55518
G1 X102.086 Y106.898 E9.56632
G1 F2985.1 X101.898 Y107.135 E9.57643
G1 X101.741 Y107.358 E9.58555
G1 X101.618 Y107.556 E9.59334
G1 F2977.7 X101.607 Y107.559 E9.59372
G1 X101.33 Y108.128 E9.61493
G1 F2992.5 X101.226 Y108.397 E9.62455
G1 F3007.5 X101.134 Y108.681 E9.63445
G1 X101.056 Y108.996 E9.64522
G1 X101.013 Y109.215 E9.65262
G1 F2985.1 X100.967 Y109.618 E9.66618
G1 F2625.8 X101.004 Y109.993 E9.6805
G1 F2439 X100.986 Y110.075 E9.68393
G1 F2721.1 X100.966 Y110.36 E9.69441
G1 F2970.3 X100.992 Y110.639 E9.70382
G1 F2985.1 X101.038 Y110.918 E9.71328
G1 F2992.5 X101.107 Y111.219 E9.72357
G1 F3000 X101.181 Y111.476 E9.73247
G1 X101.28 Y111.747 E9.74206
G1 X101.401 Y112.029 E9.75227
G1 X101.52 Y112.265 E9.76106
G1 X101.669 Y112.522 E9.77094
G1 X101.828 Y112.766 E9.78063
G1 F2992.5 X102.006 Y113.003 E9.79051
