;FLAVOR:Marlin
;TIME:5247
;Filament used: 1.72523m
;Layer height: 0.1
;MINX:89.732
;MINY:88.585
;MINZ:0.24
;MAXX:130.794
;MAXY:131.609
;MAXZ:14.84
;TARGET_MACHINE.NAME:Creality K1 Max
;POSTPROCESSED
;  [CreateThumbnail]
;Generated with Cura_SteamEngine 5.10.0
;
;

;Nozzle diameter = 0.4
;Filament type = PLA
;Filament name = PLA
;Filament weight = [5.14559857421875]; M190 S50
; M109 S200
M140 S0
M104 S0
START_PRINT EXTRUDER_TEMP=200 BED_TEMP=50
M82 ;absolute extrusion mode
G92 E0
G92 E0
G1 F2400 E-0.5
;LAYER_COUNT:139
;LAYER:-7
M107
G0 F15000 X91.404 Y91.159 Z0.24
;TYPE:SUPPORT-INTERFACE
G1 F2400 E0
G1 F4500 X90.995 Y91.602 E0.04813
G1 X90.813 Y91.828 E0.07129
G1 X90.645 Y92.07 E0.09481
G1 X90.518 Y92.375 E0.12118
G1 X90.464 Y92.668 E0.14496
G1 X90.46 Y93.006 E0.17195
G1 X90.576 Y93.958 E0.2485
G1 X90.596 Y94.418 E0.28525
G1 X90.612 Y95.635 E0.38241
G1 X90.696 Y96.587 E0.4587
G1 X90.716 Y97.287 E0.5146
G1 X90.794 Y97.733 E0.55074
G1 X91.219 Y98.738 E0.63784
G1 X91.391 Y99.411 E0.69329
G1 X91.476 Y100.14 E0.75188
G1 X91.471 Y100.783 E0.8032
G1 X91.385 Y101.457 E0.85744
G1 X91.216 Y102.092 E0.90989
G1 X90.934 Y102.788 E0.96984
G1 X90.603 Y103.374 E1.02356
G1 X90.235 Y103.874 E1.07312
G1 X90.075 Y104.062 E1.09283
G1 X89.884 Y104.384 E1.12271
G1 X89.793 Y104.635 E1.14402
G1 X89.747 Y104.909 E1.1662
G1 X89.732 Y105.164 E1.18659
G1 X89.732 Y115.037 E1.9747
G1 X89.824 Y115.564 E2.0174
G1 X89.978 Y115.894 E2.04647
G1 X90.222 Y116.195 E2.0774
G1 X90.72 Y116.9 E2.1463
G1 X91.033 Y117.512 E2.20117
G1 X91.263 Y118.159 E2.25598
G1 X91.409 Y118.804 E2.30877
G1 X91.472 Y119.463 E2.36162
G1 X91.449 Y120.2 E2.42048
G1 X91.339 Y120.872 E2.47483
G1 X91.154 Y121.486 E2.52602
G1 X90.875 Y122.132 E2.58219
G1 X90.775 Y122.391 E2.60435
G1 X90.709 Y122.733 E2.63216
G1 X90.683 Y123.676 E2.70746
G1 X90.616 Y124.345 E2.76113
G1 X90.611 Y125.225 E2.83138
G1 X90.548 Y125.994 E2.89297
G1 X90.401 Y126.68 E2.94897
G1 X90.308 Y127 E2.97557
G1 X90.283 Y127.331 E3.00207
G1 X90.351 Y127.708 E3.03265
G1 X90.471 Y128.006 E3.05829
G1 X90.648 Y128.267 E3.08346
G1 X90.833 Y128.458 E3.10469
G1 X91.742 Y129.215 E3.19912
G1 X92.083 Y129.462 E3.23273
G1 X92.457 Y129.656 E3.26636
G1 X93.369 Y130.079 E3.34661
G1 X93.832 Y130.26 E3.38629
G1 X94.187 Y130.361 E3.41575
G1 X94.517 Y130.421 E3.44253
G1 X94.772 Y130.432 E3.4629
G1 X97.012 Y130.428 E3.64171
G1 X97.36 Y130.402 E3.66956
G1 X97.686 Y130.348 E3.69594
G1 X98.073 Y130.242 E3.72797
G1 X98.423 Y130.087 E3.75853
G1 X98.662 Y129.963 E3.78002
G1 X99.388 Y129.514 E3.84816
G1 X100.002 Y129.223 E3.9024
G1 X100.673 Y129.008 E3.95864
G1 X101.307 Y128.884 E4.01021
G1 X102.01 Y128.84 E4.06643
G1 X102.342 Y128.844 E4.09294
G1 X103.005 Y128.887 E4.14597
G1 X103.645 Y129.008 E4.19797
G1 X104.372 Y129.246 E4.25903
G1 X104.951 Y129.521 E4.31019
G1 X105.329 Y129.607 E4.34114
G1 X105.652 Y129.632 E4.367
G1 X114.525 Y129.632 E5.07528
G1 X115.055 Y129.539 E5.11823
G1 X115.703 Y129.241 E5.17517
G1 X116.302 Y129.039 E5.22563
G1 X116.978 Y128.901 E5.2807
G1 X117.651 Y128.848 E5.33459
G1 X118.003 Y128.844 E5.36269
G1 X118.829 Y128.9 E5.42878
G1 X119.449 Y129.027 E5.4793
G1 X120.103 Y129.248 E5.5344
G1 X120.71 Y129.546 E5.58838
G1 X121.297 Y129.924 E5.64411
G1 X121.727 Y130.158 E5.68319
G1 X122.314 Y130.347 E5.73241
G1 X122.773 Y130.432 E5.76968
G1 X125.137 Y130.432 E5.95838
G1 X125.492 Y130.413 E5.98676
G1 X126.043 Y130.31 E6.0315
G1 X126.495 Y130.138 E6.07011
G1 X127.728 Y129.59 E6.17782
G1 X127.987 Y129.444 E6.20155
G1 X128.324 Y129.211 E6.23425
G1 X128.638 Y128.919 E6.26848
G1 X129.055 Y128.479 E6.31687
G1 X129.229 Y128.265 E6.33889
G1 X129.494 Y127.871 E6.37679
G1 X129.592 Y127.437 E6.41231
G1 X129.595 Y127.129 E6.43689
G1 X129.504 Y126.313 E6.50243
G1 X129.464 Y125.651 E6.55537
G1 X129.44 Y124.263 E6.66619
G1 X129.361 Y123.447 E6.73163
G1 X129.344 Y122.783 E6.78465
G1 X129.27 Y122.346 E6.82003
G1 X129.132 Y122.038 E6.84697
G1 X128.947 Y121.784 E6.87205
G1 X128.621 Y121.484 E6.90742
G1 X127.677 Y121.015 E6.99156
G1 X127.075 Y120.601 E7.04988
G1 X126.613 Y120.244 E7.09649
G1 X126.366 Y120.119 E7.11858
G1 X125.977 Y119.973 E7.15175
G1 X124.713 Y119.691 E7.25513
G1 X124.107 Y119.458 E7.30695
G1 X123.507 Y119.142 E7.36109
G1 X122.933 Y118.736 E7.41721
G1 X122.403 Y118.242 E7.47504
G1 X121.982 Y117.74 E7.52734
G1 X121.614 Y117.167 E7.5817
G1 X121.33 Y116.575 E7.63411
G1 X121.096 Y115.876 E7.69295
G1 X120.971 Y115.21 E7.74704
G1 X120.932 Y114.545 E7.80022
G1 X120.928 Y105.508 E8.52159
G1 X121 Y104.655 E8.58992
G1 X121.156 Y103.973 E8.64577
G1 X121.396 Y103.328 E8.70071
G1 X121.735 Y102.695 E8.75802
G1 X122.106 Y102.164 E8.80973
G1 X122.57 Y101.651 E8.86495
G1 X123.08 Y101.216 E8.91846
G1 X123.644 Y100.845 E8.97234
G1 X124.239 Y100.549 E9.02539
G1 X124.915 Y100.317 E9.08244
G1 X125.836 Y100.124 E9.15756
G1 X126.125 Y100.03 E9.18182
G1 X126.491 Y99.862 E9.21396
G1 X126.79 Y99.681 E9.24186
G1 X127.165 Y99.395 E9.27951
G1 X127.792 Y98.98 E9.33953
G1 X128.514 Y98.627 E9.40368
G1 X128.781 Y98.454 E9.42908
G1 X129.011 Y98.208 E9.45596
G1 X129.16 Y97.98 E9.4777
G1 X129.288 Y97.672 E9.50433
G1 X129.338 Y97.376 E9.52829
G1 X129.356 Y97.124 E9.54846
G1 X129.373 Y96.441 E9.60299
G1 X129.444 Y95.708 E9.66178
G1 X129.444 Y94.991 E9.71901
G1 X129.457 Y94.598 E9.7504
G1 X129.491 Y94.199 E9.78237
G1 X129.665 Y93.298 E9.85562
G1 X129.73 Y92.832 E9.89317
G1 X129.712 Y92.538 E9.91669
G1 X129.584 Y92.163 E9.94832
G1 X129.406 Y91.844 E9.97748
G1 X129.091 Y91.534 E10.01276
G1 X128.323 Y90.863 E10.09416
G1 X128.005 Y90.621 E10.12606
G1 X127.632 Y90.418 E10.15996
G1 X126.68 Y89.977 E10.24371
G1 X126.329 Y89.843 E10.2737
G1 X125.926 Y89.718 E10.30738
G1 X125.437 Y89.633 E10.347
G1 X123.063 Y89.636 E10.5365
G1 X122.742 Y89.659 E10.56219
G1 X122.46 Y89.697 E10.58491
G1 X121.979 Y89.827 E10.62468
G1 X121.634 Y89.981 E10.65484
G1 X121.409 Y90.098 E10.67508
G1 X120.682 Y90.539 E10.74296
G1 X120.068 Y90.833 E10.7973
G1 X119.36 Y91.065 E10.85677
G1 X118.727 Y91.182 E10.90816
G1 X118.048 Y91.224 E10.96246
G1 X117.67 Y91.223 E10.99263
G1 X117.081 Y91.186 E11.03974
G1 X116.441 Y91.063 E11.09177
G1 X115.802 Y90.861 E11.14526
G1 X115.1 Y90.542 E11.20681
G1 X114.728 Y90.457 E11.23727
G1 X114.404 Y90.432 E11.26321
G1 X105.532 Y90.432 E11.97141
G1 X105.036 Y90.522 E12.01165
G1 X104.406 Y90.803 E12.06672
G1 X103.757 Y91.024 E12.12144
G1 X103.079 Y91.165 E12.17672
G1 X102.445 Y91.208 E12.22745
G1 X102.057 Y91.216 E12.25843
G1 X101.261 Y91.169 E12.32208
G1 X100.595 Y91.035 E12.37631
G1 X99.958 Y90.822 E12.42992
G1 X99.296 Y90.499 E12.48872
G1 X98.716 Y90.119 E12.54407
G1 X98.401 Y89.944 E12.57283
G1 X98.137 Y89.841 E12.59546
G1 X97.756 Y89.717 E12.62744
G1 X97.364 Y89.643 E12.65928
G1 X94.924 Y89.633 E12.85406
G1 X94.538 Y89.662 E12.88495
G1 X94.286 Y89.701 E12.90531
G1 X93.945 Y89.784 E12.93332
G1 X93.548 Y89.931 E12.96712
G1 X92.174 Y90.549 E13.08738
G1 X91.739 Y90.849 E13.12956
G1 X91.404 Y91.159 E13.16599
G0 F15000 X92.395 Y90.887
G1 F4500 X90.983 Y92.299 E13.32539
G1 F2400 E12.82539
G0 F15000 X90.998 Y94.547
G1 F2400 E13.32539
G1 F4500 X95.51 Y90.035 E13.83475
G1 F2400 E13.33475
G0 F15000 X97.692 Y90.116
G1 F2400 E13.83475
G1 F4500 X91.099 Y96.708 E14.57896
G1 F2400 E14.07896
G0 F15000 X91.556 Y98.514
G1 F2400 E14.57896
G1 F4500 X99.184 Y90.886 E15.44008
G1 F2400 E14.94008
G0 F15000 X100.843 Y91.49
G1 F2400 E15.44008
G1 F4500 X91.874 Y100.459 E16.45258
G1 F2400 E15.95258
G0 F15000 X90.759 Y103.837
G1 F2400 E16.45258
G1 F4500 X103.025 Y91.57 E17.83733
G1 F2400 E17.33733
G0 F15000 X106.026 Y90.832
G1 F2400 E17.83733
G1 F4500 X90.132 Y106.726 E19.63158
G1 F2400 E19.13158
G0 F15000 X90.132 Y108.989
G1 F2400 E19.63158
G1 F4500 X108.289 Y90.832 E21.6813
G1 F2400 E21.1813
G0 F15000 X110.552 Y90.832
G1 F2400 E21.6813
G1 F4500 X90.132 Y111.252 E23.98648
G1 F2400 E23.48648
G0 F15000 X90.132 Y113.515
G1 F2400 E23.98648
G1 F4500 X112.815 Y90.832 E26.54714
G1 F2400 E26.04714
G0 F15000 X114.981 Y90.928
G1 F2400 E26.54714
G1 F4500 X90.292 Y115.618 E29.3343
G1 F2400 E28.8343
G0 F15000 X91.205 Y116.967
G1 F2400 E29.3343
G1 F4500 X116.66 Y91.512 E32.20788
G1 F2400 E31.70788
G0 F15000 X118.873 Y91.562
G1 F2400 E32.20788
G1 F4500 X91.785 Y118.65 E35.26581
G1 F2400 E34.76581
G0 F15000 X91.725 Y120.973
G1 F2400 E35.26581
G1 F4500 X122.63 Y90.068 E38.75463
G1 F2400 E38.25463
G0 F15000 X124.927 Y90.033
G1 F2400 E38.75463
G1 F4500 X91.063 Y123.897 E42.57749
G1 F2400 E42.07749
G0 F15000 X90.884 Y126.339
G1 F2400 E42.57749
G1 F4500 X126.766 Y90.457 E46.62816
G1 F2400 E46.12816
G0 F15000 X128.2 Y91.286
G1 F2400 E46.62816
G1 F4500 X91.222 Y128.264 E50.80256
G1 F2400 E50.30256
G0 F15000 X92.514 Y129.235
G1 F2400 E50.80256
G1 F4500 X129.269 Y92.48 E54.95178
G1 F2400 E54.45178
G0 F15000 X129.043 Y94.968
G1 F2400 E54.95178
G1 F4500 X123.579 Y100.432 E55.5686
G1 F2400 E55.0686
G0 F15000 X121.238 Y102.773
G1 F2400 E55.5686
G1 F4500 X94.093 Y129.919 E58.63302
G1 F2400 E58.13302
G0 F15000 X96.245 Y130.029
G1 F2400 E58.63302
G1 F4500 X120.528 Y105.746 E61.3743
G1 F2400 E60.8743
G0 F15000 X120.528 Y108.008
G1 F2400 E61.3743
G1 F4500 X99.536 Y129.001 E63.74411
G1 F2400 E63.24411
G0 F15000 X102.354 Y128.445
G1 F2400 E63.74411
G1 F4500 X120.53 Y110.27 E65.79592
G1 F2400 E65.29592
G0 F15000 X120.531 Y112.532
G1 F2400 E65.79592
G1 F4500 X104.271 Y128.791 E67.63143
G1 F2400 E67.13143
G0 F15000 X106.093 Y129.232
G1 F2400 E67.63143
G1 F4500 X120.544 Y114.781 E69.26279
G1 F2400 E68.76279
G0 F15000 X120.932 Y116.656
G1 F2400 E69.26279
G1 F4500 X108.356 Y129.232 E70.68247
G1 F2400 E70.18247
G0 F15000 X110.618 Y129.232
G1 F2400 E70.68247
G1 F4500 X121.758 Y118.092 E71.94005
G1 F2400 E71.44005
G0 F15000 X122.906 Y119.207
G1 F2400 E71.94005
G1 F4500 X112.881 Y129.232 E73.07176
G1 F2400 E72.57176
G0 F15000 X115.463 Y128.913
G1 F2400 E73.07176
G1 F4500 X124.384 Y119.992 E74.07884
G1 F2400 E73.57884
G0 F15000 X126.168 Y120.471
G1 F2400 E74.07884
G1 F4500 X118.182 Y128.457 E74.98037
G1 F2400 E74.48037
G0 F15000 X120.081 Y128.821
G1 F2400 E74.98037
G1 F4500 X127.519 Y121.383 E75.82004
G1 F2400 E75.32004
G0 F15000 X128.816 Y122.348
G1 F2400 E75.82004
G1 F4500 X121.555 Y129.609 E76.63972
G1 F2400 E76.13972
G0 F15000 X123.395 Y130.032
G1 F2400 E76.63972
G1 F4500 X129.042 Y124.385 E77.2772
G1 F2400 E76.7772
G0 F15000 X129.13 Y126.56
G1 F2400 E77.2772
G1 F4500 X125.728 Y129.962 E77.66125
G1 F2400 E77.16125
G0 F15000 X126.157 Y131.373
G0 X126.932 Y131.114
G0 X128.566 Y130.341
G0 X129.396 Y129.672
G0 X130.283 Y128.616
G0 X130.564 Y127.99
G0 X130.664 Y127.196
G0 X130.448 Y123.47
G0 X128.296 Y99.921
G0 X127.682 Y98.593
G1 F2400 E77.66125
G1 F4500 X128.939 Y97.335 E77.80321
M104 S200
G1 F2400 E77.30321
G0 F300 X128.939 Y97.335 Z0.39
G0 F15000 X130.425 Y96.834
G0 X130.794 Y92.715
G0 X130.639 Y91.925
G0 X130.276 Y91.244
G0 X128.989 Y90.031
G0 X127.656 Y90.887
;TIME_ELAPSED:28.512725
;LAYER:-6
;TYPE:SUPPORT
G1 F2400 E77.80321
G1 F4500 X129.298 Y92.528 E77.91902
G1 X129.33 Y92.829 E77.93413
G1 X129.264 Y93.264 E77.95608
G1 X129.135 Y93.779 E77.98256
G1 X125.391 Y90.036 E78.24669
G1 X123.978 Y90.037 E78.31718
G1 X129.049 Y95.108 E78.67497
G1 X129.045 Y95.701 E78.70456
G1 X128.976 Y96.449 E78.74203
G1 X122.602 Y90.075 E79.19175
G1 X122.106 Y90.21 E79.2174
G1 X121.562 Y90.45 E79.24706
G1 X128.838 Y97.725 E79.76039
G1 X128.787 Y97.86 E79.76759
G1 X128.532 Y98.135 E79.7863
G1 X128.331 Y98.276 E79.79855
G1 X128.081 Y98.383 E79.81211
G1 X120.685 Y90.986 E80.33398
G1 X120.217 Y91.208 E80.35982
G1 X119.673 Y91.389 E80.38842
G1 X127.187 Y98.902 E80.91854
G1 X126.925 Y99.078 E80.93429
G1 X126.637 Y99.302 E80.95249
G1 X126.351 Y99.481 E80.96932
G1 X118.521 Y91.651 E81.52177
G1 X117.247 Y91.653 E81.58533
G1 X117.247 Y91.614 E81.58728
G1 X117.033 Y91.577 E81.59811
G1 X125.288 Y99.832 E82.18055
G1 X124.825 Y99.93 E82.20416
G1 X124.189 Y100.148 E82.2377
G1 X114.976 Y90.935 E82.88773
G1 X114.759 Y90.858 E82.89921
G1 X114.391 Y90.835 E82.91761
G1 X113.462 Y90.835 E82.96396
G1 X123.254 Y100.626 E83.6548
G1 X122.834 Y100.902 E83.67987
G1 X122.448 Y101.234 E83.70528
G1 X112.048 Y90.835 E84.43902
G1 X110.634 Y90.835 E84.50956
G1 X121.762 Y101.963 E85.2947
G1 X121.355 Y102.55 E85.33034
G1 X121.212 Y102.827 E85.34589
G1 X109.219 Y90.834 E86.19206
G1 X107.805 Y90.834 E86.26261
G1 X120.785 Y103.814 E87.17842
G1 X120.605 Y104.606 E87.21894
G1 X120.571 Y105.015 E87.23941
G1 X106.391 Y90.834 E88.23992
G1 X105.547 Y90.834 E88.28203
G1 X105.064 Y90.922 E88.30652
G1 X120.531 Y106.389 E89.3978
G1 X120.531 Y107.803 E89.46835
G1 X104.087 Y91.359 E90.62856
G1 X103.152 Y91.555 E90.67622
G1 X102.89 Y91.577 E90.68934
G1 X120.531 Y109.218 E91.93401
G1 X120.532 Y110.633 E92.0046
G1 X101.483 Y91.584 E93.34861
G1 X101.234 Y91.569 E93.36106
G1 X100.444 Y91.41 E93.40126
G1 X99.607 Y91.122 E93.44542
G1 X120.532 Y112.047 E94.92179
G1 X120.532 Y113.461 E94.99234
G1 X97.107 Y90.036 E96.6451
G1 X95.692 Y90.035 E96.71569
G1 X120.554 Y114.897 E98.46984
G1 X120.582 Y115.295 E98.48975
G1 X120.709 Y115.969 E98.52396
G1 X120.929 Y116.65 E98.55967
G1 X121.272 Y117.375 E98.59968
G1 X121.637 Y117.952 E98.63375
G1 X122.11 Y118.516 E98.67047
G1 X122.678 Y119.044 E98.70916
G1 X123.282 Y119.473 E98.74612
G1 X123.877 Y119.794 E98.77985
G1 X124.138 Y119.896 E98.79383
G1 X129.051 Y124.808 E99.14043
G1 X129.041 Y124.284 E99.16658
G1 X128.945 Y123.288 E99.2165
G1 X126.103 Y120.446 E99.41702
G1 X126.279 Y120.51 E99.42636
G1 X126.602 Y120.733 E99.44595
G1 X126.829 Y120.917 E99.46052
G1 X127.467 Y121.357 E99.49919
G1 X127.947 Y121.592 E99.52585
G1 X128.427 Y121.847 E99.55297
G1 X128.73 Y122.123 E99.57342
G1 X128.882 Y122.451 E99.59145
G1 X128.949 Y122.823 E99.61031
G1 F2400 E99.11031
G0 F15000 X130.318 Y122.16
G0 X130.015 Y121.441
G0 X129.504 Y120.838
G0 X122.303 Y116.14
G0 X120.963 Y116.72
G1 F2400 E99.61031
G1 F4500 X94.341 Y90.099 E101.4886
G1 X94.023 Y90.18 E101.50497
G1 X93.697 Y90.303 E101.52236
G1 X93.306 Y90.478 E101.54373
G1 X129.106 Y126.277 E104.06958
G1 X129.146 Y126.729 E104.09221
G1 X129.179 Y126.961 E104.10391
G1 X129.206 Y127.317 E104.12172
G1 X129.123 Y127.708 E104.14166
G1 X92.342 Y90.928 E106.73672
G1 X91.991 Y91.162 E106.75777
G1 X91.562 Y91.562 E106.78703
G1 X128.505 Y128.505 E109.39356
G1 X128.067 Y128.908 E109.42325
G1 X127.723 Y129.137 E109.44387
G1 X90.932 Y92.346 E112.03967
G1 X90.853 Y92.754 E112.06041
G1 X90.879 Y93.131 E112.07926
G1 X90.958 Y93.786 E112.11218
G1 X126.758 Y129.587 E114.63809
G1 X126.215 Y129.83 E114.66777
G1 X125.733 Y129.976 E114.6929
G1 X91.008 Y95.251 E117.14294
G1 X91.013 Y95.638 E117.16225
G1 X91.115 Y96.772 E117.21905
G1 X124.376 Y130.033 E119.56579
G1 X122.962 Y130.033 E119.63634
G1 X91.621 Y98.692 E121.84761
G1 X91.782 Y99.323 E121.8801
G1 X91.877 Y100.076 E121.91797
G1 X91.876 Y100.361 E121.93219
G1 X120.473 Y128.958 E123.94986
G1 X119.557 Y128.643 E123.99819
G1 X118.879 Y128.503 E124.03273
G1 X118.584 Y128.483 E124.04748
G1 X91.749 Y101.649 E125.9408
G1 X91.602 Y102.21 E125.96973
G1 X91.402 Y102.716 E125.99687
G1 X117.171 Y128.485 E127.81502
G1 X116.937 Y128.503 E127.82673
G1 X116.18 Y128.659 E127.86529
G1 X115.994 Y128.722 E127.87508
G1 X90.905 Y103.633 E129.64525
G1 X90.31 Y104.452 E129.69575
G1 X114.993 Y129.135 E131.43727
G1 X114.509 Y129.234 E131.46192
G1 X113.677 Y129.233 E131.50343
G1 X90.133 Y105.689 E133.16458
G1 X90.133 Y107.103 E133.23513
G1 X112.262 Y129.233 E134.79648
G1 X110.848 Y129.233 E134.86703
G1 X90.133 Y108.518 E136.32858
G1 X90.133 Y109.932 E136.39913
G1 X109.434 Y129.233 E137.76092
G1 X108.02 Y129.233 E137.83146
G1 X90.132 Y111.345 E139.09356
