;FLAVOR:Marlin
;TIME:5705
;Filament used: 1.81767m
;Layer height: 0.1
;MINX:89.732
;MINY:87.37
;MINZ:0.24
;MAXX:129.867
;MAXY:132.887
;MAXZ:14.34
;TARGET_MACHINE.NAME:Creality K1 Max
;POSTPROCESSED
;  [CreateThumbnail]
;Generated with Cura_SteamEngine 5.9.0
;
;

M82 ;absolute extrusion mode
;Nozzle diameter = 0.4
;Filament type = PLA
;Filament name = PLA
;Filament weight = [5.421296953125]; M190 S50
; M109 S200
M140 S0
M104 S0
START_PRINT EXTRUDER_TEMP=200 BED_TEMP=50
G92 E0
G92 E0
G1 F2400 E-0.5
;LAYER_COUNT:134
;LAYER:-7
M107
G0 F15000 X92.502 Y90.04 Z0.24
;TYPE:SUPPORT-INTERFACE
G1 F2400 E0
G1 F4500 X92.331 Y90.303 E0.02504
G1 X92.155 Y90.762 E0.06428
G1 X92.031 Y91.157 E0.09733
G1 X91.748 Y91.769 E0.15115
G1 X91.672 Y91.9 E0.16324
G1 X91.444 Y92.398 E0.20696
G1 X91.288 Y92.848 E0.24498
G1 X91.26 Y93.269 E0.27866
G1 X91.26 Y96.203 E0.51287
G1 X91.336 Y96.672 E0.55079
G1 X91.438 Y96.923 E0.57242
G1 X91.788 Y97.625 E0.63503
G1 X92.005 Y98.24 E0.68709
G1 X92.154 Y98.952 E0.74516
G1 X92.208 Y99.615 E0.79826
G1 X92.175 Y100.295 E0.8526
G1 X92.066 Y100.943 E0.90505
G1 X91.867 Y101.598 E0.9597
G1 X91.571 Y102.248 E1.01671
G1 X91.239 Y102.796 E1.06786
G1 X90.825 Y103.318 E1.12104
G1 X90.085 Y104.046 E1.2039
G1 X89.884 Y104.385 E1.23536
G1 X89.793 Y104.635 E1.2566
G1 X89.747 Y104.909 E1.27878
G1 X89.732 Y105.164 E1.29917
G1 X89.732 Y115.037 E2.08727
G1 X89.824 Y115.563 E2.1299
G1 X89.947 Y115.824 E2.15293
G1 X90.157 Y116.117 E2.1817
G1 X90.584 Y116.509 E2.22797
G1 X91.053 Y117.036 E2.28429
G1 X91.42 Y117.566 E2.33575
G1 X91.734 Y118.16 E2.38938
G1 X91.978 Y118.817 E2.44533
G1 X92.132 Y119.494 E2.50075
G1 X92.2 Y120.177 E2.55554
G1 X92.184 Y120.841 E2.60856
G1 X92.074 Y121.537 E2.6648
G1 X91.916 Y122.1 E2.71148
G1 X91.632 Y122.788 E2.77089
G1 X91.466 Y123.147 E2.80247
G1 X91.371 Y123.399 E2.82396
G1 X91.288 Y123.66 E2.84583
G1 X91.26 Y124.066 E2.87831
G1 X91.26 Y126.959 E3.10924
G1 X91.332 Y127.455 E3.14925
G1 X91.523 Y127.859 E3.18492
G1 X91.805 Y128.355 E3.23047
G1 X92.002 Y128.749 E3.26563
G1 X92.254 Y129.406 E3.3218
G1 X92.428 Y129.737 E3.35165
G1 X92.632 Y129.986 E3.37735
G1 X92.882 Y130.188 E3.403
G1 X93.169 Y130.341 E3.42896
G1 X94.057 Y130.583 E3.50243
G1 X94.408 Y130.632 E3.53072
G1 X98.329 Y130.632 E3.84371
G1 X98.832 Y130.544 E3.88448
G1 X99.427 Y130.314 E3.9354
G1 X100.117 Y130.141 E3.99218
G1 X100.763 Y130.057 E4.04418
G1 X101.487 Y130.061 E4.10197
G1 X102.183 Y130.157 E4.15806
G1 X102.825 Y130.329 E4.21111
G1 X103.486 Y130.603 E4.26823
G1 X104.07 Y130.938 E4.32197
G1 X104.55 Y131.292 E4.36958
G1 X104.817 Y131.459 E4.39472
G1 X105.236 Y131.6 E4.43001
G1 X105.655 Y131.632 E4.46355
G1 X108.575 Y131.632 E4.69664
G1 X109.093 Y131.538 E4.73866
G1 X109.507 Y131.492 E4.77192
G1 X110.177 Y131.472 E4.82542
G1 X110.869 Y131.541 E4.88093
G1 X111.336 Y131.617 E4.9187
G1 X111.603 Y131.632 E4.94005
G1 X114.523 Y131.632 E5.17314
G1 X115.032 Y131.539 E5.21444
G1 X115.348 Y131.396 E5.24213
G1 X115.604 Y131.208 E5.26748
G1 X116.3 Y130.744 E5.33425
G1 X116.909 Y130.449 E5.38827
G1 X117.501 Y130.245 E5.43825
G1 X118.192 Y130.102 E5.49458
G1 X118.895 Y130.048 E5.55086
G1 X119.515 Y130.076 E5.6004
G1 X120.221 Y130.201 E5.65763
G1 X120.842 Y130.39 E5.70945
G1 X121.343 Y130.581 E5.75225
G1 X121.734 Y130.632 E5.78373
G1 X125.641 Y130.632 E6.0956
G1 X126.146 Y130.545 E6.1365
G1 X126.788 Y130.373 E6.18956
G1 X127.101 Y130.238 E6.21677
G1 X127.447 Y129.986 E6.25094
G1 X127.731 Y129.587 E6.29003
G1 X127.955 Y128.99 E6.34093
G1 X128.212 Y128.457 E6.38816
G1 X128.604 Y127.73 E6.4541
G1 X128.739 Y127.389 E6.48337
G1 X128.782 Y127.127 E6.50456
G1 X128.8 Y126.854 E6.5264
G1 X128.8 Y124.29 E6.73107
G1 X128.774 Y123.906 E6.7618
G1 X128.683 Y123.464 E6.79782
G1 X128.561 Y123.033 E6.83357
G1 X128.305 Y122.519 E6.87941
G1 X127.975 Y122.182 E6.91706
G1 X127.563 Y121.814 E6.96116
G1 X127.129 Y121.543 E7.002
G1 X126.585 Y121.333 E7.04855
G1 X126.164 Y121.252 E7.08277
G1 X125.368 Y121.161 E7.14673
G1 X124.752 Y121.009 E7.19737
G1 X124.065 Y120.746 E7.25609
G1 X123.458 Y120.421 E7.31105
G1 X122.916 Y120.03 E7.3644
G1 X122.394 Y119.544 E7.42133
G1 X121.973 Y119.04 E7.47375
G1 X121.598 Y118.444 E7.52996
G1 X121.311 Y117.841 E7.58327
G1 X121.098 Y117.192 E7.6378
G1 X120.973 Y116.536 E7.6911
G1 X120.932 Y115.857 E7.7454
G1 X120.928 Y104.21 E8.67512
G1 X120.977 Y103.491 E8.73264
G1 X121.106 Y102.847 E8.78507
G1 X121.335 Y102.162 E8.84273
G1 X121.631 Y101.558 E8.89642
G1 X121.987 Y101.007 E8.94878
G1 X122.428 Y100.486 E9.00327
G1 X122.958 Y99.999 E9.06073
G1 X123.506 Y99.614 E9.11419
G1 X124.128 Y99.29 E9.17017
G1 X124.737 Y99.063 E9.22205
G1 X125.468 Y98.889 E9.28203
G1 X126.02 Y98.835 E9.3263
G1 X126.52 Y98.744 E9.36687
G1 X127.077 Y98.548 E9.41401
G1 X127.494 Y98.299 E9.45278
G1 X127.695 Y98.136 E9.47343
G1 X127.946 Y97.906 E9.50061
G1 X128.265 Y97.566 E9.53782
G1 X128.492 Y97.155 E9.5753
G1 X128.66 Y96.771 E9.60876
G1 X128.771 Y96.393 E9.64021
G1 X128.8 Y95.974 E9.67374
G1 X128.8 Y93.492 E9.87186
G1 X128.782 Y93.172 E9.89744
G1 X128.693 Y92.695 E9.93618
G1 X128.558 Y92.212 E9.97621
G1 X128.413 Y91.884 E10.00484
G1 X128.056 Y91.242 E10.06347
G1 X127.784 Y90.613 E10.11818
G1 X127.668 Y90.38 E10.13895
G1 X127.507 Y90.159 E10.16078
G1 X127.257 Y89.925 E10.18811
G1 X126.889 Y89.73 E10.22136
G1 X125.953 Y89.464 E10.29903
G1 X125.525 Y89.432 E10.33329
G1 X121.727 Y89.432 E10.63647
G1 X121.228 Y89.52 E10.67691
G1 X120.607 Y89.759 E10.73003
G1 X119.925 Y89.93 E10.78615
G1 X119.294 Y90.007 E10.8369
G1 X118.552 Y90.005 E10.89613
G1 X117.913 Y89.916 E10.94763
G1 X117.259 Y89.748 E11.00153
G1 X116.57 Y89.461 E11.06111
G1 X116.056 Y89.174 E11.1081
G1 X115.507 Y88.772 E11.16241
G1 X115.161 Y88.556 E11.19497
G1 X114.727 Y88.457 E11.23051
G1 X114.404 Y88.432 E11.25637
G1 X111.484 Y88.432 E11.48945
G1 X110.962 Y88.526 E11.53179
G1 X110.571 Y88.571 E11.56321
G1 X109.864 Y88.591 E11.61967
G1 X109.201 Y88.524 E11.67286
G1 X108.789 Y88.458 E11.70617
G1 X108.452 Y88.432 E11.73315
G1 X105.533 Y88.432 E11.96616
G1 X105 Y88.529 E12.0094
G1 X104.756 Y88.635 E12.03064
G1 X103.853 Y89.265 E12.11853
G1 X103.171 Y89.605 E12.17936
G1 X102.55 Y89.822 E12.23187
G1 X101.896 Y89.957 E12.28517
G1 X101.198 Y90.016 E12.34109
G1 X100.511 Y89.981 E12.396
G1 X99.868 Y89.871 E12.44807
G1 X99.184 Y89.662 E12.50517
G1 X98.678 Y89.469 E12.54839
G1 X98.2 Y89.432 E12.58666
G1 X93.753 Y89.432 E12.94164
G1 X93.229 Y89.528 E12.98417
G1 X92.94 Y89.663 E13.00963
G1 X92.71 Y89.829 E13.03227
G1 X92.502 Y90.04 E13.05592
G0 F15000 X92.623 Y90.659
G1 F4500 X93.374 Y89.908 E13.1407
G1 F2400 E12.6407
G0 F15000 X95.713 Y89.832
G1 F2400 E13.1407
G1 F4500 X91.66 Y93.885 E13.59824
G1 F2400 E13.09824
G0 F15000 X91.66 Y96.147
G1 F2400 E13.59824
G1 F4500 X97.975 Y89.832 E14.31113
G1 F2400 E13.81113
G0 F15000 X99.807 Y90.263
G1 F2400 E14.31113
G1 F4500 X92.272 Y97.798 E15.16175
G1 F2400 E14.66175
G0 F15000 X92.603 Y99.73
G1 F2400 E15.16175
G1 F4500 X101.987 Y90.346 E16.22109
G1 F2400 E15.72109
G0 F15000 X105.764 Y88.832
G1 F2400 E16.22109
G1 F4500 X91.564 Y103.032 E17.82411
G1 F2400 E17.32411
G0 F15000 X90.132 Y106.726
G1 F2400 E17.82411
G1 F4500 X108.027 Y88.832 E19.8442
G1 F2400 E19.3442
G0 F15000 X110.138 Y88.983
G1 F2400 E19.8442
G1 F4500 X90.132 Y108.989 E22.10265
G1 F2400 E21.60265
G0 F15000 X90.132 Y111.252
G1 F2400 E22.10265
G1 F4500 X112.552 Y88.832 E24.63361
G1 F2400 E24.13361
G0 F15000 X114.77 Y88.877
G1 F2400 E24.63361
G1 F4500 X90.132 Y113.515 E27.41496
G1 F2400 E26.91496
G0 F15000 X90.292 Y115.618
G1 F2400 E27.41496
G1 F4500 X116.2 Y89.709 E30.33974
G1 F2400 E29.83974
G0 F15000 X117.861 Y90.312
G1 F2400 E30.33974
G1 F4500 X91.374 Y116.798 E33.32976
G1 F2400 E32.82976
G0 F15000 X92.191 Y118.244
G1 F2400 E33.32976
G1 F4500 X120.154 Y90.281 E36.48647
G1 F2400 E35.98647
G0 F15000 X122.865 Y89.832
G1 F2400 E36.48647
G1 F4500 X92.594 Y120.104 E39.90378
G1 F2400 E39.40378
G0 F15000 X91.987 Y122.974
G1 F2400 E39.90378
G1 F4500 X125.128 Y89.832 E43.64508
G1 F2400 E43.14508
G0 F15000 X126.989 Y90.235
G1 F2400 E43.64508
G1 F4500 X91.66 Y125.563 E47.63326
G1 F2400 E47.13326
G0 F15000 X91.857 Y127.629
G1 F2400 E47.63326
G1 F4500 X127.829 Y91.657 E51.69409
G1 F2400 E51.19409
G0 F15000 X128.391 Y93.357
G1 F2400 E51.69409
G1 F4500 X92.589 Y129.16 E55.73579
G1 F2400 E55.23579
G0 F15000 X93.889 Y130.122
G1 F2400 E55.73579
G1 F4500 X120.584 Y103.428 E58.74929
G1 F2400 E58.24929
G0 F15000 X120.528 Y105.746
G1 F2400 E58.74929
G1 F4500 X96.042 Y130.232 E61.51348
G1 F2400 E61.01348
G0 F15000 X98.307 Y130.23
G1 F2400 E61.51348
G1 F4500 X120.528 Y108.008 E64.02204
G1 F2400 E63.52204
G0 F15000 X120.53 Y110.27
G1 F2400 E64.02204
G1 F4500 X101.141 Y129.659 E66.21084
G1 F2400 E65.71084
G0 F15000 X103.066 Y129.997
G1 F2400 E66.21084
G1 F4500 X120.531 Y112.532 E68.18244
G1 F2400 E67.68244
G0 F15000 X120.531 Y114.794
G1 F2400 E68.18244
G1 F4500 X104.537 Y130.789 E69.98804
G1 F2400 E69.48804
G0 F15000 X106.356 Y131.232
G1 F2400 E69.98804
G1 F4500 X120.644 Y116.943 E71.60104
G1 F2400 E71.10104
G0 F15000 X121.236 Y118.615
G1 F2400 E71.60104
G1 F4500 X108.636 Y131.215 E73.02344
G1 F2400 E72.52344
G0 F15000 X110.963 Y131.151
G1 F2400 E73.02344
G1 F4500 X122.203 Y119.91 E74.29237
G1 F2400 E73.79237
G0 F15000 X123.488 Y120.888
G1 F2400 E74.29237
G1 F4500 X113.143 Y131.233 E75.4602
G1 F2400 E74.9602
G0 F15000 X116.376 Y130.263
G1 F2400 E75.4602
G1 F4500 X125.127 Y121.512 E76.44809
G1 F2400 E75.94809
G0 F15000 X126.979 Y121.923
G1 F2400 E76.44809
G1 F4500 X119.237 Y129.665 E77.32207
G1 F2400 E76.82207
G0 F15000 X121.102 Y130.062
G1 F2400 E77.32207
G1 F4500 X128.119 Y123.045 E78.11421
G1 F2400 E77.61421
G0 F15000 X128.4 Y125.027
G1 F2400 E78.11421
G1 F4500 X123.195 Y130.232 E78.7018
G1 F2400 E78.2018
G0 F15000 X125.458 Y130.232
G1 F2400 E78.7018
G1 F4500 X128.314 Y127.376 E79.02421
G1 F2400 E78.52421
G0 F15000 X129.852 Y127.119
G0 X129.834 Y123.821
G0 X125.683 Y99.939
G0 X125.531 Y98.481
G1 F2400 E79.02421
G1 F4500 X128.4 Y95.611 E79.34814
M104 S200
G1 F2400 E78.84814
G0 F300 X128.4 Y95.611 Z0.39
G0 F15000 X129.867 Y95.612
G0 X129.841 Y93.061
G0 X129.567 Y91.912
G0 X128.773 Y90.21
G0 X127.097 Y90.328
;TIME_ELAPSED:28.390536
;LAYER:-6
;TYPE:SUPPORT
G1 F2400 E79.34814
G1 F4500 X127.216 Y90.446 E79.3565
G1 X127.391 Y90.674 E79.37084
G1 X127.566 Y91.547 E79.41526
G1 X127.734 Y91.49 E79.42411
G1 X128.058 Y92.067 E79.45713
G1 X128.176 Y92.331 E79.47155
G1 X128.303 Y92.771 E79.4944
G1 X128.349 Y92.994 E79.50576
G1 X125.19 Y89.835 E79.72865
G1 X123.776 Y89.835 E79.79919
G1 X128.403 Y94.462 E80.12565
G1 X128.402 Y95.875 E80.19614
G1 X122.361 Y89.834 E80.62237
G1 X121.748 Y89.834 E80.65295
G1 X121.345 Y89.907 E80.67339
G1 X121.11 Y89.997 E80.68594
G1 X128.12 Y97.007 E81.18053
G1 X127.956 Y97.316 E81.19799
G1 X127.678 Y97.613 E81.21828
G1 X127.486 Y97.788 E81.23124
G1 X120.019 Y90.321 E81.75808
G1 X119.275 Y90.41 E81.79546
G1 X118.694 Y90.409 E81.82445
G1 X126.588 Y98.303 E82.38141
G1 X126.471 Y98.351 E82.38772
G1 X126.027 Y98.431 E82.41023
G1 X125.371 Y98.501 E82.44314
G1 X116.905 Y90.034 E83.0405
G1 X116.423 Y89.839 E83.06644
G1 X115.828 Y89.504 E83.10051
G1 X115.275 Y89.099 E83.13471
G1 X115.041 Y88.958 E83.14834
G1 X114.758 Y88.857 E83.16333
G1 X114.291 Y88.835 E83.18665
G1 X124.268 Y98.812 E83.89058
G1 X123.981 Y98.918 E83.90585
G1 X123.309 Y99.267 E83.94362
G1 X112.876 Y88.835 E84.67969
G1 X111.461 Y88.834 E84.75029
G1 X122.504 Y99.877 E85.52943
G1 X122.15 Y100.201 E85.55337
G1 X121.811 Y100.598 E85.57942
G1 X110.2 Y88.987 E86.39864
G1 X109.883 Y88.995 E86.41446
G1 X108.675 Y88.876 E86.47502
G1 X121.243 Y101.444 E87.36176
G1 X120.978 Y101.987 E87.3919
G1 X120.825 Y102.441 E87.4158
G1 X107.22 Y88.835 E88.37574
G1 X105.805 Y88.835 E88.44634
G1 X120.572 Y103.602 E89.48823
G1 X120.531 Y104.216 E89.51893
G1 X120.531 Y104.975 E89.5568
G1 X104.718 Y89.161 E90.67253
G1 X104.036 Y89.626 E90.71371
G1 X103.858 Y89.716 E90.72366
G1 X120.531 Y106.389 E91.90003
G1 X120.531 Y107.803 E91.97057
G1 X102.864 Y90.136 E93.21708
G1 X102.637 Y90.214 E93.22905
G1 X101.917 Y90.361 E93.26571
G1 X101.693 Y90.379 E93.27692
G1 X120.531 Y109.218 E94.60608
G1 X120.532 Y110.633 E94.67668
G1 X100.238 Y90.339 E96.10853
G1 X99.714 Y90.245 E96.13509
G1 X99.075 Y90.047 E96.16846
G1 X98.555 Y89.858 E96.19607
G1 X98.33 Y89.844 E96.20731
G1 X120.532 Y112.047 E97.77382
G1 X120.532 Y113.461 E97.84436
G1 X96.906 Y89.835 E99.51131
G1 X95.491 Y89.834 E99.5819
G1 X120.532 Y114.875 E101.34868
G1 X120.532 Y115.892 E101.39942
G1 X120.562 Y116.319 E101.42077
G1 X94.077 Y89.834 E103.28943
G1 X93.772 Y89.834 E103.30465
G1 X93.346 Y89.916 E103.32629
G1 X92.969 Y90.141 E103.3482
G1 X121.055 Y118.226 E105.32978
G1 X121.272 Y118.685 E105.35511
G1 X121.637 Y119.262 E105.38917
G1 X122.109 Y119.826 E105.42586
G1 X122.678 Y120.355 E105.46462
G1 X123.283 Y120.784 E105.50163
G1 X123.929 Y121.127 E105.53812
G1 X124.615 Y121.39 E105.57477
G1 X125.336 Y121.563 E105.61176
G1 X126.011 Y121.638 E105.64564
G1 X126.947 Y121.9 E105.69414
G1 X127.333 Y122.143 E105.71689
G1 X127.72 Y122.489 E105.74279
G1 X127.98 Y122.754 E105.76131
G1 X128.179 Y123.154 E105.7836
G1 X128.296 Y123.553 E105.80435
G1 X128.375 Y123.92 E105.82308
G1 X128.392 Y124.15 E105.83458
G1 X125.864 Y121.622 E106.01295
G1 F2400 E105.51295
G0 F15000 X123.973 Y121.144
G1 F2400 E106.01295
G1 F4500 X128.401 Y125.573 E106.3254
G1 X128.4 Y126.986 E106.3959
G1 X92.48 Y91.065 E108.93028
G1 X92.4 Y91.318 E108.94352
G1 X92.05 Y92.05 E108.984
G1 X128.004 Y128.004 E111.52075
G1 X127.841 Y128.301 E111.53765
G1 X127.542 Y128.956 E111.57357
G1 X91.662 Y93.076 E114.1051
G1 X91.661 Y94.489 E114.17559
G1 X126.989 Y129.818 E116.66821
G1 X126.921 Y129.88 E116.6728
G1 X126.67 Y129.994 E116.68656
G1 X125.942 Y130.185 E116.7241
G1 X91.66 Y95.903 E119.14289
G1 X91.66 Y96.188 E119.1571
G1 X91.734 Y96.614 E119.17868
G1 X92.145 Y97.436 E119.22453
G1 X92.344 Y98.001 E119.25441
G1 X124.577 Y130.234 E121.52862
G1 X123.162 Y130.233 E121.59922
G1 X92.606 Y99.677 E123.75511
G1 X92.577 Y100.314 E123.78692
G1 X92.47 Y100.955 E123.81934
G1 X121.738 Y130.224 E125.88439
G1 X121.49 Y130.209 E125.89679
G1 X120.978 Y130.015 E125.92411
G1 X120.347 Y129.82 E125.95706
G1 X119.826 Y129.725 E125.98348
G1 X92.119 Y102.019 E127.93832
G1 X91.944 Y102.407 E127.95956
G1 X91.623 Y102.937 E127.99047
G1 X118.373 Y129.686 E129.87779
G1 X118.145 Y129.705 E129.8892
G1 X117.431 Y129.851 E129.92556
G1 X117.202 Y129.929 E129.93763
G1 X90.991 Y103.719 E131.78693
G1 X90.397 Y104.297 E131.82827
G1 X90.305 Y104.447 E131.83705
G1 X116.209 Y130.351 E133.66472
G1 X116.024 Y130.444 E133.67505
G1 X115.346 Y130.902 E133.71587
G1 X90.133 Y105.689 E135.49478
G1 X90.133 Y107.103 E135.56533
G1 X114.263 Y131.233 E137.26783
G1 X112.849 Y131.233 E137.33838
G1 X90.133 Y108.518 E138.94108
G1 X90.133 Y109.932 E139.01162
G1 X111.431 Y131.23 E140.51431
G1 X110.907 Y131.143 E140.54081
G1 X110.178 Y131.073 E140.57735
G1 X109.868 Y131.081 E140.59282
G1 X90.132 Y111.345 E141.9853
G1 X90.132 Y112.759 E142.05585
G1 X108.605 Y131.233 E143.35925
G1 X107.191 Y131.233 E143.4298
G1 X90.132 Y114.174 E144.6334
G1 X90.132 Y115.015 E144.67536
G1 X90.212 Y115.443 E144.69708
G1 X90.435 Y115.823 E144.71906
G1 X90.85 Y116.21 E144.74737
G1 X91.36 Y116.778 E144.78546
G1 X91.448 Y116.904 E144.79312
G1 X105.777 Y131.233 E145.80411
G1 X105.304 Y131.211 E145.82774
G1 X105.021 Y131.11 E145.84273
G1 X104.788 Y130.969 E145.85631
G1 X104.234 Y130.564 E145.89055
G1 X103.639 Y130.23 E145.92459
G1 X103.167 Y130.037 E145.95003
G1 X92.524 Y119.394 E146.70096
G1 X92.603 Y120.173 E146.74002
